; VectorDraft G-code
; Generated: 2026-06-02T06:13:04.838692+00:00
; Source: C:\Users\sir\Documents\technical drawing engine\plotcad_jobs\20260602-061254-9dd65ff7\Circuit diagram_OXB_T.dxf
; Page: A1 594.000 x 841.000 mm
; Calibration: identity
; Draw length: 2420.535 mm
; Travel estimate: 1979.956 mm
; Estimated plot time: 2m 47s
G21 ; millimeters
G90 ; absolute positioning
M5
M5
; PEN pen-4 layer=EPLAN100 width=0.350 color=#111111
; PATH 1 layer=EPLAN100 points=21 length=130.087
G0 X174.610 Y106.560 F6000
M3 S1000
G4 P0.085
G1 X174.677 Y106.229 F2300
G1 X174.859 Y105.959 F2300
G1 X175.129 Y105.777 F2300
G1 X175.460 Y105.710 F2300
G1 X198.270 Y105.710 F2300
G1 X198.601 Y105.777 F2300
G1 X198.871 Y105.959 F2300
G1 X199.053 Y106.229 F2300
G1 X199.120 Y106.560 F2300
G1 X199.120 Y146.140 F2300
G1 X199.053 Y146.471 F2300
G1 X198.871 Y146.741 F2300
G1 X198.601 Y146.923 F2300
G1 X198.270 Y146.990 F2300
G1 X175.460 Y146.990 F2300
G1 X175.129 Y146.923 F2300
G1 X174.859 Y146.741 F2300
G1 X174.677 Y146.471 F2300
G1 X174.610 Y146.140 F2300
G1 X174.610 Y106.560 F2300
M5
G4 P0.050
; PATH 2 layer=EPLAN100 points=25 length=22.726
G0 X176.480 Y109.415 F6000
M3 S1000
G4 P0.085
G1 X176.491 Y109.359 F2300
G1 X176.522 Y109.312 F2300
G1 X176.569 Y109.281 F2300
G1 X176.625 Y109.270 F2300
G1 X184.145 Y109.270 F2300
G1 X184.173 Y109.273 F2300
G1 X184.200 Y109.281 F2300
G1 X184.225 Y109.294 F2300
G1 X184.248 Y109.312 F2300
G1 X184.266 Y109.335 F2300
G1 X184.279 Y109.360 F2300
G1 X184.287 Y109.387 F2300
G1 X184.290 Y109.415 F2300
G1 X184.290 Y112.805 F2300
G1 X184.279 Y112.861 F2300
G1 X184.248 Y112.908 F2300
G1 X184.201 Y112.939 F2300
G1 X184.145 Y112.950 F2300
G1 X176.625 Y112.950 F2300
G1 X176.569 Y112.939 F2300
G1 X176.522 Y112.908 F2300
G1 X176.491 Y112.861 F2300
G1 X176.480 Y112.805 F2300
G1 X176.480 Y109.415 F2300
M5
G4 P0.050
; PATH 3 layer=EPLAN100 points=29 length=14.359
G0 X176.460 Y114.060 F6000
M3 S1000
G4 P0.085
G1 X176.464 Y114.015 F2300
G1 X176.478 Y113.972 F2300
G1 X176.499 Y113.932 F2300
G1 X176.527 Y113.897 F2300
G1 X176.562 Y113.869 F2300
G1 X176.602 Y113.848 F2300
G1 X176.645 Y113.834 F2300
G1 X176.690 Y113.830 F2300
G1 X179.920 Y113.830 F2300
G1 X180.010 Y113.848 F2300
G1 X180.083 Y113.897 F2300
G1 X180.132 Y113.970 F2300
G1 X180.150 Y114.060 F2300
G1 X180.150 Y117.290 F2300
G1 X180.146 Y117.335 F2300
G1 X180.132 Y117.378 F2300
G1 X180.111 Y117.418 F2300
G1 X180.083 Y117.453 F2300
G1 X180.048 Y117.481 F2300
G1 X180.008 Y117.502 F2300
G1 X179.965 Y117.516 F2300
G1 X179.920 Y117.520 F2300
G1 X176.690 Y117.520 F2300
G1 X176.600 Y117.502 F2300
G1 X176.527 Y117.453 F2300
G1 X176.478 Y117.380 F2300
G1 X176.460 Y117.290 F2300
G1 X176.460 Y114.060 F2300
M5
G4 P0.050
; PATH 4 layer=EPLAN100 points=29 length=14.359
G0 X180.680 Y114.060 F6000
M3 S1000
G4 P0.085
G1 X180.684 Y114.015 F2300
G1 X180.698 Y113.972 F2300
G1 X180.719 Y113.932 F2300
G1 X180.747 Y113.897 F2300
G1 X180.782 Y113.869 F2300
G1 X180.822 Y113.848 F2300
G1 X180.865 Y113.834 F2300
G1 X180.910 Y113.830 F2300
G1 X184.140 Y113.830 F2300
G1 X184.185 Y113.834 F2300
G1 X184.228 Y113.848 F2300
G1 X184.268 Y113.869 F2300
G1 X184.303 Y113.897 F2300
G1 X184.331 Y113.932 F2300
G1 X184.352 Y113.972 F2300
G1 X184.366 Y114.015 F2300
G1 X184.370 Y114.060 F2300
G1 X184.370 Y117.290 F2300
G1 X184.352 Y117.380 F2300
G1 X184.303 Y117.453 F2300
G1 X184.230 Y117.502 F2300
G1 X184.140 Y117.520 F2300
G1 X180.910 Y117.520 F2300
G1 X180.820 Y117.502 F2300
G1 X180.747 Y117.453 F2300
G1 X180.698 Y117.380 F2300
G1 X180.680 Y117.290 F2300
G1 X180.680 Y114.060 F2300
M5
G4 P0.050
; PATH 5 layer=EPLAN100 points=29 length=14.359
G0 X185.030 Y114.060 F6000
M3 S1000
G4 P0.085
G1 X185.034 Y114.015 F2300
G1 X185.048 Y113.972 F2300
G1 X185.069 Y113.932 F2300
G1 X185.097 Y113.897 F2300
G1 X185.132 Y113.869 F2300
G1 X185.172 Y113.848 F2300
G1 X185.215 Y113.834 F2300
G1 X185.260 Y113.830 F2300
G1 X188.490 Y113.830 F2300
G1 X188.535 Y113.834 F2300
G1 X188.578 Y113.848 F2300
G1 X188.618 Y113.869 F2300
G1 X188.653 Y113.897 F2300
G1 X188.681 Y113.932 F2300
G1 X188.702 Y113.972 F2300
G1 X188.716 Y114.015 F2300
G1 X188.720 Y114.060 F2300
G1 X188.720 Y117.290 F2300
G1 X188.702 Y117.380 F2300
G1 X188.653 Y117.453 F2300
G1 X188.580 Y117.502 F2300
G1 X188.490 Y117.520 F2300
G1 X185.260 Y117.520 F2300
G1 X185.170 Y117.502 F2300
G1 X185.097 Y117.453 F2300
G1 X185.048 Y117.380 F2300
G1 X185.030 Y117.290 F2300
G1 X185.030 Y114.060 F2300
M5
G4 P0.050
; PATH 6 layer=EPLAN100 points=29 length=14.359
G0 X189.380 Y114.080 F6000
M3 S1000
G4 P0.085
G1 X189.398 Y113.990 F2300
G1 X189.447 Y113.917 F2300
G1 X189.520 Y113.868 F2300
G1 X189.610 Y113.850 F2300
G1 X192.840 Y113.850 F2300
G1 X192.885 Y113.854 F2300
G1 X192.928 Y113.868 F2300
G1 X192.968 Y113.889 F2300
G1 X193.003 Y113.917 F2300
G1 X193.031 Y113.952 F2300
G1 X193.052 Y113.992 F2300
G1 X193.066 Y114.035 F2300
G1 X193.070 Y114.080 F2300
G1 X193.070 Y117.310 F2300
G1 X193.066 Y117.355 F2300
G1 X193.052 Y117.398 F2300
G1 X193.031 Y117.438 F2300
G1 X193.003 Y117.473 F2300
G1 X192.968 Y117.501 F2300
G1 X192.928 Y117.522 F2300
G1 X192.885 Y117.536 F2300
G1 X192.840 Y117.540 F2300
G1 X189.610 Y117.540 F2300
G1 X189.520 Y117.522 F2300
G1 X189.447 Y117.473 F2300
G1 X189.398 Y117.400 F2300
G1 X189.380 Y117.310 F2300
G1 X189.380 Y114.080 F2300
M5
G4 P0.050
; PATH 7 layer=EPLAN100 points=33 length=14.361
G0 X193.620 Y114.070 F6000
M3 S1000
G4 P0.085
G1 X193.624 Y114.025 F2300
G1 X193.638 Y113.982 F2300
G1 X193.659 Y113.942 F2300
G1 X193.687 Y113.907 F2300
G1 X193.722 Y113.879 F2300
G1 X193.762 Y113.858 F2300
G1 X193.805 Y113.844 F2300
G1 X193.850 Y113.840 F2300
G1 X197.080 Y113.840 F2300
G1 X197.125 Y113.844 F2300
G1 X197.168 Y113.858 F2300
G1 X197.208 Y113.879 F2300
G1 X197.243 Y113.907 F2300
G1 X197.271 Y113.942 F2300
G1 X197.292 Y113.982 F2300
G1 X197.306 Y114.025 F2300
G1 X197.310 Y114.070 F2300
G1 X197.310 Y117.300 F2300
G1 X197.292 Y117.390 F2300
G1 X197.243 Y117.463 F2300
G1 X197.170 Y117.512 F2300
G1 X197.080 Y117.530 F2300
G1 X193.850 Y117.530 F2300
G1 X193.805 Y117.526 F2300
G1 X193.762 Y117.512 F2300
G1 X193.722 Y117.491 F2300
G1 X193.687 Y117.463 F2300
G1 X193.659 Y117.428 F2300
G1 X193.638 Y117.388 F2300
G1 X193.624 Y117.345 F2300
G1 X193.620 Y117.300 F2300
G1 X193.620 Y114.070 F2300
M5
G4 P0.050
; PATH 8 layer=EPLAN100 points=29 length=22.727
G0 X189.460 Y109.415 F6000
M3 S1000
G4 P0.085
G1 X189.463 Y109.387 F2300
G1 X189.471 Y109.360 F2300
G1 X189.484 Y109.335 F2300
G1 X189.502 Y109.312 F2300
G1 X189.525 Y109.294 F2300
G1 X189.550 Y109.281 F2300
G1 X189.577 Y109.273 F2300
G1 X189.605 Y109.270 F2300
G1 X197.125 Y109.270 F2300
G1 X197.181 Y109.281 F2300
G1 X197.228 Y109.312 F2300
G1 X197.259 Y109.359 F2300
G1 X197.270 Y109.415 F2300
G1 X197.270 Y112.805 F2300
G1 X197.259 Y112.861 F2300
G1 X197.228 Y112.908 F2300
G1 X197.181 Y112.939 F2300
G1 X197.125 Y112.950 F2300
G1 X189.605 Y112.950 F2300
G1 X189.577 Y112.947 F2300
G1 X189.550 Y112.939 F2300
G1 X189.525 Y112.926 F2300
G1 X189.502 Y112.908 F2300
G1 X189.484 Y112.885 F2300
G1 X189.471 Y112.860 F2300
G1 X189.463 Y112.833 F2300
G1 X189.460 Y112.805 F2300
G1 X189.460 Y109.415 F2300
M5
G4 P0.050
; PATH 9 layer=EPLAN100 points=33 length=14.361
G0 X185.030 Y109.510 F6000
M3 S1000
G4 P0.085
G1 X185.034 Y109.465 F2300
G1 X185.048 Y109.422 F2300
G1 X185.069 Y109.382 F2300
G1 X185.097 Y109.347 F2300
G1 X185.132 Y109.319 F2300
G1 X185.172 Y109.298 F2300
G1 X185.215 Y109.284 F2300
G1 X185.260 Y109.280 F2300
G1 X188.490 Y109.280 F2300
G1 X188.535 Y109.284 F2300
G1 X188.578 Y109.298 F2300
G1 X188.618 Y109.319 F2300
G1 X188.653 Y109.347 F2300
G1 X188.681 Y109.382 F2300
G1 X188.702 Y109.422 F2300
G1 X188.716 Y109.465 F2300
G1 X188.720 Y109.510 F2300
G1 X188.720 Y112.740 F2300
G1 X188.702 Y112.830 F2300
G1 X188.653 Y112.903 F2300
G1 X188.580 Y112.952 F2300
G1 X188.490 Y112.970 F2300
G1 X185.260 Y112.970 F2300
G1 X185.215 Y112.966 F2300
G1 X185.172 Y112.952 F2300
G1 X185.132 Y112.931 F2300
G1 X185.097 Y112.903 F2300
G1 X185.069 Y112.868 F2300
G1 X185.048 Y112.828 F2300
G1 X185.034 Y112.785 F2300
G1 X185.030 Y112.740 F2300
G1 X185.030 Y109.510 F2300
M5
G4 P0.050
; PATH 10 layer=EPLAN100 points=21 length=70.161
G0 X176.520 Y119.360 F6000
M3 S1000
G4 P0.085
G1 X176.540 Y119.263 F2300
G1 X176.593 Y119.183 F2300
G1 X176.673 Y119.130 F2300
G1 X176.770 Y119.110 F2300
G1 X197.140 Y119.110 F2300
G1 X197.237 Y119.130 F2300
G1 X197.317 Y119.183 F2300
G1 X197.370 Y119.263 F2300
G1 X197.390 Y119.360 F2300
G1 X197.390 Y133.290 F2300
G1 X197.370 Y133.387 F2300
G1 X197.317 Y133.467 F2300
G1 X197.237 Y133.520 F2300
G1 X197.140 Y133.540 F2300
G1 X176.770 Y133.540 F2300
G1 X176.673 Y133.520 F2300
G1 X176.593 Y133.467 F2300
G1 X176.540 Y133.387 F2300
G1 X176.520 Y133.290 F2300
G1 X176.520 Y119.360 F2300
M5
G4 P0.050
; PATH 11 layer=EPLAN100 points=25 length=61.483
G0 X177.680 Y120.280 F6000
M3 S1000
G4 P0.085
G1 X177.687 Y120.245 F2300
G1 X177.706 Y120.216 F2300
G1 X177.735 Y120.197 F2300
G1 X177.770 Y120.190 F2300
G1 X196.150 Y120.190 F2300
G1 X196.185 Y120.197 F2300
G1 X196.214 Y120.216 F2300
G1 X196.233 Y120.245 F2300
G1 X196.240 Y120.280 F2300
G1 X196.240 Y132.360 F2300
G1 X196.238 Y132.378 F2300
G1 X196.233 Y132.394 F2300
G1 X196.225 Y132.410 F2300
G1 X196.214 Y132.424 F2300
G1 X196.200 Y132.435 F2300
G1 X196.184 Y132.443 F2300
G1 X196.168 Y132.448 F2300
G1 X196.150 Y132.450 F2300
G1 X177.770 Y132.450 F2300
G1 X177.735 Y132.443 F2300
G1 X177.706 Y132.424 F2300
G1 X177.687 Y132.395 F2300
G1 X177.680 Y132.360 F2300
G1 X177.680 Y120.280 F2300
M5
G4 P0.050
; PATH 12 layer=EPLAN100 points=25 length=7.278
G0 X176.600 Y135.930 F6000
M3 S1000
G4 P0.085
G1 X176.612 Y135.872 F2300
G1 X176.644 Y135.824 F2300
G1 X176.692 Y135.792 F2300
G1 X176.750 Y135.780 F2300
G1 X178.850 Y135.780 F2300
G1 X178.908 Y135.792 F2300
G1 X178.956 Y135.824 F2300
G1 X178.988 Y135.872 F2300
G1 X179.000 Y135.930 F2300
G1 X179.000 Y137.000 F2300
G1 X178.988 Y137.058 F2300
G1 X178.956 Y137.106 F2300
G1 X178.908 Y137.138 F2300
G1 X178.850 Y137.150 F2300
G1 X176.750 Y137.150 F2300
G1 X176.721 Y137.147 F2300
G1 X176.693 Y137.139 F2300
G1 X176.667 Y137.125 F2300
G1 X176.644 Y137.106 F2300
G1 X176.625 Y137.083 F2300
G1 X176.611 Y137.057 F2300
G1 X176.603 Y137.029 F2300
G1 X176.600 Y137.000 F2300
G1 X176.600 Y135.930 F2300
M5
G4 P0.050
; PATH 13 layer=EPLAN100 points=21 length=20.610
G0 X183.780 Y137.695 F6000
M3 S1000
G4 P0.085
G1 X183.799 Y137.600 F2300
G1 X183.852 Y137.522 F2300
G1 X183.930 Y137.469 F2300
G1 X184.025 Y137.450 F2300
G1 X189.835 Y137.450 F2300
G1 X189.930 Y137.469 F2300
G1 X190.008 Y137.522 F2300
G1 X190.061 Y137.600 F2300
G1 X190.080 Y137.695 F2300
G1 X190.080 Y141.425 F2300
G1 X190.061 Y141.520 F2300
G1 X190.008 Y141.598 F2300
G1 X189.930 Y141.651 F2300
G1 X189.835 Y141.670 F2300
G1 X184.025 Y141.670 F2300
G1 X183.930 Y141.651 F2300
G1 X183.852 Y141.598 F2300
G1 X183.799 Y141.520 F2300
G1 X183.780 Y141.425 F2300
G1 X183.780 Y137.695 F2300
M5
G4 P0.050
; PATH 14 layer=EPLAN100 points=3 length=3.814
G0 X183.510 Y140.690 F6000
M3 S1000
G4 P0.085
G1 X184.470 Y140.690 F2300
G1 X186.940 Y139.260 F2300
M5
G4 P0.050
; PATH 15 layer=EPLAN100 points=2 length=1.910
G0 X186.950 Y139.260 F6000
M3 S1000
G4 P0.085
G1 X186.950 Y137.350 F2300
M5
G4 P0.050
; PATH 16 layer=EPLAN100 points=3 length=3.814
G0 X186.950 Y139.260 F6000
M3 S1000
G4 P0.085
G1 X189.420 Y140.690 F2300
G1 X190.380 Y140.690 F2300
M5
G4 P0.050
; PATH 17 layer=EPLAN100 points=17 length=2.504
G0 X195.590 Y141.210 F6000
M3 S1000
G4 P0.085
G1 X195.460 Y141.119 F2300
G1 X195.371 Y140.993 F2300
G1 X195.327 Y140.845 F2300
G1 X195.335 Y140.686 F2300
G1 X195.396 Y140.540 F2300
G1 X195.499 Y140.425 F2300
G1 X195.634 Y140.350 F2300
G1 X195.790 Y140.323 F2300
G1 X195.946 Y140.350 F2300
G1 X196.081 Y140.425 F2300
G1 X196.184 Y140.540 F2300
G1 X196.245 Y140.686 F2300
G1 X196.253 Y140.845 F2300
G1 X196.209 Y140.993 F2300
G1 X196.120 Y141.119 F2300
G1 X195.990 Y141.210 F2300
M5
G4 P0.050
; PATH 18 layer=EPLAN100 points=2 length=0.250
G0 X195.790 Y141.110 F6000
M3 S1000
G4 P0.085
G1 X195.790 Y141.360 F2300
M5
G4 P0.050
; PATH 19 layer=EPLAN100 points=2 length=29.500
G0 X186.930 Y147.000 F6000
M3 S1000
G4 P0.085
G1 X186.930 Y176.500 F2300
M5
G4 P0.050
; PATH 20 layer=EPLAN100 points=5 length=3.750
G0 X186.180 Y176.500 F6000
M3 S1000
G4 P0.085
G1 X187.680 Y176.500 F2300
G1 X187.680 Y177.000 F2300
G1 X188.680 Y177.000 F2300
G1 X188.680 Y177.750 F2300
M5
G4 P0.050
; PATH 21 layer=EPLAN100 points=2 length=1.000
G0 X188.930 Y177.750 F6000
M3 S1000
G4 P0.085
G1 X188.930 Y178.750 F2300
M5
G4 P0.050
; PATH 22 layer=EPLAN100 points=2 length=4.000
G0 X188.930 Y178.750 F6000
M3 S1000
G4 P0.085
G1 X184.930 Y178.750 F2300
M5
G4 P0.050
; PATH 23 layer=EPLAN100 points=2 length=1.000
G0 X184.930 Y178.750 F6000
M3 S1000
G4 P0.085
G1 X184.930 Y177.750 F2300
M5
G4 P0.050
; PATH 24 layer=EPLAN100 points=4 length=2.250
G0 X185.180 Y177.750 F6000
M3 S1000
G4 P0.085
G1 X185.180 Y177.000 F2300
G1 X186.180 Y177.000 F2300
G1 X186.180 Y176.500 F2300
M5
G4 P0.050
; PATH 25 layer=EPLAN100 points=2 length=1.750
G0 X186.180 Y178.500 F6000
M3 S1000
G4 P0.085
G1 X186.180 Y180.250 F2300
M5
G4 P0.050
; PATH 26 layer=EPLAN100 points=2 length=1.750
G0 X185.930 Y180.250 F6000
M3 S1000
G4 P0.085
G1 X185.930 Y178.500 F2300
M5
G4 P0.050
; PATH 27 layer=EPLAN100 points=2 length=1.750
G0 X185.680 Y178.500 F6000
M3 S1000
G4 P0.085
G1 X185.680 Y180.250 F2300
M5
G4 P0.050
; PATH 28 layer=EPLAN100 points=2 length=1.750
G0 X185.430 Y180.250 F6000
M3 S1000
G4 P0.085
G1 X185.430 Y178.500 F2300
M5
G4 P0.050
; PATH 29 layer=EPLAN100 points=2 length=1.750
G0 X185.180 Y178.500 F6000
M3 S1000
G4 P0.085
G1 X185.180 Y180.250 F2300
M5
G4 P0.050
; PATH 30 layer=EPLAN100 points=2 length=3.000
G0 X185.430 Y180.000 F6000
M3 S1000
G4 P0.085
G1 X188.430 Y180.000 F2300
M5
G4 P0.050
; PATH 31 layer=EPLAN100 points=2 length=1.750
G0 X188.430 Y180.250 F6000
M3 S1000
G4 P0.085
G1 X188.430 Y178.500 F2300
M5
G4 P0.050
; PATH 32 layer=EPLAN100 points=2 length=1.750
G0 X188.180 Y178.500 F6000
M3 S1000
G4 P0.085
G1 X188.180 Y180.250 F2300
M5
G4 P0.050
; PATH 33 layer=EPLAN100 points=2 length=1.750
G0 X187.930 Y180.250 F6000
M3 S1000
G4 P0.085
G1 X187.930 Y178.500 F2300
M5
G4 P0.050
; PATH 34 layer=EPLAN100 points=2 length=1.750
G0 X187.680 Y178.500 F6000
M3 S1000
G4 P0.085
G1 X187.680 Y180.250 F2300
M5
G4 P0.050
; PATH 35 layer=EPLAN100 points=2 length=1.750
G0 X187.430 Y180.250 F6000
M3 S1000
G4 P0.085
G1 X187.430 Y178.500 F2300
M5
G4 P0.050
; PATH 36 layer=EPLAN100 points=2 length=1.750
G0 X187.180 Y178.500 F6000
M3 S1000
G4 P0.085
G1 X187.180 Y180.250 F2300
M5
G4 P0.050
; PATH 37 layer=EPLAN100 points=2 length=1.750
G0 X186.930 Y180.250 F6000
M3 S1000
G4 P0.085
G1 X186.930 Y178.500 F2300
M5
G4 P0.050
; PATH 38 layer=EPLAN100 points=2 length=1.750
G0 X186.680 Y178.500 F6000
M3 S1000
G4 P0.085
G1 X186.680 Y180.250 F2300
M5
G4 P0.050
; PATH 39 layer=EPLAN100 points=2 length=1.750
G0 X186.430 Y180.250 F6000
M3 S1000
G4 P0.085
G1 X186.430 Y178.500 F2300
M5
G4 P0.050
; PATH 40 layer=EPLAN100 points=2 length=3.000
G0 X185.430 Y178.750 F6000
M3 S1000
G4 P0.085
G1 X188.430 Y178.750 F2300
M5
G4 P0.050
; PATH 41 layer=EPLAN100 points=2 length=3.000
G0 X188.430 Y179.000 F6000
M3 S1000
G4 P0.085
G1 X185.430 Y179.000 F2300
M5
G4 P0.050
; PATH 42 layer=EPLAN100 points=2 length=3.000
G0 X185.430 Y179.250 F6000
M3 S1000
G4 P0.085
G1 X188.430 Y179.250 F2300
M5
G4 P0.050
; PATH 43 layer=EPLAN100 points=2 length=3.000
G0 X188.430 Y179.500 F6000
M3 S1000
G4 P0.085
G1 X185.430 Y179.500 F2300
M5
G4 P0.050
; PATH 44 layer=EPLAN100 points=2 length=3.000
G0 X185.430 Y179.750 F6000
M3 S1000
G4 P0.085
G1 X188.430 Y179.750 F2300
M5
G4 P0.050
; PATH 45 layer=EPLAN100 points=2 length=1.750
G0 X188.680 Y180.250 F6000
M3 S1000
G4 P0.085
G1 X188.680 Y178.500 F2300
M5
G4 P0.050
; PATH 46 layer=EPLAN100 points=5 length=15.000
G0 X184.430 Y177.750 F6000
M3 S1000
G4 P0.085
G1 X189.430 Y177.750 F2300
G1 X189.430 Y180.250 F2300
G1 X184.430 Y180.250 F2300
G1 X184.430 Y177.750 F2300
M5
G4 P0.050
; PATH 47 layer=EPLAN100 points=17 length=8.830
G0 X169.094 Y195.500 F6000
M3 S1000
G4 P0.085
G1 X168.983 Y194.950 F2300
G1 X168.680 Y194.500 F2300
G1 X168.230 Y194.197 F2300
G1 X167.680 Y194.086 F2300
G1 X167.130 Y194.197 F2300
G1 X166.680 Y194.500 F2300
G1 X166.377 Y194.950 F2300
G1 X166.266 Y195.500 F2300
G1 X166.377 Y196.050 F2300
G1 X166.680 Y196.500 F2300
G1 X167.130 Y196.803 F2300
G1 X167.680 Y196.914 F2300
G1 X168.230 Y196.803 F2300
G1 X168.680 Y196.500 F2300
G1 X168.983 Y196.050 F2300
G1 X169.094 Y195.500 F2300
M5
G4 P0.050
; PATH 48 layer=EPLAN100 points=2 length=1.000
G0 X169.680 Y202.750 F6000
M3 S1000
G4 P0.085
G1 X169.680 Y203.750 F2300
M5
G4 P0.050
; PATH 49 layer=EPLAN100 points=2 length=2.500
G0 X168.430 Y203.250 F6000
M3 S1000
G4 P0.085
G1 X170.930 Y203.250 F2300
M5
G4 P0.050
; PATH 50 layer=EPLAN100 points=17 length=8.830
G0 X171.094 Y203.250 F6000
M3 S1000
G4 P0.085
G1 X170.983 Y202.700 F2300
G1 X170.680 Y202.250 F2300
G1 X170.230 Y201.947 F2300
G1 X169.680 Y201.836 F2300
G1 X169.130 Y201.947 F2300
G1 X168.680 Y202.250 F2300
G1 X168.377 Y202.700 F2300
G1 X168.266 Y203.250 F2300
G1 X168.377 Y203.800 F2300
G1 X168.680 Y204.250 F2300
G1 X169.130 Y204.553 F2300
G1 X169.680 Y204.664 F2300
G1 X170.230 Y204.553 F2300
G1 X170.680 Y204.250 F2300
G1 X170.983 Y203.800 F2300
G1 X171.094 Y203.250 F2300
M5
G4 P0.050
; PATH 51 layer=EPLAN100 points=2 length=2.500
G0 X172.430 Y203.250 F6000
M3 S1000
G4 P0.085
G1 X174.930 Y203.250 F2300
M5
G4 P0.050
; PATH 52 layer=EPLAN100 points=17 length=8.830
G0 X175.094 Y203.250 F6000
M3 S1000
G4 P0.085
G1 X174.983 Y202.700 F2300
G1 X174.680 Y202.250 F2300
G1 X174.230 Y201.947 F2300
G1 X173.680 Y201.836 F2300
G1 X173.130 Y201.947 F2300
G1 X172.680 Y202.250 F2300
G1 X172.377 Y202.700 F2300
G1 X172.266 Y203.250 F2300
G1 X172.377 Y203.800 F2300
G1 X172.680 Y204.250 F2300
G1 X173.130 Y204.553 F2300
G1 X173.680 Y204.664 F2300
G1 X174.230 Y204.553 F2300
G1 X174.680 Y204.250 F2300
G1 X174.983 Y203.800 F2300
G1 X175.094 Y203.250 F2300
M5
G4 P0.050
; PATH 53 layer=EPLAN100 points=2 length=2.500
G0 X176.430 Y203.250 F6000
M3 S1000
G4 P0.085
G1 X178.930 Y203.250 F2300
M5
G4 P0.050
; PATH 54 layer=EPLAN100 points=17 length=8.830
G0 X179.094 Y203.250 F6000
M3 S1000
G4 P0.085
G1 X178.983 Y202.700 F2300
G1 X178.680 Y202.250 F2300
G1 X178.230 Y201.947 F2300
G1 X177.680 Y201.836 F2300
G1 X177.130 Y201.947 F2300
G1 X176.680 Y202.250 F2300
G1 X176.377 Y202.700 F2300
G1 X176.266 Y203.250 F2300
G1 X176.377 Y203.800 F2300
G1 X176.680 Y204.250 F2300
G1 X177.130 Y204.553 F2300
G1 X177.680 Y204.664 F2300
G1 X178.230 Y204.553 F2300
G1 X178.680 Y204.250 F2300
G1 X178.983 Y203.800 F2300
G1 X179.094 Y203.250 F2300
M5
G4 P0.050
; PATH 55 layer=EPLAN100 points=2 length=1.000
G0 X177.680 Y203.750 F6000
M3 S1000
G4 P0.085
G1 X177.680 Y202.750 F2300
M5
G4 P0.050
; PATH 56 layer=EPLAN100 points=2 length=1.000
G0 X173.680 Y202.750 F6000
M3 S1000
G4 P0.085
G1 X173.680 Y203.750 F2300
M5
G4 P0.050
; PATH 57 layer=EPLAN100 points=2 length=2.500
G0 X183.430 Y203.250 F6000
M3 S1000
G4 P0.085
G1 X185.930 Y203.250 F2300
M5
G4 P0.050
; PATH 58 layer=EPLAN100 points=17 length=8.830
G0 X186.094 Y203.250 F6000
M3 S1000
G4 P0.085
G1 X185.983 Y202.700 F2300
G1 X185.680 Y202.250 F2300
G1 X185.230 Y201.947 F2300
G1 X184.680 Y201.836 F2300
G1 X184.130 Y201.947 F2300
G1 X183.680 Y202.250 F2300
G1 X183.377 Y202.700 F2300
G1 X183.266 Y203.250 F2300
G1 X183.377 Y203.800 F2300
G1 X183.680 Y204.250 F2300
G1 X184.130 Y204.553 F2300
G1 X184.680 Y204.664 F2300
G1 X185.230 Y204.553 F2300
G1 X185.680 Y204.250 F2300
G1 X185.983 Y203.800 F2300
G1 X186.094 Y203.250 F2300
M5
G4 P0.050
; PATH 59 layer=EPLAN100 points=2 length=2.500
G0 X187.430 Y203.250 F6000
M3 S1000
G4 P0.085
G1 X189.930 Y203.250 F2300
M5
G4 P0.050
; PATH 60 layer=EPLAN100 points=17 length=8.830
G0 X190.094 Y203.250 F6000
M3 S1000
G4 P0.085
G1 X189.983 Y202.700 F2300
G1 X189.680 Y202.250 F2300
G1 X189.230 Y201.947 F2300
G1 X188.680 Y201.836 F2300
G1 X188.130 Y201.947 F2300
G1 X187.680 Y202.250 F2300
G1 X187.377 Y202.700 F2300
G1 X187.266 Y203.250 F2300
G1 X187.377 Y203.800 F2300
G1 X187.680 Y204.250 F2300
G1 X188.130 Y204.553 F2300
G1 X188.680 Y204.664 F2300
G1 X189.230 Y204.553 F2300
G1 X189.680 Y204.250 F2300
G1 X189.983 Y203.800 F2300
G1 X190.094 Y203.250 F2300
M5
G4 P0.050
; PATH 61 layer=EPLAN100 points=2 length=1.000
G0 X188.680 Y203.750 F6000
M3 S1000
G4 P0.085
G1 X188.680 Y202.750 F2300
M5
G4 P0.050
; PATH 62 layer=EPLAN100 points=2 length=1.000
G0 X184.680 Y202.750 F6000
M3 S1000
G4 P0.085
G1 X184.680 Y203.750 F2300
M5
G4 P0.050
; PATH 63 layer=EPLAN100 points=2 length=2.500
G0 X194.430 Y203.250 F6000
M3 S1000
G4 P0.085
G1 X196.930 Y203.250 F2300
M5
G4 P0.050
; PATH 64 layer=EPLAN100 points=17 length=8.830
G0 X197.094 Y203.250 F6000
M3 S1000
G4 P0.085
G1 X196.983 Y202.700 F2300
G1 X196.680 Y202.250 F2300
G1 X196.230 Y201.947 F2300
G1 X195.680 Y201.836 F2300
G1 X195.130 Y201.947 F2300
G1 X194.680 Y202.250 F2300
G1 X194.377 Y202.700 F2300
G1 X194.266 Y203.250 F2300
G1 X194.377 Y203.800 F2300
G1 X194.680 Y204.250 F2300
G1 X195.130 Y204.553 F2300
G1 X195.680 Y204.664 F2300
G1 X196.230 Y204.553 F2300
G1 X196.680 Y204.250 F2300
G1 X196.983 Y203.800 F2300
G1 X197.094 Y203.250 F2300
M5
G4 P0.050
; PATH 65 layer=EPLAN100 points=2 length=2.500
G0 X198.430 Y203.250 F6000
M3 S1000
G4 P0.085
G1 X200.930 Y203.250 F2300
M5
G4 P0.050
; PATH 66 layer=EPLAN100 points=17 length=8.830
G0 X201.094 Y203.250 F6000
M3 S1000
G4 P0.085
G1 X200.983 Y202.700 F2300
G1 X200.680 Y202.250 F2300
G1 X200.230 Y201.947 F2300
G1 X199.680 Y201.836 F2300
G1 X199.130 Y201.947 F2300
G1 X198.680 Y202.250 F2300
G1 X198.377 Y202.700 F2300
G1 X198.266 Y203.250 F2300
G1 X198.377 Y203.800 F2300
G1 X198.680 Y204.250 F2300
G1 X199.130 Y204.553 F2300
G1 X199.680 Y204.664 F2300
G1 X200.230 Y204.553 F2300
G1 X200.680 Y204.250 F2300
G1 X200.983 Y203.800 F2300
G1 X201.094 Y203.250 F2300
M5
G4 P0.050
; PATH 67 layer=EPLAN100 points=2 length=1.000
G0 X199.680 Y203.750 F6000
M3 S1000
G4 P0.085
G1 X199.680 Y202.750 F2300
M5
G4 P0.050
; PATH 68 layer=EPLAN100 points=2 length=1.000
G0 X195.680 Y202.750 F6000
M3 S1000
G4 P0.085
G1 X195.680 Y203.750 F2300
M5
G4 P0.050
; PATH 69 layer=EPLAN100 points=2 length=2.500
G0 X205.180 Y203.250 F6000
M3 S1000
G4 P0.085
G1 X207.680 Y203.250 F2300
M5
G4 P0.050
; PATH 70 layer=EPLAN100 points=17 length=8.830
G0 X207.844 Y203.250 F6000
M3 S1000
G4 P0.085
G1 X207.733 Y202.700 F2300
G1 X207.430 Y202.250 F2300
G1 X206.980 Y201.947 F2300
G1 X206.430 Y201.836 F2300
G1 X205.880 Y201.947 F2300
G1 X205.430 Y202.250 F2300
G1 X205.127 Y202.700 F2300
G1 X205.016 Y203.250 F2300
G1 X205.127 Y203.800 F2300
G1 X205.430 Y204.250 F2300
G1 X205.880 Y204.553 F2300
G1 X206.430 Y204.664 F2300
G1 X206.980 Y204.553 F2300
G1 X207.430 Y204.250 F2300
G1 X207.733 Y203.800 F2300
G1 X207.844 Y203.250 F2300
M5
G4 P0.050
; PATH 71 layer=EPLAN100 points=2 length=2.500
G0 X209.180 Y203.250 F6000
M3 S1000
G4 P0.085
G1 X211.680 Y203.250 F2300
M5
G4 P0.050
; PATH 72 layer=EPLAN100 points=17 length=8.830
G0 X211.844 Y203.250 F6000
M3 S1000
G4 P0.085
G1 X211.733 Y202.700 F2300
G1 X211.430 Y202.250 F2300
G1 X210.980 Y201.947 F2300
G1 X210.430 Y201.836 F2300
G1 X209.880 Y201.947 F2300
G1 X209.430 Y202.250 F2300
G1 X209.127 Y202.700 F2300
G1 X209.016 Y203.250 F2300
G1 X209.127 Y203.800 F2300
G1 X209.430 Y204.250 F2300
G1 X209.880 Y204.553 F2300
G1 X210.430 Y204.664 F2300
G1 X210.980 Y204.553 F2300
G1 X211.430 Y204.250 F2300
G1 X211.733 Y203.800 F2300
G1 X211.844 Y203.250 F2300
M5
G4 P0.050
; PATH 73 layer=EPLAN100 points=2 length=2.500
G0 X213.180 Y203.250 F6000
M3 S1000
G4 P0.085
G1 X215.680 Y203.250 F2300
M5
G4 P0.050
; PATH 74 layer=EPLAN100 points=17 length=8.830
G0 X215.844 Y203.250 F6000
M3 S1000
G4 P0.085
G1 X215.733 Y202.700 F2300
G1 X215.430 Y202.250 F2300
G1 X214.980 Y201.947 F2300
G1 X214.430 Y201.836 F2300
G1 X213.880 Y201.947 F2300
G1 X213.430 Y202.250 F2300
G1 X213.127 Y202.700 F2300
G1 X213.016 Y203.250 F2300
G1 X213.127 Y203.800 F2300
G1 X213.430 Y204.250 F2300
G1 X213.880 Y204.553 F2300
G1 X214.430 Y204.664 F2300
G1 X214.980 Y204.553 F2300
G1 X215.430 Y204.250 F2300
G1 X215.733 Y203.800 F2300
G1 X215.844 Y203.250 F2300
M5
G4 P0.050
; PATH 75 layer=EPLAN100 points=2 length=2.500
G0 X217.180 Y203.250 F6000
M3 S1000
G4 P0.085
G1 X219.680 Y203.250 F2300
M5
G4 P0.050
; PATH 76 layer=EPLAN100 points=17 length=8.830
G0 X219.844 Y203.250 F6000
M3 S1000
G4 P0.085
G1 X219.733 Y202.700 F2300
G1 X219.430 Y202.250 F2300
G1 X218.980 Y201.947 F2300
G1 X218.430 Y201.836 F2300
G1 X217.880 Y201.947 F2300
G1 X217.430 Y202.250 F2300
G1 X217.127 Y202.700 F2300
G1 X217.016 Y203.250 F2300
G1 X217.127 Y203.800 F2300
G1 X217.430 Y204.250 F2300
G1 X217.880 Y204.553 F2300
G1 X218.430 Y204.664 F2300
G1 X218.980 Y204.553 F2300
G1 X219.430 Y204.250 F2300
G1 X219.733 Y203.800 F2300
G1 X219.844 Y203.250 F2300
M5
G4 P0.050
; PATH 77 layer=EPLAN100 points=2 length=1.000
G0 X218.430 Y203.750 F6000
M3 S1000
G4 P0.085
G1 X218.430 Y202.750 F2300
M5
G4 P0.050
; PATH 78 layer=EPLAN100 points=2 length=1.000
G0 X214.430 Y202.750 F6000
M3 S1000
G4 P0.085
G1 X214.430 Y203.750 F2300
M5
G4 P0.050
; PATH 79 layer=EPLAN100 points=2 length=6.750
G0 X212.430 Y205.250 F6000
M3 S1000
G4 P0.085
G1 X205.680 Y205.250 F2300
M5
G4 P0.050
; PATH 80 layer=EPLAN100 points=13 length=6.265
G0 X205.680 Y205.250 F6000
M3 S1000
G4 P0.085
G1 X205.158 Y205.181 F2300
G1 X204.680 Y204.982 F2300
G1 X204.269 Y204.667 F2300
G1 X203.948 Y204.250 F2300
G1 X203.747 Y203.763 F2300
G1 X203.680 Y203.250 F2300
G1 X203.747 Y202.737 F2300
G1 X203.948 Y202.250 F2300
G1 X204.269 Y201.833 F2300
G1 X204.680 Y201.518 F2300
G1 X205.158 Y201.319 F2300
G1 X205.680 Y201.250 F2300
M5
G4 P0.050
; PATH 81 layer=EPLAN100 points=2 length=6.750
G0 X205.680 Y201.250 F6000
M3 S1000
G4 P0.085
G1 X212.430 Y201.250 F2300
M5
G4 P0.050
; PATH 82 layer=EPLAN100 points=2 length=1.000
G0 X210.430 Y202.750 F6000
M3 S1000
G4 P0.085
G1 X210.430 Y203.750 F2300
M5
G4 P0.050
; PATH 83 layer=EPLAN100 points=2 length=1.000
G0 X206.430 Y203.750 F6000
M3 S1000
G4 P0.085
G1 X206.430 Y202.750 F2300
M5
G4 P0.050
; PATH 84 layer=EPLAN100 points=5 length=30.000
G0 X224.930 Y204.750 F6000
M3 S1000
G4 P0.085
G1 X232.430 Y204.750 F2300
G1 X232.430 Y212.250 F2300
G1 X224.930 Y212.250 F2300
G1 X224.930 Y204.750 F2300
M5
G4 P0.050
; PATH 85 layer=EPLAN100 points=2 length=2.915
G0 X227.430 Y210.750 F6000
M3 S1000
G4 P0.085
G1 X229.930 Y209.250 F2300
M5
G4 P0.050
; PATH 86 layer=EPLAN100 points=5 length=30.000
G0 X236.180 Y204.750 F6000
M3 S1000
G4 P0.085
G1 X243.680 Y204.750 F2300
G1 X243.680 Y212.250 F2300
G1 X236.180 Y212.250 F2300
G1 X236.180 Y204.750 F2300
M5
G4 P0.050
; PATH 87 layer=EPLAN100 points=2 length=2.915
G0 X238.680 Y210.750 F6000
M3 S1000
G4 P0.085
G1 X241.180 Y209.250 F2300
M5
G4 P0.050
; PATH 88 layer=EPLAN100 points=2 length=5.000
G0 X241.680 Y185.000 F6000
M3 S1000
G4 P0.085
G1 X241.680 Y180.000 F2300
M5
G4 P0.050
; PATH 89 layer=EPLAN100 points=2 length=3.000
G0 X241.680 Y182.500 F6000
M3 S1000
G4 P0.085
G1 X244.680 Y182.500 F2300
M5
G4 P0.050
; PATH 90 layer=EPLAN100 points=2 length=88.750
G0 X226.180 Y182.500 F6000
M3 S1000
G4 P0.085
G1 X314.930 Y182.500 F2300
M5
G4 P0.050
; PATH 91 layer=EPLAN100 points=2 length=2.000
G0 X315.180 Y186.250 F6000
M3 S1000
G4 P0.085
G1 X317.180 Y186.250 F2300
M5
G4 P0.050
; PATH 92 layer=EPLAN100 points=2 length=7.500
G0 X312.930 Y186.750 F6000
M3 S1000
G4 P0.085
G1 X312.930 Y179.250 F2300
M5
G4 P0.050
; PATH 93 layer=EPLAN100 points=2 length=2.750
G0 X312.930 Y177.750 F6000
M3 S1000
G4 P0.085
G1 X312.930 Y175.000 F2300
M5
G4 P0.050
; PATH 94 layer=EPLAN100 points=2 length=5.506
G0 X303.930 Y170.250 F6000
M3 S1000
G4 P0.085
G1 X300.430 Y166.000 F2300
M5
G4 P0.050
; PATH 95 layer=EPLAN100 points=5 length=25.000
G0 X299.180 Y165.000 F6000
M3 S1000
G4 P0.085
G1 X305.680 Y165.000 F2300
G1 X305.680 Y171.000 F2300
G1 X299.180 Y171.000 F2300
G1 X299.180 Y165.000 F2300
M5
G4 P0.050
; PATH 96 layer=EPLAN100 points=2 length=2.236
G0 X294.930 Y160.250 F6000
M3 S1000
G4 P0.085
G1 X293.930 Y158.250 F2300
M5
G4 P0.050
; PATH 97 layer=EPLAN100 points=2 length=2.236
G0 X293.430 Y158.250 F6000
M3 S1000
G4 P0.085
G1 X294.430 Y160.250 F2300
M5
G4 P0.050
; PATH 98 layer=EPLAN100 points=18 length=14.987
G0 X295.430 Y159.250 F6000
M3 S1000
G4 P0.085
G1 X292.930 Y159.250 F2300
G1 X292.773 Y160.028 F2300
G1 X292.344 Y160.664 F2300
G1 X291.708 Y161.093 F2300
G1 X290.930 Y161.250 F2300
G1 X290.152 Y161.093 F2300
G1 X289.516 Y160.664 F2300
G1 X289.087 Y160.028 F2300
G1 X288.930 Y159.250 F2300
G1 X289.087 Y158.472 F2300
G1 X289.516 Y157.836 F2300
G1 X290.152 Y157.407 F2300
G1 X290.930 Y157.250 F2300
G1 X291.708 Y157.407 F2300
G1 X292.344 Y157.836 F2300
G1 X292.773 Y158.472 F2300
G1 X292.930 Y159.250 F2300
M5
G4 P0.050
; PATH 99 layer=EPLAN100 points=5 length=25.000
G0 X288.180 Y165.000 F6000
M3 S1000
G4 P0.085
G1 X294.680 Y165.000 F2300
G1 X294.680 Y171.000 F2300
G1 X288.180 Y171.000 F2300
G1 X288.180 Y165.000 F2300
M5
G4 P0.050
; PATH 100 layer=EPLAN100 points=2 length=5.506
G0 X289.430 Y166.000 F6000
M3 S1000
G4 P0.085
G1 X292.930 Y170.250 F2300
M5
G4 P0.050
; PATH 101 layer=EPLAN100 points=2 length=2.750
G0 X290.930 Y175.000 F6000
M3 S1000
G4 P0.085
G1 X290.930 Y177.750 F2300
M5
G4 P0.050
; PATH 102 layer=EPLAN100 points=2 length=7.500
G0 X290.930 Y179.250 F6000
M3 S1000
G4 P0.085
G1 X290.930 Y186.750 F2300
M5
G4 P0.050
; PATH 103 layer=EPLAN100 points=2 length=2.000
G0 X288.680 Y186.250 F6000
M3 S1000
G4 P0.085
G1 X286.680 Y186.250 F2300
M5
G4 P0.050
; PATH 104 layer=EPLAN100 points=2 length=2.000
G0 X284.180 Y186.250 F6000
M3 S1000
G4 P0.085
G1 X282.180 Y186.250 F2300
M5
G4 P0.050
; PATH 105 layer=EPLAN100 points=2 length=7.500
G0 X279.930 Y186.750 F6000
M3 S1000
G4 P0.085
G1 X279.930 Y179.250 F2300
M5
G4 P0.050
; PATH 106 layer=EPLAN100 points=2 length=2.750
G0 X279.930 Y177.750 F6000
M3 S1000
G4 P0.085
G1 X279.930 Y175.000 F2300
M5
G4 P0.050
; PATH 107 layer=EPLAN100 points=2 length=5.506
G0 X281.930 Y170.250 F6000
M3 S1000
G4 P0.085
G1 X278.430 Y166.000 F2300
M5
G4 P0.050
; PATH 108 layer=EPLAN100 points=5 length=25.000
G0 X277.180 Y165.000 F6000
M3 S1000
G4 P0.085
G1 X283.680 Y165.000 F2300
G1 X283.680 Y171.000 F2300
G1 X277.180 Y171.000 F2300
G1 X277.180 Y165.000 F2300
M5
G4 P0.050
; PATH 109 layer=EPLAN100 points=18 length=14.987
G0 X281.930 Y159.250 F6000
M3 S1000
G4 P0.085
G1 X281.773 Y158.472 F2300
G1 X281.344 Y157.836 F2300
G1 X280.708 Y157.407 F2300
G1 X279.930 Y157.250 F2300
G1 X279.152 Y157.407 F2300
G1 X278.516 Y157.836 F2300
G1 X278.087 Y158.472 F2300
G1 X277.930 Y159.250 F2300
G1 X278.087 Y160.028 F2300
G1 X278.516 Y160.664 F2300
G1 X279.152 Y161.093 F2300
G1 X279.930 Y161.250 F2300
G1 X280.708 Y161.093 F2300
G1 X281.344 Y160.664 F2300
G1 X281.773 Y160.028 F2300
G1 X281.930 Y159.250 F2300
G1 X284.430 Y159.250 F2300
M5
G4 P0.050
; PATH 110 layer=EPLAN100 points=2 length=2.236
G0 X283.930 Y160.250 F6000
M3 S1000
G4 P0.085
G1 X282.930 Y158.250 F2300
M5
G4 P0.050
; PATH 111 layer=EPLAN100 points=2 length=2.236
G0 X282.430 Y158.250 F6000
M3 S1000
G4 P0.085
G1 X283.430 Y160.250 F2300
M5
G4 P0.050
; PATH 112 layer=EPLAN100 points=18 length=14.987
G0 X303.930 Y159.250 F6000
M3 S1000
G4 P0.085
G1 X303.773 Y158.472 F2300
G1 X303.344 Y157.836 F2300
G1 X302.708 Y157.407 F2300
G1 X301.930 Y157.250 F2300
G1 X301.152 Y157.407 F2300
G1 X300.516 Y157.836 F2300
G1 X300.087 Y158.472 F2300
G1 X299.930 Y159.250 F2300
G1 X300.087 Y160.028 F2300
G1 X300.516 Y160.664 F2300
G1 X301.152 Y161.093 F2300
G1 X301.930 Y161.250 F2300
G1 X302.708 Y161.093 F2300
G1 X303.344 Y160.664 F2300
G1 X303.773 Y160.028 F2300
G1 X303.930 Y159.250 F2300
G1 X306.430 Y159.250 F2300
M5
G4 P0.050
; PATH 113 layer=EPLAN100 points=2 length=2.236
G0 X305.930 Y160.250 F6000
M3 S1000
G4 P0.085
G1 X304.930 Y158.250 F2300
M5
G4 P0.050
; PATH 114 layer=EPLAN100 points=2 length=2.236
G0 X304.430 Y158.250 F6000
M3 S1000
G4 P0.085
G1 X305.430 Y160.250 F2300
M5
G4 P0.050
; PATH 115 layer=EPLAN100 points=5 length=25.000
G0 X309.680 Y165.000 F6000
M3 S1000
G4 P0.085
G1 X316.180 Y165.000 F2300
G1 X316.180 Y171.000 F2300
G1 X309.680 Y171.000 F2300
G1 X309.680 Y165.000 F2300
M5
G4 P0.050
; PATH 116 layer=EPLAN100 points=18 length=14.987
G0 X314.930 Y159.250 F6000
M3 S1000
G4 P0.085
G1 X314.773 Y158.472 F2300
G1 X314.344 Y157.836 F2300
G1 X313.708 Y157.407 F2300
G1 X312.930 Y157.250 F2300
G1 X312.152 Y157.407 F2300
G1 X311.516 Y157.836 F2300
G1 X311.087 Y158.472 F2300
G1 X310.930 Y159.250 F2300
G1 X311.087 Y160.028 F2300
G1 X311.516 Y160.664 F2300
G1 X312.152 Y161.093 F2300
G1 X312.930 Y161.250 F2300
G1 X313.708 Y161.093 F2300
G1 X314.344 Y160.664 F2300
G1 X314.773 Y160.028 F2300
G1 X314.930 Y159.250 F2300
G1 X317.430 Y159.250 F2300
M5
G4 P0.050
; PATH 117 layer=EPLAN100 points=2 length=2.236
G0 X316.930 Y160.250 F6000
M3 S1000
G4 P0.085
G1 X315.930 Y158.250 F2300
M5
G4 P0.050
; PATH 118 layer=EPLAN100 points=2 length=2.236
G0 X315.430 Y158.250 F6000
M3 S1000
G4 P0.085
G1 X316.430 Y160.250 F2300
M5
G4 P0.050
; PATH 119 layer=EPLAN100 points=2 length=2.750
G0 X301.930 Y175.000 F6000
M3 S1000
G4 P0.085
G1 X301.930 Y177.750 F2300
M5
G4 P0.050
; PATH 120 layer=EPLAN100 points=2 length=7.500
G0 X301.930 Y179.250 F6000
M3 S1000
G4 P0.085
G1 X301.930 Y186.750 F2300
M5
G4 P0.050
; PATH 121 layer=EPLAN100 points=2 length=2.000
G0 X299.680 Y186.250 F6000
M3 S1000
G4 P0.085
G1 X297.680 Y186.250 F2300
M5
G4 P0.050
; PATH 122 layer=EPLAN100 points=2 length=2.000
G0 X295.180 Y186.250 F6000
M3 S1000
G4 P0.085
G1 X293.180 Y186.250 F2300
M5
G4 P0.050
; PATH 123 layer=EPLAN100 points=2 length=2.000
G0 X304.180 Y186.250 F6000
M3 S1000
G4 P0.085
G1 X306.180 Y186.250 F2300
M5
G4 P0.050
; PATH 124 layer=EPLAN100 points=2 length=2.000
G0 X308.680 Y186.250 F6000
M3 S1000
G4 P0.085
G1 X310.680 Y186.250 F2300
M5
G4 P0.050
; PATH 125 layer=EPLAN100 points=2 length=2.000
G0 X277.680 Y186.250 F6000
M3 S1000
G4 P0.085
G1 X275.680 Y186.250 F2300
M5
G4 P0.050
; PATH 126 layer=EPLAN100 points=2 length=5.657
G0 X224.180 Y184.750 F6000
M3 S1000
G4 P0.085
G1 X220.180 Y180.750 F2300
M5
G4 P0.050
; PATH 127 layer=EPLAN100 points=2 length=1.500
G0 X215.180 Y223.000 F6000
M3 S1000
G4 P0.085
G1 X215.180 Y224.500 F2300
M5
G4 P0.050
; PATH 128 layer=EPLAN100 points=2 length=0.500
G0 X215.180 Y223.750 F6000
M3 S1000
G4 P0.085
G1 X215.680 Y223.750 F2300
M5
G4 P0.050
; PATH 129 layer=EPLAN100 points=2 length=0.750
G0 X216.430 Y223.750 F6000
M3 S1000
G4 P0.085
G1 X217.180 Y223.750 F2300
M5
G4 P0.050
; PATH 130 layer=EPLAN100 points=2 length=0.750
G0 X213.180 Y223.750 F6000
M3 S1000
G4 P0.085
G1 X212.430 Y223.750 F2300
M5
G4 P0.050
; PATH 131 layer=EPLAN100 points=2 length=0.500
G0 X211.680 Y223.750 F6000
M3 S1000
G4 P0.085
G1 X211.180 Y223.750 F2300
M5
G4 P0.050
; PATH 132 layer=EPLAN100 points=2 length=1.500
G0 X211.180 Y224.500 F6000
M3 S1000
G4 P0.085
G1 X211.180 Y223.000 F2300
M5
G4 P0.050
; PATH 133 layer=EPLAN100 points=2 length=0.750
G0 X209.430 Y223.750 F6000
M3 S1000
G4 P0.085
G1 X208.680 Y223.750 F2300
M5
G4 P0.050
; PATH 134 layer=EPLAN100 points=2 length=0.500
G0 X207.930 Y223.750 F6000
M3 S1000
G4 P0.085
G1 X207.430 Y223.750 F2300
M5
G4 P0.050
; PATH 135 layer=EPLAN100 points=2 length=1.500
G0 X207.430 Y224.500 F6000
M3 S1000
G4 P0.085
G1 X207.430 Y223.000 F2300
M5
G4 P0.050
; PATH 136 layer=EPLAN100 points=3 length=2.500
G0 X163.110 Y265.750 F6000
M3 S1000
G4 P0.085
G1 X163.110 Y265.000 F2300
G1 X161.360 Y265.000 F2300
M5
G4 P0.050
; PATH 137 layer=EPLAN100 points=2 length=3.021
G0 X161.860 Y265.750 F6000
M3 S1000
G4 P0.085
G1 X163.110 Y268.500 F2300
M5
G4 P0.050
; PATH 138 layer=EPLAN100 points=3 length=2.500
G0 X163.110 Y268.500 F6000
M3 S1000
G4 P0.085
G1 X163.110 Y269.250 F2300
G1 X161.360 Y269.250 F2300
M5
G4 P0.050
; PATH 139 layer=EPLAN100 points=3 length=2.500
G0 X161.360 Y271.500 F6000
M3 S1000
G4 P0.085
G1 X163.110 Y271.500 F2300
G1 X163.110 Y272.250 F2300
M5
G4 P0.050
; PATH 140 layer=EPLAN100 points=2 length=3.021
G0 X161.860 Y272.250 F6000
M3 S1000
G4 P0.085
G1 X163.110 Y275.000 F2300
M5
G4 P0.050
; PATH 141 layer=EPLAN100 points=3 length=2.500
G0 X163.110 Y275.000 F6000
M3 S1000
G4 P0.085
G1 X163.110 Y275.750 F2300
G1 X161.360 Y275.750 F2300
M5
G4 P0.050
; PATH 142 layer=EPLAN100 points=3 length=2.500
G0 X134.110 Y275.000 F6000
M3 S1000
G4 P0.085
G1 X134.110 Y275.750 F2300
G1 X132.360 Y275.750 F2300
M5
G4 P0.050
; PATH 143 layer=EPLAN100 points=2 length=3.021
G0 X134.110 Y275.000 F6000
M3 S1000
G4 P0.085
G1 X132.860 Y272.250 F2300
M5
G4 P0.050
; PATH 144 layer=EPLAN100 points=3 length=2.500
G0 X132.360 Y271.500 F6000
M3 S1000
G4 P0.085
G1 X134.110 Y271.500 F2300
G1 X134.110 Y272.250 F2300
M5
G4 P0.050
; PATH 145 layer=EPLAN100 points=3 length=2.500
G0 X132.360 Y269.250 F6000
M3 S1000
G4 P0.085
G1 X134.110 Y269.250 F2300
G1 X134.110 Y268.500 F2300
M5
G4 P0.050
; PATH 146 layer=EPLAN100 points=2 length=3.021
G0 X134.110 Y268.500 F6000
M3 S1000
G4 P0.085
G1 X132.860 Y265.750 F2300
M5
G4 P0.050
; PATH 147 layer=EPLAN100 points=3 length=2.500
G0 X132.360 Y265.000 F6000
M3 S1000
G4 P0.085
G1 X134.110 Y265.000 F2300
G1 X134.110 Y265.750 F2300
M5
G4 P0.050
; PATH 148 layer=EPLAN100 points=3 length=2.500
G0 X105.110 Y265.750 F6000
M3 S1000
G4 P0.085
G1 X105.110 Y265.000 F2300
G1 X103.360 Y265.000 F2300
M5
G4 P0.050
; PATH 149 layer=EPLAN100 points=2 length=3.021
G0 X103.860 Y265.750 F6000
M3 S1000
G4 P0.085
G1 X105.110 Y268.500 F2300
M5
G4 P0.050
; PATH 150 layer=EPLAN100 points=3 length=2.500
G0 X105.110 Y268.500 F6000
M3 S1000
G4 P0.085
G1 X105.110 Y269.250 F2300
G1 X103.360 Y269.250 F2300
M5
G4 P0.050
; PATH 151 layer=EPLAN100 points=3 length=2.500
G0 X103.360 Y271.500 F6000
M3 S1000
G4 P0.085
G1 X105.110 Y271.500 F2300
G1 X105.110 Y272.250 F2300
M5
G4 P0.050
; PATH 152 layer=EPLAN100 points=2 length=3.021
G0 X103.860 Y272.250 F6000
M3 S1000
G4 P0.085
G1 X105.110 Y275.000 F2300
M5
G4 P0.050
; PATH 153 layer=EPLAN100 points=3 length=2.500
G0 X105.110 Y275.000 F6000
M3 S1000
G4 P0.085
G1 X105.110 Y275.750 F2300
G1 X103.360 Y275.750 F2300
M5
G4 P0.050
; PATH 154 layer=EPLAN100 points=2 length=1.750
G0 X97.360 Y234.000 F6000
M3 S1000
G4 P0.085
G1 X97.360 Y232.250 F2300
M5
G4 P0.050
; PATH 155 layer=EPLAN100 points=2 length=1.750
G0 X97.110 Y232.250 F6000
M3 S1000
G4 P0.085
G1 X97.110 Y234.000 F2300
M5
G4 P0.050
; PATH 156 layer=EPLAN100 points=2 length=1.750
G0 X96.860 Y234.000 F6000
M3 S1000
G4 P0.085
G1 X96.860 Y232.250 F2300
M5
G4 P0.050
; PATH 157 layer=EPLAN100 points=2 length=1.750
G0 X96.610 Y232.250 F6000
M3 S1000
G4 P0.085
G1 X96.610 Y234.000 F2300
M5
G4 P0.050
; PATH 158 layer=EPLAN100 points=2 length=1.750
G0 X96.360 Y234.000 F6000
M3 S1000
G4 P0.085
G1 X96.360 Y232.250 F2300
M5
G4 P0.050
; PATH 159 layer=EPLAN100 points=2 length=1.750
G0 X96.110 Y232.250 F6000
M3 S1000
G4 P0.085
G1 X96.110 Y234.000 F2300
M5
G4 P0.050
; PATH 160 layer=EPLAN100 points=2 length=1.750
G0 X95.860 Y234.000 F6000
M3 S1000
G4 P0.085
G1 X95.860 Y232.250 F2300
M5
G4 P0.050
; PATH 161 layer=EPLAN100 points=2 length=1.750
G0 X95.610 Y232.250 F6000
M3 S1000
G4 P0.085
G1 X95.610 Y234.000 F2300
M5
G4 P0.050
; PATH 162 layer=EPLAN100 points=2 length=1.750
G0 X95.360 Y234.000 F6000
M3 S1000
G4 P0.085
G1 X95.360 Y232.250 F2300
M5
G4 P0.050
; PATH 163 layer=EPLAN100 points=2 length=1.750
G0 X95.110 Y232.250 F6000
M3 S1000
G4 P0.085
G1 X95.110 Y234.000 F2300
M5
G4 P0.050
; PATH 164 layer=EPLAN100 points=2 length=1.750
G0 X94.860 Y234.000 F6000
M3 S1000
G4 P0.085
G1 X94.860 Y232.250 F2300
M5
G4 P0.050
; PATH 165 layer=EPLAN100 points=2 length=1.750
G0 X94.610 Y232.250 F6000
M3 S1000
G4 P0.085
G1 X94.610 Y234.000 F2300
M5
G4 P0.050
; PATH 166 layer=EPLAN100 points=2 length=1.750
G0 X94.360 Y234.000 F6000
M3 S1000
G4 P0.085
G1 X94.360 Y232.250 F2300
M5
G4 P0.050
; PATH 167 layer=EPLAN100 points=2 length=1.750
G0 X94.110 Y232.250 F6000
M3 S1000
G4 P0.085
G1 X94.110 Y234.000 F2300
M5
G4 P0.050
; PATH 168 layer=EPLAN100 points=2 length=1.750
G0 X93.860 Y234.000 F6000
M3 S1000
G4 P0.085
G1 X93.860 Y232.250 F2300
M5
G4 P0.050
; PATH 169 layer=EPLAN100 points=2 length=1.000
G0 X93.610 Y232.500 F6000
M3 S1000
G4 P0.085
G1 X93.610 Y231.500 F2300
M5
G4 P0.050
; PATH 170 layer=EPLAN100 points=4 length=2.250
G0 X93.860 Y231.500 F6000
M3 S1000
G4 P0.085
G1 X93.860 Y230.750 F2300
G1 X94.860 Y230.750 F2300
G1 X94.860 Y230.250 F2300
M5
G4 P0.050
; PATH 171 layer=EPLAN100 points=5 length=3.750
G0 X94.860 Y230.250 F6000
M3 S1000
G4 P0.085
G1 X96.360 Y230.250 F2300
G1 X96.360 Y230.750 F2300
G1 X97.360 Y230.750 F2300
G1 X97.360 Y231.500 F2300
M5
G4 P0.050
; PATH 172 layer=EPLAN100 points=2 length=1.000
G0 X97.610 Y231.500 F6000
M3 S1000
G4 P0.085
G1 X97.610 Y232.500 F2300
M5
G4 P0.050
; PATH 173 layer=EPLAN100 points=2 length=4.000
G0 X97.610 Y232.500 F6000
M3 S1000
G4 P0.085
G1 X93.610 Y232.500 F2300
M5
G4 P0.050
; PATH 174 layer=EPLAN100 points=2 length=3.000
G0 X94.110 Y232.500 F6000
M3 S1000
G4 P0.085
G1 X97.110 Y232.500 F2300
M5
G4 P0.050
; PATH 175 layer=EPLAN100 points=2 length=3.000
G0 X97.110 Y232.750 F6000
M3 S1000
G4 P0.085
G1 X94.110 Y232.750 F2300
M5
G4 P0.050
; PATH 176 layer=EPLAN100 points=2 length=3.000
G0 X94.110 Y233.000 F6000
M3 S1000
G4 P0.085
G1 X97.110 Y233.000 F2300
M5
G4 P0.050
; PATH 177 layer=EPLAN100 points=2 length=3.000
G0 X97.110 Y233.250 F6000
M3 S1000
G4 P0.085
G1 X94.110 Y233.250 F2300
M5
G4 P0.050
; PATH 178 layer=EPLAN100 points=2 length=3.000
G0 X94.110 Y233.500 F6000
M3 S1000
G4 P0.085
G1 X97.110 Y233.500 F2300
M5
G4 P0.050
; PATH 179 layer=EPLAN100 points=2 length=3.000
G0 X97.110 Y233.750 F6000
M3 S1000
G4 P0.085
G1 X94.110 Y233.750 F2300
M5
G4 P0.050
; PATH 180 layer=EPLAN100 points=5 length=15.000
G0 X93.110 Y231.500 F6000
M3 S1000
G4 P0.085
G1 X98.110 Y231.500 F2300
G1 X98.110 Y234.000 F2300
G1 X93.110 Y234.000 F2300
G1 X93.110 Y231.500 F2300
M5
G4 P0.050
; PATH 181 layer=EPLAN100 points=2 length=1.000
G0 X81.110 Y231.500 F6000
M3 S1000
G4 P0.085
G1 X81.110 Y232.500 F2300
M5
G4 P0.050
; PATH 182 layer=EPLAN100 points=2 length=4.000
G0 X81.110 Y232.500 F6000
M3 S1000
G4 P0.085
G1 X77.110 Y232.500 F2300
M5
G4 P0.050
; PATH 183 layer=EPLAN100 points=2 length=1.000
G0 X77.110 Y232.500 F6000
M3 S1000
G4 P0.085
G1 X77.110 Y231.500 F2300
M5
G4 P0.050
; PATH 184 layer=EPLAN100 points=4 length=2.250
G0 X77.360 Y231.500 F6000
M3 S1000
G4 P0.085
G1 X77.360 Y230.750 F2300
G1 X78.360 Y230.750 F2300
G1 X78.360 Y230.250 F2300
M5
G4 P0.050
; PATH 185 layer=EPLAN100 points=5 length=3.750
G0 X78.360 Y230.250 F6000
M3 S1000
G4 P0.085
G1 X79.860 Y230.250 F2300
G1 X79.860 Y230.750 F2300
G1 X80.860 Y230.750 F2300
G1 X80.860 Y231.500 F2300
M5
G4 P0.050
; PATH 186 layer=EPLAN100 points=2 length=1.750
G0 X80.860 Y232.250 F6000
M3 S1000
G4 P0.085
G1 X80.860 Y234.000 F2300
M5
G4 P0.050
; PATH 187 layer=EPLAN100 points=2 length=1.750
G0 X80.610 Y234.000 F6000
M3 S1000
G4 P0.085
G1 X80.610 Y232.250 F2300
M5
G4 P0.050
; PATH 188 layer=EPLAN100 points=2 length=1.750
G0 X80.360 Y232.250 F6000
M3 S1000
G4 P0.085
G1 X80.360 Y234.000 F2300
M5
G4 P0.050
; PATH 189 layer=EPLAN100 points=2 length=1.750
G0 X80.110 Y234.000 F6000
M3 S1000
G4 P0.085
G1 X80.110 Y232.250 F2300
M5
G4 P0.050
; PATH 190 layer=EPLAN100 points=2 length=1.750
G0 X79.860 Y232.250 F6000
M3 S1000
G4 P0.085
G1 X79.860 Y234.000 F2300
M5
G4 P0.050
; PATH 191 layer=EPLAN100 points=2 length=1.750
G0 X79.610 Y234.000 F6000
M3 S1000
G4 P0.085
G1 X79.610 Y232.250 F2300
M5
G4 P0.050
; PATH 192 layer=EPLAN100 points=2 length=1.750
G0 X79.360 Y232.250 F6000
M3 S1000
G4 P0.085
G1 X79.360 Y234.000 F2300
M5
G4 P0.050
; PATH 193 layer=EPLAN100 points=2 length=1.750
G0 X79.110 Y234.000 F6000
M3 S1000
G4 P0.085
G1 X79.110 Y232.250 F2300
M5
G4 P0.050
; PATH 194 layer=EPLAN100 points=2 length=1.750
G0 X78.860 Y232.250 F6000
M3 S1000
G4 P0.085
G1 X78.860 Y234.000 F2300
M5
G4 P0.050
; PATH 195 layer=EPLAN100 points=2 length=1.750
G0 X78.610 Y234.000 F6000
M3 S1000
G4 P0.085
G1 X78.610 Y232.250 F2300
M5
G4 P0.050
; PATH 196 layer=EPLAN100 points=2 length=1.750
G0 X78.360 Y232.250 F6000
M3 S1000
G4 P0.085
G1 X78.360 Y234.000 F2300
M5
G4 P0.050
; PATH 197 layer=EPLAN100 points=2 length=1.750
G0 X78.110 Y234.000 F6000
M3 S1000
G4 P0.085
G1 X78.110 Y232.250 F2300
M5
G4 P0.050
; PATH 198 layer=EPLAN100 points=2 length=1.750
G0 X77.860 Y232.250 F6000
M3 S1000
G4 P0.085
G1 X77.860 Y234.000 F2300
M5
G4 P0.050
; PATH 199 layer=EPLAN100 points=2 length=1.750
G0 X77.610 Y234.000 F6000
M3 S1000
G4 P0.085
G1 X77.610 Y232.250 F2300
M5
G4 P0.050
; PATH 200 layer=EPLAN100 points=2 length=1.750
G0 X77.360 Y232.250 F6000
M3 S1000
G4 P0.085
G1 X77.360 Y234.000 F2300
M5
G4 P0.050
; PATH 201 layer=EPLAN100 points=2 length=3.000
G0 X77.610 Y233.750 F6000
M3 S1000
G4 P0.085
G1 X80.610 Y233.750 F2300
M5
G4 P0.050
; PATH 202 layer=EPLAN100 points=2 length=3.000
G0 X80.610 Y233.500 F6000
M3 S1000
G4 P0.085
G1 X77.610 Y233.500 F2300
M5
G4 P0.050
; PATH 203 layer=EPLAN100 points=2 length=3.000
G0 X77.610 Y233.250 F6000
M3 S1000
G4 P0.085
G1 X80.610 Y233.250 F2300
M5
G4 P0.050
; PATH 204 layer=EPLAN100 points=2 length=3.000
G0 X80.610 Y233.000 F6000
M3 S1000
G4 P0.085
G1 X77.610 Y233.000 F2300
M5
G4 P0.050
; PATH 205 layer=EPLAN100 points=2 length=3.000
G0 X77.610 Y232.750 F6000
M3 S1000
G4 P0.085
G1 X80.610 Y232.750 F2300
M5
G4 P0.050
; PATH 206 layer=EPLAN100 points=2 length=3.000
G0 X80.610 Y232.500 F6000
M3 S1000
G4 P0.085
G1 X77.610 Y232.500 F2300
M5
G4 P0.050
; PATH 207 layer=EPLAN100 points=5 length=15.000
G0 X76.610 Y231.500 F6000
M3 S1000
G4 P0.085
G1 X81.610 Y231.500 F2300
G1 X81.610 Y234.000 F2300
G1 X76.610 Y234.000 F2300
G1 X76.610 Y231.500 F2300
M5
G4 P0.050
; PATH 208 layer=EPLAN100 points=2 length=1.000
G0 X64.610 Y231.500 F6000
M3 S1000
G4 P0.085
G1 X64.610 Y232.500 F2300
M5
G4 P0.050
; PATH 209 layer=EPLAN100 points=2 length=4.000
G0 X64.610 Y232.500 F6000
M3 S1000
G4 P0.085
G1 X60.610 Y232.500 F2300
M5
G4 P0.050
; PATH 210 layer=EPLAN100 points=2 length=1.000
G0 X60.610 Y232.500 F6000
M3 S1000
G4 P0.085
G1 X60.610 Y231.500 F2300
M5
G4 P0.050
; PATH 211 layer=EPLAN100 points=4 length=2.250
G0 X60.860 Y231.500 F6000
M3 S1000
G4 P0.085
G1 X60.860 Y230.750 F2300
G1 X61.860 Y230.750 F2300
G1 X61.860 Y230.250 F2300
M5
G4 P0.050
; PATH 212 layer=EPLAN100 points=5 length=3.750
G0 X61.860 Y230.250 F6000
M3 S1000
G4 P0.085
G1 X63.360 Y230.250 F2300
G1 X63.360 Y230.750 F2300
G1 X64.360 Y230.750 F2300
G1 X64.360 Y231.500 F2300
M5
G4 P0.050
; PATH 213 layer=EPLAN100 points=2 length=1.750
G0 X64.360 Y232.250 F6000
M3 S1000
G4 P0.085
G1 X64.360 Y234.000 F2300
M5
G4 P0.050
; PATH 214 layer=EPLAN100 points=2 length=1.750
G0 X64.110 Y234.000 F6000
M3 S1000
G4 P0.085
G1 X64.110 Y232.250 F2300
M5
G4 P0.050
; PATH 215 layer=EPLAN100 points=2 length=3.000
G0 X64.110 Y232.500 F6000
M3 S1000
G4 P0.085
G1 X61.110 Y232.500 F2300
M5
G4 P0.050
; PATH 216 layer=EPLAN100 points=2 length=1.750
G0 X61.110 Y232.250 F6000
M3 S1000
G4 P0.085
G1 X61.110 Y234.000 F2300
M5
G4 P0.050
; PATH 217 layer=EPLAN100 points=2 length=1.750
G0 X60.860 Y234.000 F6000
M3 S1000
G4 P0.085
G1 X60.860 Y232.250 F2300
M5
G4 P0.050
; PATH 218 layer=EPLAN100 points=2 length=1.750
G0 X61.360 Y232.250 F6000
M3 S1000
G4 P0.085
G1 X61.360 Y234.000 F2300
M5
G4 P0.050
; PATH 219 layer=EPLAN100 points=2 length=1.750
G0 X61.610 Y234.000 F6000
M3 S1000
G4 P0.085
G1 X61.610 Y232.250 F2300
M5
G4 P0.050
; PATH 220 layer=EPLAN100 points=2 length=1.750
G0 X61.860 Y232.250 F6000
M3 S1000
G4 P0.085
G1 X61.860 Y234.000 F2300
M5
G4 P0.050
; PATH 221 layer=EPLAN100 points=2 length=1.750
G0 X62.110 Y234.000 F6000
M3 S1000
G4 P0.085
G1 X62.110 Y232.250 F2300
M5
G4 P0.050
; PATH 222 layer=EPLAN100 points=2 length=1.750
G0 X62.360 Y232.250 F6000
M3 S1000
G4 P0.085
G1 X62.360 Y234.000 F2300
M5
G4 P0.050
; PATH 223 layer=EPLAN100 points=2 length=1.750
G0 X62.610 Y234.000 F6000
M3 S1000
G4 P0.085
G1 X62.610 Y232.250 F2300
M5
G4 P0.050
; PATH 224 layer=EPLAN100 points=2 length=1.750
G0 X62.860 Y232.250 F6000
M3 S1000
G4 P0.085
G1 X62.860 Y234.000 F2300
M5
G4 P0.050
; PATH 225 layer=EPLAN100 points=2 length=1.750
G0 X63.110 Y234.000 F6000
M3 S1000
G4 P0.085
G1 X63.110 Y232.250 F2300
M5
G4 P0.050
; PATH 226 layer=EPLAN100 points=2 length=1.750
G0 X63.360 Y232.250 F6000
M3 S1000
G4 P0.085
G1 X63.360 Y234.000 F2300
M5
G4 P0.050
; PATH 227 layer=EPLAN100 points=2 length=1.750
G0 X63.610 Y234.000 F6000
M3 S1000
G4 P0.085
G1 X63.610 Y232.250 F2300
M5
G4 P0.050
; PATH 228 layer=EPLAN100 points=2 length=1.750
G0 X63.860 Y232.250 F6000
M3 S1000
G4 P0.085
G1 X63.860 Y234.000 F2300
M5
G4 P0.050
; PATH 229 layer=EPLAN100 points=2 length=3.000
G0 X64.110 Y233.750 F6000
M3 S1000
G4 P0.085
G1 X61.110 Y233.750 F2300
M5
G4 P0.050
; PATH 230 layer=EPLAN100 points=2 length=3.000
G0 X61.110 Y233.500 F6000
M3 S1000
G4 P0.085
G1 X64.110 Y233.500 F2300
M5
G4 P0.050
; PATH 231 layer=EPLAN100 points=2 length=3.000
G0 X64.110 Y233.250 F6000
M3 S1000
G4 P0.085
G1 X61.110 Y233.250 F2300
M5
G4 P0.050
; PATH 232 layer=EPLAN100 points=2 length=3.000
G0 X61.110 Y233.000 F6000
M3 S1000
G4 P0.085
G1 X64.110 Y233.000 F2300
M5
G4 P0.050
; PATH 233 layer=EPLAN100 points=2 length=3.000
G0 X64.110 Y232.750 F6000
M3 S1000
G4 P0.085
G1 X61.110 Y232.750 F2300
M5
G4 P0.050
; PATH 234 layer=EPLAN100 points=5 length=15.000
G0 X60.110 Y231.500 F6000
M3 S1000
G4 P0.085
G1 X65.110 Y231.500 F2300
G1 X65.110 Y234.000 F2300
G1 X60.110 Y234.000 F2300
G1 X60.110 Y231.500 F2300
M5
G4 P0.050
; PATH 235 layer=EPLAN100 points=2 length=1.000
G0 X47.990 Y231.500 F6000
M3 S1000
G4 P0.085
G1 X47.990 Y232.500 F2300
M5
G4 P0.050
; PATH 236 layer=EPLAN100 points=2 length=4.000
G0 X47.990 Y232.500 F6000
M3 S1000
G4 P0.085
G1 X43.990 Y232.500 F2300
M5
G4 P0.050
; PATH 237 layer=EPLAN100 points=2 length=1.000
G0 X43.990 Y232.500 F6000
M3 S1000
G4 P0.085
G1 X43.990 Y231.500 F2300
M5
G4 P0.050
; PATH 238 layer=EPLAN100 points=4 length=2.250
G0 X44.240 Y231.500 F6000
M3 S1000
G4 P0.085
G1 X44.240 Y230.750 F2300
G1 X45.240 Y230.750 F2300
G1 X45.240 Y230.250 F2300
M5
G4 P0.050
; PATH 239 layer=EPLAN100 points=5 length=3.750
G0 X45.240 Y230.250 F6000
M3 S1000
G4 P0.085
G1 X46.740 Y230.250 F2300
G1 X46.740 Y230.750 F2300
G1 X47.740 Y230.750 F2300
G1 X47.740 Y231.500 F2300
M5
G4 P0.050
; PATH 240 layer=EPLAN100 points=2 length=1.750
G0 X47.740 Y232.250 F6000
M3 S1000
G4 P0.085
G1 X47.740 Y234.000 F2300
M5
G4 P0.050
; PATH 241 layer=EPLAN100 points=2 length=1.750
G0 X47.490 Y234.000 F6000
M3 S1000
G4 P0.085
G1 X47.490 Y232.250 F2300
M5
G4 P0.050
; PATH 242 layer=EPLAN100 points=2 length=1.750
G0 X47.240 Y232.250 F6000
M3 S1000
G4 P0.085
G1 X47.240 Y234.000 F2300
M5
G4 P0.050
; PATH 243 layer=EPLAN100 points=2 length=1.750
G0 X46.990 Y234.000 F6000
M3 S1000
G4 P0.085
G1 X46.990 Y232.250 F2300
M5
G4 P0.050
; PATH 244 layer=EPLAN100 points=2 length=1.750
G0 X46.740 Y232.250 F6000
M3 S1000
G4 P0.085
G1 X46.740 Y234.000 F2300
M5
G4 P0.050
; PATH 245 layer=EPLAN100 points=2 length=1.750
G0 X46.490 Y234.000 F6000
M3 S1000
G4 P0.085
G1 X46.490 Y232.250 F2300
M5
G4 P0.050
; PATH 246 layer=EPLAN100 points=2 length=1.750
G0 X46.240 Y232.250 F6000
M3 S1000
G4 P0.085
G1 X46.240 Y234.000 F2300
M5
G4 P0.050
; PATH 247 layer=EPLAN100 points=2 length=1.750
G0 X45.990 Y234.000 F6000
M3 S1000
G4 P0.085
G1 X45.990 Y232.250 F2300
M5
G4 P0.050
; PATH 248 layer=EPLAN100 points=2 length=1.750
G0 X45.740 Y232.250 F6000
M3 S1000
G4 P0.085
G1 X45.740 Y234.000 F2300
M5
G4 P0.050
; PATH 249 layer=EPLAN100 points=2 length=1.750
G0 X45.490 Y234.000 F6000
M3 S1000
G4 P0.085
G1 X45.490 Y232.250 F2300
M5
G4 P0.050
; PATH 250 layer=EPLAN100 points=2 length=1.750
G0 X45.240 Y232.250 F6000
M3 S1000
G4 P0.085
G1 X45.240 Y234.000 F2300
M5
G4 P0.050
; PATH 251 layer=EPLAN100 points=2 length=1.750
G0 X44.990 Y234.000 F6000
M3 S1000
G4 P0.085
G1 X44.990 Y232.250 F2300
M5
G4 P0.050
; PATH 252 layer=EPLAN100 points=2 length=1.750
G0 X44.740 Y232.250 F6000
M3 S1000
G4 P0.085
G1 X44.740 Y234.000 F2300
M5
G4 P0.050
; PATH 253 layer=EPLAN100 points=2 length=1.750
G0 X44.490 Y234.000 F6000
M3 S1000
G4 P0.085
G1 X44.490 Y232.250 F2300
M5
G4 P0.050
; PATH 254 layer=EPLAN100 points=2 length=1.750
G0 X44.240 Y232.250 F6000
M3 S1000
G4 P0.085
G1 X44.240 Y234.000 F2300
M5
G4 P0.050
; PATH 255 layer=EPLAN100 points=2 length=3.000
G0 X44.490 Y233.750 F6000
M3 S1000
G4 P0.085
G1 X47.490 Y233.750 F2300
M5
G4 P0.050
; PATH 256 layer=EPLAN100 points=2 length=3.000
G0 X47.490 Y233.500 F6000
M3 S1000
G4 P0.085
G1 X44.490 Y233.500 F2300
M5
G4 P0.050
; PATH 257 layer=EPLAN100 points=2 length=3.000
G0 X44.490 Y233.250 F6000
M3 S1000
G4 P0.085
G1 X47.490 Y233.250 F2300
M5
G4 P0.050
; PATH 258 layer=EPLAN100 points=2 length=3.000
G0 X47.490 Y233.000 F6000
M3 S1000
G4 P0.085
G1 X44.490 Y233.000 F2300
M5
G4 P0.050
; PATH 259 layer=EPLAN100 points=2 length=3.000
G0 X44.490 Y232.750 F6000
M3 S1000
G4 P0.085
G1 X47.490 Y232.750 F2300
M5
G4 P0.050
; PATH 260 layer=EPLAN100 points=2 length=3.000
G0 X47.490 Y232.500 F6000
M3 S1000
G4 P0.085
G1 X44.490 Y232.500 F2300
M5
G4 P0.050
; PATH 261 layer=EPLAN100 points=5 length=15.000
G0 X43.490 Y231.500 F6000
M3 S1000
G4 P0.085
G1 X48.490 Y231.500 F2300
G1 X48.490 Y234.000 F2300
G1 X43.490 Y234.000 F2300
G1 X43.490 Y231.500 F2300
M5
G4 P0.050
; PATH 262 layer=EPLAN100 points=5 length=15.000
G0 X109.610 Y231.500 F6000
M3 S1000
G4 P0.085
G1 X114.610 Y231.500 F2300
G1 X114.610 Y234.000 F2300
G1 X109.610 Y234.000 F2300
G1 X109.610 Y231.500 F2300
M5
G4 P0.050
; PATH 263 layer=EPLAN100 points=2 length=1.000
G0 X110.110 Y231.500 F6000
M3 S1000
G4 P0.085
G1 X110.110 Y232.500 F2300
M5
G4 P0.050
; PATH 264 layer=EPLAN100 points=2 length=4.000
G0 X110.110 Y232.500 F6000
M3 S1000
G4 P0.085
G1 X114.110 Y232.500 F2300
M5
G4 P0.050
; PATH 265 layer=EPLAN100 points=2 length=1.000
G0 X114.110 Y232.500 F6000
M3 S1000
G4 P0.085
G1 X114.110 Y231.500 F2300
M5
G4 P0.050
; PATH 266 layer=EPLAN100 points=5 length=3.750
G0 X113.860 Y231.500 F6000
M3 S1000
G4 P0.085
G1 X113.860 Y230.750 F2300
G1 X112.860 Y230.750 F2300
G1 X112.860 Y230.250 F2300
G1 X111.360 Y230.250 F2300
M5
G4 P0.050
; PATH 267 layer=EPLAN100 points=4 length=2.250
G0 X111.360 Y230.250 F6000
M3 S1000
G4 P0.085
G1 X111.360 Y230.750 F2300
G1 X110.360 Y230.750 F2300
G1 X110.360 Y231.500 F2300
M5
G4 P0.050
; PATH 268 layer=EPLAN100 points=2 length=1.750
G0 X110.360 Y232.250 F6000
M3 S1000
G4 P0.085
G1 X110.360 Y234.000 F2300
M5
G4 P0.050
; PATH 269 layer=EPLAN100 points=2 length=1.750
G0 X110.610 Y234.000 F6000
M3 S1000
G4 P0.085
G1 X110.610 Y232.250 F2300
M5
G4 P0.050
; PATH 270 layer=EPLAN100 points=2 length=1.750
G0 X110.860 Y232.250 F6000
M3 S1000
G4 P0.085
G1 X110.860 Y234.000 F2300
M5
G4 P0.050
; PATH 271 layer=EPLAN100 points=2 length=1.750
G0 X111.110 Y234.000 F6000
M3 S1000
G4 P0.085
G1 X111.110 Y232.250 F2300
M5
G4 P0.050
; PATH 272 layer=EPLAN100 points=2 length=1.750
G0 X111.360 Y232.250 F6000
M3 S1000
G4 P0.085
G1 X111.360 Y234.000 F2300
M5
G4 P0.050
; PATH 273 layer=EPLAN100 points=2 length=1.750
G0 X111.610 Y234.000 F6000
M3 S1000
G4 P0.085
G1 X111.610 Y232.250 F2300
M5
G4 P0.050
; PATH 274 layer=EPLAN100 points=2 length=1.750
G0 X111.860 Y232.250 F6000
M3 S1000
G4 P0.085
G1 X111.860 Y234.000 F2300
M5
G4 P0.050
; PATH 275 layer=EPLAN100 points=2 length=1.750
G0 X112.110 Y234.000 F6000
M3 S1000
G4 P0.085
G1 X112.110 Y232.250 F2300
M5
G4 P0.050
; PATH 276 layer=EPLAN100 points=2 length=1.750
G0 X112.360 Y232.250 F6000
M3 S1000
G4 P0.085
G1 X112.360 Y234.000 F2300
M5
G4 P0.050
; PATH 277 layer=EPLAN100 points=2 length=1.750
G0 X112.610 Y234.000 F6000
M3 S1000
G4 P0.085
G1 X112.610 Y232.250 F2300
M5
G4 P0.050
; PATH 278 layer=EPLAN100 points=2 length=1.750
G0 X112.860 Y232.250 F6000
M3 S1000
G4 P0.085
G1 X112.860 Y234.000 F2300
M5
G4 P0.050
; PATH 279 layer=EPLAN100 points=2 length=1.750
G0 X113.110 Y234.000 F6000
M3 S1000
G4 P0.085
G1 X113.110 Y232.250 F2300
M5
G4 P0.050
; PATH 280 layer=EPLAN100 points=2 length=1.750
G0 X113.360 Y232.250 F6000
M3 S1000
G4 P0.085
G1 X113.360 Y234.000 F2300
M5
G4 P0.050
; PATH 281 layer=EPLAN100 points=2 length=1.750
G0 X113.610 Y234.000 F6000
M3 S1000
G4 P0.085
G1 X113.610 Y232.250 F2300
M5
G4 P0.050
; PATH 282 layer=EPLAN100 points=2 length=1.750
G0 X113.860 Y232.250 F6000
M3 S1000
G4 P0.085
G1 X113.860 Y234.000 F2300
M5
G4 P0.050
; PATH 283 layer=EPLAN100 points=2 length=3.000
G0 X113.610 Y233.750 F6000
M3 S1000
G4 P0.085
G1 X110.610 Y233.750 F2300
M5
G4 P0.050
; PATH 284 layer=EPLAN100 points=2 length=3.000
G0 X110.610 Y233.500 F6000
M3 S1000
G4 P0.085
G1 X113.610 Y233.500 F2300
M5
G4 P0.050
; PATH 285 layer=EPLAN100 points=2 length=3.000
G0 X113.610 Y233.250 F6000
M3 S1000
G4 P0.085
G1 X110.610 Y233.250 F2300
M5
G4 P0.050
; PATH 286 layer=EPLAN100 points=2 length=3.000
G0 X110.610 Y233.000 F6000
M3 S1000
G4 P0.085
G1 X113.610 Y233.000 F2300
M5
G4 P0.050
; PATH 287 layer=EPLAN100 points=2 length=3.000
G0 X113.610 Y232.750 F6000
M3 S1000
G4 P0.085
G1 X110.610 Y232.750 F2300
M5
G4 P0.050
; PATH 288 layer=EPLAN100 points=2 length=3.000
G0 X110.610 Y232.500 F6000
M3 S1000
G4 P0.085
G1 X113.610 Y232.500 F2300
M5
G4 P0.050
; PATH 289 layer=EPLAN311 points=2 length=4.000
G0 X119.860 Y235.000 F6000
M3 S1000
G4 P0.085
G1 X123.860 Y235.000 F2300
M5
G4 P0.050
; PATH 290 layer=EPLAN311 points=2 length=4.000
G0 X136.360 Y235.000 F6000
M3 S1000
G4 P0.085
G1 X140.360 Y235.000 F2300
M5
G4 P0.050
; PATH 291 layer=EPLAN311 points=2 length=4.000
G0 X152.860 Y235.000 F6000
M3 S1000
G4 P0.085
G1 X156.860 Y235.000 F2300
M5
G4 P0.050
; PATH 292 layer=EPLAN311 points=2 length=5.250
G0 X169.360 Y235.000 F6000
M3 S1000
G4 P0.085
G1 X174.610 Y235.000 F2300
M5
G4 P0.050
; PATH 293 layer=EPLAN311 points=2 length=10.000
G0 X174.610 Y235.000 F6000
M3 S1000
G4 P0.085
G1 X174.610 Y245.000 F2300
M5
G4 P0.050
; PATH 294 layer=EPLAN311 points=2 length=7.250
G0 X174.610 Y245.000 F6000
M3 S1000
G4 P0.085
G1 X174.610 Y252.250 F2300
M5
G4 P0.050
; PATH 295 layer=EPLAN311 points=2 length=9.500
G0 X174.610 Y252.250 F6000
M3 S1000
G4 P0.085
G1 X165.110 Y252.250 F2300
M5
G4 P0.050
; PATH 296 layer=EPLAN311 points=2 length=2.828
G0 X165.110 Y252.250 F6000
M3 S1000
G4 P0.085
G1 X163.110 Y254.250 F2300
M5
G4 P0.050
; PATH 297 layer=EPLAN311 points=2 length=2.000
G0 X163.110 Y254.250 F6000
M3 S1000
G4 P0.085
G1 X163.110 Y252.250 F2300
M5
G4 P0.050
; PATH 298 layer=EPLAN311 points=2 length=3.000
G0 X163.110 Y252.250 F6000
M3 S1000
G4 P0.085
G1 X163.110 Y255.250 F2300
M5
G4 P0.050
; PATH 299 layer=EPLAN311 points=2 length=27.250
G0 X163.110 Y252.250 F6000
M3 S1000
G4 P0.085
G1 X135.860 Y252.250 F2300
M5
G4 P0.050
; PATH 300 layer=EPLAN311 points=2 length=2.828
G0 X135.860 Y252.250 F6000
M3 S1000
G4 P0.085
G1 X133.860 Y254.250 F2300
M5
G4 P0.050
; PATH 301 layer=EPLAN311 points=2 length=2.000
G0 X133.860 Y254.250 F6000
M3 S1000
G4 P0.085
G1 X133.860 Y252.250 F2300
M5
G4 P0.050
; PATH 302 layer=EPLAN311 points=2 length=3.000
G0 X133.860 Y252.250 F6000
M3 S1000
G4 P0.085
G1 X133.860 Y255.250 F2300
M5
G4 P0.050
; PATH 303 layer=EPLAN311 points=3 length=32.000
G0 X133.860 Y252.250 F6000
M3 S1000
G4 P0.085
G1 X104.860 Y252.250 F2300
G1 X104.860 Y255.250 F2300
M5
G4 P0.050
; PATH 304 layer=EPLAN311 points=3 length=4.000
G0 X104.860 Y254.250 F6000
M3 S1000
G4 P0.085
G1 X104.860 Y252.250 F2300
G1 X106.860 Y252.250 F2300
M5
G4 P0.050
; PATH 305 layer=EPLAN311 points=2 length=4.000
G0 X107.360 Y235.000 F6000
M3 S1000
G4 P0.085
G1 X103.360 Y235.000 F2300
M5
G4 P0.050
; PATH 306 layer=EPLAN311 points=2 length=4.000
G0 X90.860 Y235.000 F6000
M3 S1000
G4 P0.085
G1 X86.860 Y235.000 F2300
M5
G4 P0.050
; PATH 307 layer=EPLAN311 points=2 length=4.000
G0 X74.360 Y235.000 F6000
M3 S1000
G4 P0.085
G1 X70.360 Y235.000 F2300
M5
G4 P0.050
; PATH 308 layer=EPLAN311 points=2 length=4.120
G0 X57.860 Y235.000 F6000
M3 S1000
G4 P0.085
G1 X53.740 Y235.000 F2300
M5
G4 P0.050
; PATH 309 layer=EPLAN311 points=2 length=2.000
G0 X131.860 Y252.250 F6000
M3 S1000
G4 P0.085
G1 X133.860 Y252.250 F2300
M5
G4 P0.050
; PATH 310 layer=EPLAN311 points=2 length=2.000
G0 X161.110 Y252.250 F6000
M3 S1000
G4 P0.085
G1 X163.110 Y252.250 F2300
M5
G4 P0.050
; PATH 311 layer=EPLAN311 points=3 length=4.000
G0 X172.610 Y252.250 F6000
M3 S1000
G4 P0.085
G1 X174.610 Y252.250 F2300
G1 X174.610 Y250.250 F2300
M5
G4 P0.050
; PATH 312 layer=EPLAN311 points=2 length=4.000
G0 X174.610 Y247.000 F6000
M3 S1000
G4 P0.085
G1 X174.610 Y243.000 F2300
M5
G4 P0.050
; PATH 313 layer=EPLAN311 points=2 length=2.828
G0 X174.610 Y243.000 F6000
M3 S1000
G4 P0.085
G1 X176.610 Y245.000 F2300
M5
G4 P0.050
; PATH 314 layer=EPLAN311 points=2 length=47.320
G0 X176.610 Y245.000 F6000
M3 S1000
G4 P0.085
G1 X223.930 Y245.000 F2300
M5
G4 P0.050
; PATH 315 layer=EPLAN311 points=2 length=26.500
G0 X228.680 Y240.250 F6000
M3 S1000
G4 P0.085
G1 X228.680 Y213.750 F2300
M5
G4 P0.050
; PATH 316 layer=EPLAN311 points=2 length=9.000
G0 X218.430 Y210.750 F6000
M3 S1000
G4 P0.085
G1 X218.430 Y219.750 F2300
M5
G4 P0.050
; PATH 317 layer=EPLAN311 points=2 length=9.000
G0 X214.430 Y219.750 F6000
M3 S1000
G4 P0.085
G1 X214.430 Y210.750 F2300
M5
G4 P0.050
; PATH 318 layer=EPLAN311 points=2 length=9.250
G0 X210.430 Y210.750 F6000
M3 S1000
G4 P0.085
G1 X210.430 Y220.000 F2300
M5
G4 P0.050
; PATH 319 layer=EPLAN311 points=2 length=6.750
G0 X210.430 Y228.000 F6000
M3 S1000
G4 P0.085
G1 X210.430 Y234.750 F2300
M5
G4 P0.050
; PATH 320 layer=EPLAN311 points=2 length=2.000
G0 X210.430 Y234.750 F6000
M3 S1000
G4 P0.085
G1 X212.430 Y234.750 F2300
M5
G4 P0.050
; PATH 321 layer=EPLAN311 points=2 length=2.828
G0 X212.430 Y234.750 F6000
M3 S1000
G4 P0.085
G1 X214.430 Y232.750 F2300
M5
G4 P0.050
; PATH 322 layer=EPLAN311 points=2 length=2.000
G0 X214.430 Y232.750 F6000
M3 S1000
G4 P0.085
G1 X214.430 Y234.750 F2300
M5
G4 P0.050
; PATH 323 layer=EPLAN311 points=2 length=7.000
G0 X214.430 Y234.750 F6000
M3 S1000
G4 P0.085
G1 X214.430 Y227.750 F2300
M5
G4 P0.050
; PATH 324 layer=EPLAN311 points=2 length=7.000
G0 X218.430 Y227.750 F6000
M3 S1000
G4 P0.085
G1 X218.430 Y234.750 F2300
M5
G4 P0.050
; PATH 325 layer=EPLAN311 points=2 length=4.000
G0 X218.430 Y234.750 F6000
M3 S1000
G4 P0.085
G1 X214.430 Y234.750 F2300
M5
G4 P0.050
; PATH 326 layer=EPLAN311 points=2 length=2.000
G0 X214.430 Y234.750 F6000
M3 S1000
G4 P0.085
G1 X216.430 Y234.750 F2300
M5
G4 P0.050
; PATH 327 layer=EPLAN311 points=3 length=4.000
G0 X216.430 Y234.750 F6000
M3 S1000
G4 P0.085
G1 X218.430 Y234.750 F2300
G1 X218.430 Y232.750 F2300
M5
G4 P0.050
; PATH 328 layer=EPLAN311 points=2 length=2.000
G0 X212.430 Y234.750 F6000
M3 S1000
G4 P0.085
G1 X210.430 Y234.750 F2300
M5
G4 P0.050
; PATH 329 layer=EPLAN311 points=2 length=2.000
G0 X210.430 Y234.750 F6000
M3 S1000
G4 P0.085
G1 X210.430 Y232.750 F2300
M5
G4 P0.050
; PATH 330 layer=EPLAN311 points=2 length=2.828
G0 X210.430 Y232.750 F6000
M3 S1000
G4 P0.085
G1 X208.430 Y234.750 F2300
M5
G4 P0.050
; PATH 331 layer=EPLAN311 points=2 length=2.000
G0 X208.430 Y234.750 F6000
M3 S1000
G4 P0.085
G1 X206.430 Y234.750 F2300
M5
G4 P0.050
; PATH 332 layer=EPLAN311 points=2 length=24.000
G0 X206.430 Y234.750 F6000
M3 S1000
G4 P0.085
G1 X206.430 Y210.750 F2300
M5
G4 P0.050
; PATH 333 layer=EPLAN311 points=2 length=11.000
G0 X206.430 Y201.250 F6000
M3 S1000
G4 P0.085
G1 X206.430 Y190.250 F2300
M5
G4 P0.050
; PATH 334 layer=EPLAN311 points=2 length=11.000
G0 X210.430 Y190.250 F6000
M3 S1000
G4 P0.085
G1 X210.430 Y201.250 F2300
M5
G4 P0.050
; PATH 335 layer=EPLAN311 points=2 length=11.000
G0 X214.430 Y201.250 F6000
M3 S1000
G4 P0.085
G1 X214.430 Y190.250 F2300
M5
G4 P0.050
; PATH 336 layer=EPLAN311 points=2 length=11.000
G0 X218.430 Y190.250 F6000
M3 S1000
G4 P0.085
G1 X218.430 Y201.250 F2300
M5
G4 P0.050
; PATH 337 layer=EPLAN311 points=2 length=2.250
G0 X199.680 Y201.250 F6000
M3 S1000
G4 P0.085
G1 X199.680 Y199.000 F2300
M5
G4 P0.050
; PATH 338 layer=EPLAN311 points=2 length=2.250
G0 X195.680 Y199.000 F6000
M3 S1000
G4 P0.085
G1 X195.680 Y201.250 F2300
M5
G4 P0.050
; PATH 339 layer=EPLAN311 points=2 length=1.750
G0 X188.680 Y201.250 F6000
M3 S1000
G4 P0.085
G1 X188.680 Y199.500 F2300
M5
G4 P0.050
; PATH 340 layer=EPLAN311 points=2 length=10.750
G0 X184.680 Y201.250 F6000
M3 S1000
G4 P0.085
G1 X184.680 Y190.500 F2300
M5
G4 P0.050
; PATH 341 layer=EPLAN311 points=2 length=4.000
G0 X184.680 Y190.500 F6000
M3 S1000
G4 P0.085
G1 X188.680 Y190.500 F2300
M5
G4 P0.050
; PATH 342 layer=EPLAN311 points=2 length=1.000
G0 X188.680 Y190.500 F6000
M3 S1000
G4 P0.085
G1 X188.680 Y191.500 F2300
M5
G4 P0.050
; PATH 343 layer=EPLAN311 points=2 length=2.000
G0 X188.680 Y192.500 F6000
M3 S1000
G4 P0.085
G1 X188.680 Y190.500 F2300
M5
G4 P0.050
; PATH 344 layer=EPLAN311 points=2 length=2.000
G0 X188.680 Y190.500 F6000
M3 S1000
G4 P0.085
G1 X186.680 Y190.500 F2300
M5
G4 P0.050
; PATH 345 layer=EPLAN311 points=3 length=4.000
G0 X186.680 Y190.500 F6000
M3 S1000
G4 P0.085
G1 X184.680 Y190.500 F2300
G1 X184.680 Y192.500 F2300
M5
G4 P0.050
; PATH 346 layer=EPLAN311 points=2 length=1.750
G0 X177.680 Y199.500 F6000
M3 S1000
G4 P0.085
G1 X177.680 Y201.250 F2300
M5
G4 P0.050
; PATH 347 layer=EPLAN311 points=2 length=1.750
G0 X173.680 Y201.250 F6000
M3 S1000
G4 P0.085
G1 X173.680 Y199.500 F2300
M5
G4 P0.050
; PATH 348 layer=EPLAN311 points=2 length=10.750
G0 X169.680 Y201.250 F6000
M3 S1000
G4 P0.085
G1 X169.680 Y190.500 F2300
M5
G4 P0.050
; PATH 349 layer=EPLAN311 points=2 length=4.000
G0 X169.680 Y190.500 F6000
M3 S1000
G4 P0.085
G1 X173.680 Y190.500 F2300
M5
G4 P0.050
; PATH 350 layer=EPLAN311 points=2 length=1.000
G0 X173.680 Y190.500 F6000
M3 S1000
G4 P0.085
G1 X173.680 Y191.500 F2300
M5
G4 P0.050
; PATH 351 layer=EPLAN311 points=2 length=2.000
G0 X173.680 Y192.500 F6000
M3 S1000
G4 P0.085
G1 X173.680 Y190.500 F2300
M5
G4 P0.050
; PATH 352 layer=EPLAN311 points=2 length=2.000
G0 X173.680 Y190.500 F6000
M3 S1000
G4 P0.085
G1 X171.680 Y190.500 F2300
M5
G4 P0.050
; PATH 353 layer=EPLAN311 points=3 length=4.000
G0 X171.680 Y190.500 F6000
M3 S1000
G4 P0.085
G1 X169.680 Y190.500 F2300
G1 X169.680 Y192.500 F2300
M5
G4 P0.050
; PATH 354 layer=EPLAN311 points=2 length=2.000
G0 X172.610 Y235.000 F6000
M3 S1000
G4 P0.085
G1 X174.610 Y235.000 F2300
M5
G4 P0.050
; PATH 355 layer=EPLAN311 points=2 length=2.000
G0 X174.610 Y235.000 F6000
M3 S1000
G4 P0.085
G1 X174.610 Y237.000 F2300
M5
G4 P0.050
; PATH 356 layer=EPLAN311 points=3 length=4.000
G0 X206.430 Y232.750 F6000
M3 S1000
G4 P0.085
G1 X206.430 Y234.750 F2300
G1 X208.430 Y234.750 F2300
M5
G4 P0.050
; PATH 357 layer=EPLAN311 points=2 length=14.500
G0 X239.930 Y215.500 F6000
M3 S1000
G4 P0.085
G1 X254.430 Y215.500 F2300
M5
G4 P0.050
; PATH 358 layer=EPLAN311 points=2 length=61.250
G0 X254.430 Y215.500 F6000
M3 S1000
G4 P0.085
G1 X254.430 Y154.250 F2300
M5
G4 P0.050
; PATH 359 layer=EPLAN311 points=2 length=23.250
G0 X254.430 Y154.250 F6000
M3 S1000
G4 P0.085
G1 X277.680 Y154.250 F2300
M5
G4 P0.050
; PATH 360 layer=EPLAN311 points=2 length=2.000
G0 X277.680 Y154.250 F6000
M3 S1000
G4 P0.085
G1 X277.680 Y156.250 F2300
M5
G4 P0.050
; PATH 361 layer=EPLAN311 points=2 length=2.000
G0 X277.680 Y156.250 F6000
M3 S1000
G4 P0.085
G1 X277.680 Y154.250 F2300
M5
G4 P0.050
; PATH 362 layer=EPLAN311 points=2 length=2.000
G0 X277.680 Y154.250 F6000
M3 S1000
G4 P0.085
G1 X275.680 Y154.250 F2300
M5
G4 P0.050
; PATH 363 layer=EPLAN311 points=2 length=24.750
G0 X279.930 Y150.250 F6000
M3 S1000
G4 P0.085
G1 X279.930 Y175.000 F2300
M5
G4 P0.050
; PATH 364 layer=EPLAN311 points=2 length=24.750
G0 X290.930 Y175.000 F6000
M3 S1000
G4 P0.085
G1 X290.930 Y150.250 F2300
M5
G4 P0.050
; PATH 365 layer=EPLAN311 points=2 length=24.750
G0 X301.930 Y150.250 F6000
M3 S1000
G4 P0.085
G1 X301.930 Y175.000 F2300
M5
G4 P0.050
; PATH 366 layer=EPLAN311 points=2 length=24.750
G0 X312.930 Y175.000 F6000
M3 S1000
G4 P0.085
G1 X312.930 Y150.250 F2300
M5
G4 P0.050
; PATH 367 layer=EPLAN311 points=2 length=26.750
G0 X309.680 Y187.500 F6000
M3 S1000
G4 P0.085
G1 X309.680 Y214.250 F2300
M5
G4 P0.050
; PATH 368 layer=EPLAN311 points=2 length=30.750
G0 X305.180 Y218.250 F6000
M3 S1000
G4 P0.085
G1 X305.180 Y187.500 F2300
M5
G4 P0.050
; PATH 369 layer=EPLAN311 points=2 length=26.750
G0 X298.680 Y187.500 F6000
M3 S1000
G4 P0.085
G1 X298.680 Y214.250 F2300
M5
G4 P0.050
; PATH 370 layer=EPLAN311 points=2 length=30.750
G0 X294.180 Y218.250 F6000
M3 S1000
G4 P0.085
G1 X294.180 Y187.500 F2300
M5
G4 P0.050
; PATH 371 layer=EPLAN311 points=2 length=26.750
G0 X287.680 Y187.500 F6000
M3 S1000
G4 P0.085
G1 X287.680 Y214.250 F2300
M5
G4 P0.050
; PATH 372 layer=EPLAN311 points=2 length=30.750
G0 X283.180 Y218.250 F6000
M3 S1000
G4 P0.085
G1 X283.180 Y187.500 F2300
M5
G4 P0.050
; PATH 373 layer=EPLAN311 points=2 length=26.750
G0 X276.680 Y187.500 F6000
M3 S1000
G4 P0.085
G1 X276.680 Y214.250 F2300
M5
G4 P0.050
; PATH 374 layer=EPLAN311 points=3 length=4.000
G0 X254.430 Y213.500 F6000
M3 S1000
G4 P0.085
G1 X254.430 Y215.500 F2300
G1 X252.430 Y215.500 F2300
M5
G4 P0.050
; PATH 375 layer=EPLAN311 points=3 length=4.000
G0 X241.930 Y215.500 F6000
M3 S1000
G4 P0.085
G1 X239.930 Y215.500 F2300
G1 X239.930 Y213.500 F2300
M5
G4 P0.050
; PATH 376 layer=EPLAN311 points=2 length=1.750
G0 X239.930 Y213.750 F6000
M3 S1000
G4 P0.085
G1 X239.930 Y215.500 F2300
M5
G4 P0.050
; PATH 377 layer=EPLAN311 points=3 length=4.000
G0 X254.430 Y156.250 F6000
M3 S1000
G4 P0.085
G1 X254.430 Y154.250 F2300
G1 X256.430 Y154.250 F2300
M5
G4 P0.050
; PATH 378 layer=EPLAN311 points=2 length=30.750
G0 X316.180 Y187.500 F6000
M3 S1000
G4 P0.085
G1 X316.180 Y218.250 F2300
M5
G4 P0.050
; PATH 379 layer=vakio-osat points=189 length=7.488
G0 X196.395 Y138.303 F6000
M3 S1000
G4 P0.085
G1 X196.394 Y138.305 F2300
G1 X196.391 Y138.309 F2300
G1 X196.386 Y138.316 F2300
G1 X196.380 Y138.327 F2300
G1 X196.372 Y138.339 F2300
G1 X196.363 Y138.354 F2300
G1 X196.341 Y138.391 F2300
G1 X196.313 Y138.436 F2300
G1 X196.282 Y138.487 F2300
G1 X196.247 Y138.544 F2300
G1 X196.209 Y138.605 F2300
G1 X196.129 Y138.736 F2300
G1 X196.047 Y138.870 F2300
G1 X196.007 Y138.935 F2300
G1 X195.968 Y138.997 F2300
G1 X195.932 Y139.056 F2300
G1 X195.900 Y139.109 F2300
G1 X195.871 Y139.156 F2300
G1 X195.846 Y139.196 F2300
G1 X195.836 Y139.212 F2300
G1 X195.827 Y139.227 F2300
G1 X195.820 Y139.239 F2300
G1 X195.815 Y139.248 F2300
G1 X195.811 Y139.254 F2300
G1 X195.808 Y139.258 F2300
G1 X195.806 Y139.262 F2300
G1 X195.799 Y139.269 F2300
G1 X195.782 Y139.280 F2300
G1 X195.763 Y139.283 F2300
G1 X195.744 Y139.280 F2300
G1 X195.727 Y139.269 F2300
G1 X195.721 Y139.262 F2300
G1 X195.718 Y139.258 F2300
G1 X195.716 Y139.254 F2300
G1 X195.712 Y139.248 F2300
G1 X195.706 Y139.239 F2300
G1 X195.699 Y139.227 F2300
G1 X195.690 Y139.212 F2300
G1 X195.680 Y139.196 F2300
G1 X195.656 Y139.156 F2300
G1 X195.627 Y139.109 F2300
G1 X195.594 Y139.056 F2300
G1 X195.558 Y138.997 F2300
G1 X195.520 Y138.935 F2300
G1 X195.480 Y138.870 F2300
G1 X195.398 Y138.736 F2300
G1 X195.317 Y138.605 F2300
G1 X195.280 Y138.544 F2300
G1 X195.245 Y138.487 F2300
G1 X195.213 Y138.436 F2300
G1 X195.186 Y138.391 F2300
G1 X195.163 Y138.354 F2300
G1 X195.154 Y138.339 F2300
G1 X195.146 Y138.327 F2300
G1 X195.140 Y138.316 F2300
G1 X195.135 Y138.309 F2300
G1 X195.133 Y138.305 F2300
G1 X195.132 Y138.303 F2300
G1 X195.124 Y138.283 F2300
G1 X195.126 Y138.262 F2300
G1 X195.134 Y138.244 F2300
G1 X195.149 Y138.231 F2300
G1 X195.169 Y138.224 F2300
G1 X195.180 Y138.223 F2300
G1 X195.187 Y138.223 F2300
G1 X195.197 Y138.223 F2300
G1 X195.211 Y138.223 F2300
G1 X195.227 Y138.223 F2300
G1 X195.247 Y138.223 F2300
G1 X195.269 Y138.223 F2300
G1 X195.321 Y138.223 F2300
G1 X195.381 Y138.223 F2300
G1 X195.449 Y138.223 F2300
G1 X195.522 Y138.223 F2300
G1 X195.600 Y138.223 F2300
G1 X195.763 Y138.223 F2300
G1 X195.926 Y138.223 F2300
G1 X196.004 Y138.223 F2300
G1 X196.078 Y138.223 F2300
G1 X196.145 Y138.223 F2300
G1 X196.206 Y138.223 F2300
G1 X196.258 Y138.223 F2300
G1 X196.280 Y138.223 F2300
G1 X196.299 Y138.223 F2300
G1 X196.316 Y138.223 F2300
G1 X196.329 Y138.223 F2300
G1 X196.340 Y138.223 F2300
G1 X196.346 Y138.223 F2300
G1 X196.357 Y138.224 F2300
G1 X196.377 Y138.231 F2300
G1 X196.392 Y138.244 F2300
G1 X196.401 Y138.262 F2300
G1 X196.402 Y138.283 F2300
G1 X196.395 Y138.303 F2300
G1 X196.394 Y138.305 F2300
G1 X196.391 Y138.309 F2300
G1 X196.386 Y138.316 F2300
G1 X196.380 Y138.327 F2300
G1 X196.372 Y138.339 F2300
G1 X196.363 Y138.354 F2300
G1 X196.341 Y138.391 F2300
G1 X196.313 Y138.436 F2300
G1 X196.282 Y138.487 F2300
G1 X196.247 Y138.544 F2300
G1 X196.209 Y138.605 F2300
G1 X196.129 Y138.736 F2300
G1 X196.047 Y138.870 F2300
G1 X196.007 Y138.935 F2300
G1 X195.968 Y138.997 F2300
G1 X195.932 Y139.056 F2300
G1 X195.900 Y139.109 F2300
G1 X195.871 Y139.156 F2300
G1 X195.846 Y139.196 F2300
G1 X195.836 Y139.212 F2300
G1 X195.827 Y139.227 F2300
G1 X195.820 Y139.239 F2300
G1 X195.815 Y139.248 F2300
G1 X195.811 Y139.254 F2300
G1 X195.808 Y139.258 F2300
G1 X195.806 Y139.262 F2300
G1 X195.799 Y139.269 F2300
G1 X195.782 Y139.280 F2300
G1 X195.763 Y139.283 F2300
G1 X195.744 Y139.280 F2300
G1 X195.727 Y139.269 F2300
G1 X195.721 Y139.262 F2300
G1 X195.718 Y139.258 F2300
G1 X195.716 Y139.254 F2300
G1 X195.712 Y139.248 F2300
G1 X195.706 Y139.239 F2300
G1 X195.699 Y139.227 F2300
G1 X195.690 Y139.212 F2300
G1 X195.680 Y139.196 F2300
G1 X195.656 Y139.156 F2300
G1 X195.627 Y139.109 F2300
G1 X195.594 Y139.056 F2300
G1 X195.558 Y138.997 F2300
G1 X195.520 Y138.935 F2300
G1 X195.480 Y138.870 F2300
G1 X195.398 Y138.736 F2300
G1 X195.317 Y138.605 F2300
G1 X195.280 Y138.544 F2300
G1 X195.245 Y138.487 F2300
G1 X195.213 Y138.436 F2300
G1 X195.186 Y138.391 F2300
G1 X195.163 Y138.354 F2300
G1 X195.154 Y138.339 F2300
G1 X195.146 Y138.327 F2300
G1 X195.140 Y138.316 F2300
G1 X195.135 Y138.309 F2300
G1 X195.133 Y138.305 F2300
G1 X195.132 Y138.303 F2300
G1 X195.124 Y138.283 F2300
G1 X195.126 Y138.262 F2300
G1 X195.134 Y138.244 F2300
G1 X195.149 Y138.231 F2300
G1 X195.169 Y138.224 F2300
G1 X195.180 Y138.223 F2300
G1 X195.187 Y138.223 F2300
G1 X195.197 Y138.223 F2300
G1 X195.211 Y138.223 F2300
G1 X195.227 Y138.223 F2300
G1 X195.247 Y138.223 F2300
G1 X195.269 Y138.223 F2300
G1 X195.321 Y138.223 F2300
G1 X195.381 Y138.223 F2300
G1 X195.449 Y138.223 F2300
G1 X195.522 Y138.223 F2300
G1 X195.600 Y138.223 F2300
G1 X195.763 Y138.223 F2300
G1 X195.926 Y138.223 F2300
G1 X196.004 Y138.223 F2300
G1 X196.078 Y138.223 F2300
G1 X196.145 Y138.223 F2300
G1 X196.206 Y138.223 F2300
G1 X196.258 Y138.223 F2300
G1 X196.280 Y138.223 F2300
G1 X196.299 Y138.223 F2300
G1 X196.316 Y138.223 F2300
G1 X196.329 Y138.223 F2300
G1 X196.340 Y138.223 F2300
G1 X196.346 Y138.223 F2300
G1 X196.357 Y138.224 F2300
G1 X196.377 Y138.231 F2300
G1 X196.392 Y138.244 F2300
G1 X196.401 Y138.262 F2300
G1 X196.402 Y138.283 F2300
G1 X196.395 Y138.303 F2300
M5
G4 P0.050
M5
G0 X0.000 Y0.000
; Pen changes: 0
M2 ; end
