; VectorDraft G-code
; Generated: 2026-06-02T07:03:19.257511+00:00
; Source: C:\Users\sir\Documents\technical drawing engine\plotcad_jobs\20260602-070244-3ed2cc73\Circuit diagram_OXB_T.dxf
; Page: A4 210.000 x 297.000 mm
; Calibration: identity
; Draw length: 8839.114 mm
; Travel estimate: 5021.199 mm
; Estimated plot time: 9m 11s
G21 ; millimeters
G90 ; absolute positioning
M5
M5
; PEN pen-4 layer=0 width=0.350 color=#111111
; PATH 1 layer=0 points=2 length=10.101
G0 X11.734 Y13.820 F6000
M3 S1000
G4 P0.085
G1 X11.734 Y23.921 F2300
M5
G4 P0.050
; PATH 2 layer=0 points=2 length=186.532
G0 X11.734 Y23.921 F6000
M3 S1000
G4 P0.085
G1 X198.266 Y23.921 F2300
M5
G4 P0.050
; PATH 3 layer=0 points=2 length=1.684
G0 X198.266 Y21.227 F6000
M3 S1000
G4 P0.085
G1 X199.724 Y20.386 F2300
M5
G4 P0.050
; PATH 4 layer=0 points=2 length=1.684
G0 X199.724 Y20.386 F6000
M3 S1000
G4 P0.085
G1 X198.266 Y19.544 F2300
M5
G4 P0.050
; PATH 5 layer=0 points=5 length=911.785
G0 X198.266 Y13.820 F6000
M3 S1000
G4 P0.085
G1 X198.266 Y283.180 F2300
G1 X11.734 Y283.180 F2300
G1 X11.734 Y13.820 F2300
G1 X198.266 Y13.820 F2300
M5
G4 P0.050
; PATH 6 layer=0 points=2 length=6.734
G0 X198.265 Y26.615 F6000
M3 S1000
G4 P0.085
G1 X191.531 Y26.615 F2300
M5
G4 P0.050
; PATH 7 layer=0 points=2 length=133.333
G0 X191.531 Y26.615 F6000
M3 S1000
G4 P0.085
G1 X191.531 Y159.949 F2300
M5
G4 P0.050
; PATH 8 layer=0 points=2 length=6.734
G0 X191.531 Y159.949 F6000
M3 S1000
G4 P0.085
G1 X198.265 Y159.949 F2300
M5
G4 P0.050
; PATH 9 layer=0 points=2 length=28.283
G0 X198.265 Y159.949 F6000
M3 S1000
G4 P0.085
G1 X169.982 Y159.949 F2300
M5
G4 P0.050
; PATH 10 layer=0 points=2 length=11.313
G0 X169.982 Y159.948 F6000
M3 S1000
G4 P0.085
G1 X158.669 Y159.948 F2300
M5
G4 P0.050
; PATH 11 layer=0 points=2 length=123.232
G0 X158.669 Y159.948 F6000
M3 S1000
G4 P0.085
G1 X158.669 Y283.180 F2300
M5
G4 P0.050
; PATH 12 layer=0 points=135 length=5.032
G0 X160.265 Y277.954 F6000
M3 S1000
G4 P0.085
G1 X160.255 Y278.067 F2300
G1 X160.287 Y278.072 F2300
G1 X160.317 Y278.080 F2300
G1 X160.343 Y278.091 F2300
G1 X160.366 Y278.104 F2300
G1 X160.387 Y278.121 F2300
G1 X160.406 Y278.142 F2300
G1 X160.422 Y278.167 F2300
G1 X160.437 Y278.195 F2300
G1 X160.448 Y278.227 F2300
G1 X160.457 Y278.261 F2300
G1 X160.462 Y278.297 F2300
G1 X160.464 Y278.334 F2300
G1 X160.462 Y278.368 F2300
G1 X160.458 Y278.399 F2300
G1 X160.452 Y278.428 F2300
G1 X160.443 Y278.455 F2300
G1 X160.432 Y278.480 F2300
G1 X160.419 Y278.501 F2300
G1 X160.404 Y278.519 F2300
G1 X160.387 Y278.533 F2300
G1 X160.369 Y278.545 F2300
G1 X160.350 Y278.553 F2300
G1 X160.330 Y278.557 F2300
G1 X160.310 Y278.559 F2300
G1 X160.289 Y278.557 F2300
G1 X160.270 Y278.553 F2300
G1 X160.252 Y278.545 F2300
G1 X160.235 Y278.534 F2300
G1 X160.220 Y278.520 F2300
G1 X160.206 Y278.502 F2300
G1 X160.194 Y278.479 F2300
G1 X160.182 Y278.453 F2300
G1 X160.174 Y278.429 F2300
G1 X160.164 Y278.394 F2300
G1 X160.152 Y278.349 F2300
G1 X160.138 Y278.292 F2300
G1 X160.123 Y278.234 F2300
G1 X160.109 Y278.186 F2300
G1 X160.095 Y278.147 F2300
G1 X160.081 Y278.117 F2300
G1 X160.063 Y278.087 F2300
G1 X160.043 Y278.060 F2300
G1 X160.021 Y278.038 F2300
G1 X159.997 Y278.020 F2300
G1 X159.971 Y278.006 F2300
G1 X159.944 Y277.997 F2300
G1 X159.915 Y277.991 F2300
G1 X159.885 Y277.989 F2300
G1 X159.851 Y277.991 F2300
G1 X159.818 Y277.998 F2300
G1 X159.787 Y278.010 F2300
G1 X159.756 Y278.028 F2300
G1 X159.728 Y278.049 F2300
G1 X159.704 Y278.075 F2300
G1 X159.683 Y278.106 F2300
G1 X159.666 Y278.141 F2300
G1 X159.653 Y278.179 F2300
G1 X159.643 Y278.220 F2300
G1 X159.637 Y278.262 F2300
G1 X159.635 Y278.307 F2300
G1 X159.637 Y278.356 F2300
G1 X159.643 Y278.402 F2300
G1 X159.653 Y278.445 F2300
G1 X159.668 Y278.485 F2300
G1 X159.686 Y278.521 F2300
G1 X159.708 Y278.553 F2300
G1 X159.733 Y278.580 F2300
G1 X159.763 Y278.603 F2300
G1 X159.795 Y278.621 F2300
G1 X159.830 Y278.635 F2300
G1 X159.867 Y278.643 F2300
G1 X159.906 Y278.647 F2300
G1 X159.914 Y278.532 F2300
G1 X159.874 Y278.525 F2300
G1 X159.839 Y278.512 F2300
G1 X159.809 Y278.494 F2300
G1 X159.785 Y278.470 F2300
G1 X159.765 Y278.440 F2300
G1 X159.752 Y278.404 F2300
G1 X159.743 Y278.361 F2300
G1 X159.741 Y278.312 F2300
G1 X159.743 Y278.261 F2300
G1 X159.751 Y278.218 F2300
G1 X159.763 Y278.182 F2300
G1 X159.781 Y278.154 F2300
G1 X159.801 Y278.132 F2300
G1 X159.824 Y278.116 F2300
G1 X159.849 Y278.107 F2300
G1 X159.877 Y278.104 F2300
G1 X159.900 Y278.106 F2300
G1 X159.921 Y278.113 F2300
G1 X159.940 Y278.124 F2300
G1 X159.957 Y278.139 F2300
G1 X159.973 Y278.163 F2300
G1 X159.989 Y278.202 F2300
G1 X160.005 Y278.254 F2300
G1 X160.021 Y278.320 F2300
G1 X160.037 Y278.387 F2300
G1 X160.052 Y278.443 F2300
G1 X160.066 Y278.487 F2300
G1 X160.079 Y278.520 F2300
G1 X160.098 Y278.557 F2300
G1 X160.120 Y278.589 F2300
G1 X160.145 Y278.615 F2300
G1 X160.171 Y278.637 F2300
G1 X160.200 Y278.653 F2300
G1 X160.231 Y278.665 F2300
G1 X160.265 Y278.672 F2300
G1 X160.300 Y278.674 F2300
G1 X160.336 Y278.672 F2300
G1 X160.370 Y278.664 F2300
G1 X160.404 Y278.651 F2300
G1 X160.436 Y278.633 F2300
G1 X160.466 Y278.610 F2300
G1 X160.493 Y278.583 F2300
G1 X160.516 Y278.551 F2300
G1 X160.535 Y278.514 F2300
G1 X160.551 Y278.474 F2300
G1 X160.562 Y278.432 F2300
G1 X160.569 Y278.387 F2300
G1 X160.571 Y278.340 F2300
G1 X160.569 Y278.281 F2300
G1 X160.562 Y278.227 F2300
G1 X160.551 Y278.178 F2300
G1 X160.535 Y278.134 F2300
G1 X160.515 Y278.095 F2300
G1 X160.490 Y278.060 F2300
G1 X160.461 Y278.030 F2300
G1 X160.427 Y278.004 F2300
G1 X160.390 Y277.983 F2300
G1 X160.351 Y277.968 F2300
G1 X160.309 Y277.958 F2300
G1 X160.265 Y277.954 F2300
M5
G4 P0.050
; PATH 13 layer=0 points=11 length=5.417
G0 X160.556 Y277.081 F6000
M3 S1000
G4 P0.085
G1 X159.651 Y277.081 F2300
G1 X159.651 Y277.203 F2300
G1 X160.361 Y277.679 F2300
G1 X159.651 Y277.679 F2300
G1 X159.651 Y277.794 F2300
G1 X160.556 Y277.794 F2300
G1 X160.556 Y277.671 F2300
G1 X159.844 Y277.195 F2300
G1 X160.556 Y277.195 F2300
G1 X160.556 Y277.081 F2300
M5
G4 P0.050
; PATH 14 layer=0 points=37 length=2.158
G0 X160.117 Y276.186 F6000
M3 S1000
G4 P0.085
G1 X160.194 Y276.191 F2300
G1 X160.263 Y276.207 F2300
G1 X160.323 Y276.235 F2300
G1 X160.374 Y276.273 F2300
G1 X160.416 Y276.320 F2300
G1 X160.445 Y276.373 F2300
G1 X160.463 Y276.431 F2300
G1 X160.469 Y276.494 F2300
G1 X160.463 Y276.559 F2300
G1 X160.445 Y276.617 F2300
G1 X160.415 Y276.670 F2300
G1 X160.373 Y276.717 F2300
G1 X160.321 Y276.755 F2300
G1 X160.258 Y276.782 F2300
G1 X160.186 Y276.799 F2300
G1 X160.104 Y276.804 F2300
G1 X160.050 Y276.802 F2300
G1 X160.000 Y276.795 F2300
G1 X159.954 Y276.783 F2300
G1 X159.911 Y276.767 F2300
G1 X159.872 Y276.746 F2300
G1 X159.838 Y276.721 F2300
G1 X159.808 Y276.691 F2300
G1 X159.783 Y276.657 F2300
G1 X159.763 Y276.620 F2300
G1 X159.749 Y276.581 F2300
G1 X159.740 Y276.540 F2300
G1 X159.738 Y276.496 F2300
G1 X159.743 Y276.435 F2300
G1 X159.759 Y276.378 F2300
G1 X159.787 Y276.325 F2300
G1 X159.825 Y276.277 F2300
G1 X159.876 Y276.237 F2300
G1 X159.942 Y276.208 F2300
G1 X160.022 Y276.191 F2300
G1 X160.117 Y276.186 F2300
M5
G4 P0.050
; PATH 15 layer=0 points=45 length=2.864
G0 X160.115 Y276.062 F6000
M3 S1000
G4 P0.085
G1 X160.008 Y276.070 F2300
G1 X159.914 Y276.092 F2300
G1 X159.832 Y276.130 F2300
G1 X159.762 Y276.183 F2300
G1 X159.706 Y276.248 F2300
G1 X159.666 Y276.322 F2300
G1 X159.643 Y276.404 F2300
G1 X159.635 Y276.495 F2300
G1 X159.638 Y276.556 F2300
G1 X159.650 Y276.615 F2300
G1 X159.668 Y276.669 F2300
G1 X159.694 Y276.721 F2300
G1 X159.727 Y276.769 F2300
G1 X159.766 Y276.810 F2300
G1 X159.811 Y276.845 F2300
G1 X159.861 Y276.875 F2300
G1 X159.917 Y276.898 F2300
G1 X159.976 Y276.914 F2300
G1 X160.038 Y276.924 F2300
G1 X160.104 Y276.927 F2300
G1 X160.171 Y276.924 F2300
G1 X160.235 Y276.914 F2300
G1 X160.294 Y276.896 F2300
G1 X160.351 Y276.872 F2300
G1 X160.402 Y276.841 F2300
G1 X160.446 Y276.805 F2300
G1 X160.484 Y276.763 F2300
G1 X160.515 Y276.715 F2300
G1 X160.540 Y276.663 F2300
G1 X160.557 Y276.609 F2300
G1 X160.567 Y276.553 F2300
G1 X160.571 Y276.495 F2300
G1 X160.567 Y276.433 F2300
G1 X160.556 Y276.374 F2300
G1 X160.536 Y276.318 F2300
G1 X160.509 Y276.266 F2300
G1 X160.476 Y276.219 F2300
G1 X160.436 Y276.178 F2300
G1 X160.391 Y276.143 F2300
G1 X160.341 Y276.114 F2300
G1 X160.287 Y276.091 F2300
G1 X160.231 Y276.075 F2300
G1 X160.174 Y276.065 F2300
G1 X160.115 Y276.062 F2300
M5
G4 P0.050
; PATH 16 layer=0 points=5 length=2.049
G0 X160.556 Y275.768 F6000
M3 S1000
G4 P0.085
G1 X159.651 Y275.768 F2300
G1 X159.651 Y275.887 F2300
G1 X160.556 Y275.887 F2300
G1 X160.556 Y275.768 F2300
M5
G4 P0.050
; PATH 17 layer=0 points=135 length=5.032
G0 X160.265 Y274.863 F6000
M3 S1000
G4 P0.085
G1 X160.255 Y274.976 F2300
G1 X160.287 Y274.982 F2300
G1 X160.317 Y274.990 F2300
G1 X160.343 Y275.000 F2300
G1 X160.366 Y275.014 F2300
G1 X160.387 Y275.030 F2300
G1 X160.406 Y275.051 F2300
G1 X160.422 Y275.076 F2300
G1 X160.437 Y275.105 F2300
G1 X160.448 Y275.136 F2300
G1 X160.457 Y275.170 F2300
G1 X160.462 Y275.206 F2300
G1 X160.464 Y275.244 F2300
G1 X160.462 Y275.277 F2300
G1 X160.458 Y275.308 F2300
G1 X160.452 Y275.337 F2300
G1 X160.443 Y275.365 F2300
G1 X160.432 Y275.389 F2300
G1 X160.419 Y275.410 F2300
G1 X160.404 Y275.428 F2300
G1 X160.387 Y275.443 F2300
G1 X160.369 Y275.454 F2300
G1 X160.350 Y275.462 F2300
G1 X160.330 Y275.467 F2300
G1 X160.310 Y275.468 F2300
G1 X160.289 Y275.467 F2300
G1 X160.270 Y275.462 F2300
G1 X160.252 Y275.454 F2300
G1 X160.235 Y275.444 F2300
G1 X160.220 Y275.429 F2300
G1 X160.206 Y275.411 F2300
G1 X160.194 Y275.388 F2300
G1 X160.182 Y275.362 F2300
G1 X160.174 Y275.338 F2300
G1 X160.164 Y275.304 F2300
G1 X160.152 Y275.258 F2300
G1 X160.138 Y275.201 F2300
G1 X160.123 Y275.143 F2300
G1 X160.109 Y275.095 F2300
G1 X160.095 Y275.056 F2300
G1 X160.081 Y275.026 F2300
G1 X160.063 Y274.996 F2300
G1 X160.043 Y274.970 F2300
G1 X160.021 Y274.948 F2300
G1 X159.997 Y274.930 F2300
G1 X159.971 Y274.916 F2300
G1 X159.944 Y274.906 F2300
G1 X159.915 Y274.900 F2300
G1 X159.885 Y274.898 F2300
G1 X159.851 Y274.900 F2300
G1 X159.818 Y274.908 F2300
G1 X159.787 Y274.920 F2300
G1 X159.756 Y274.937 F2300
G1 X159.728 Y274.958 F2300
G1 X159.704 Y274.985 F2300
G1 X159.683 Y275.015 F2300
G1 X159.666 Y275.050 F2300
G1 X159.653 Y275.089 F2300
G1 X159.643 Y275.129 F2300
G1 X159.637 Y275.172 F2300
G1 X159.635 Y275.216 F2300
G1 X159.637 Y275.265 F2300
G1 X159.643 Y275.311 F2300
G1 X159.653 Y275.354 F2300
G1 X159.668 Y275.394 F2300
G1 X159.686 Y275.430 F2300
G1 X159.708 Y275.462 F2300
G1 X159.733 Y275.489 F2300
G1 X159.763 Y275.512 F2300
G1 X159.795 Y275.530 F2300
G1 X159.830 Y275.544 F2300
G1 X159.867 Y275.553 F2300
G1 X159.906 Y275.556 F2300
G1 X159.914 Y275.442 F2300
G1 X159.874 Y275.434 F2300
G1 X159.839 Y275.421 F2300
G1 X159.809 Y275.403 F2300
G1 X159.785 Y275.379 F2300
G1 X159.765 Y275.349 F2300
G1 X159.752 Y275.313 F2300
G1 X159.743 Y275.270 F2300
G1 X159.741 Y275.221 F2300
G1 X159.743 Y275.171 F2300
G1 X159.751 Y275.127 F2300
G1 X159.763 Y275.091 F2300
G1 X159.781 Y275.063 F2300
G1 X159.801 Y275.041 F2300
G1 X159.824 Y275.026 F2300
G1 X159.849 Y275.016 F2300
G1 X159.877 Y275.013 F2300
G1 X159.900 Y275.015 F2300
G1 X159.921 Y275.022 F2300
G1 X159.940 Y275.033 F2300
G1 X159.957 Y275.048 F2300
G1 X159.973 Y275.073 F2300
G1 X159.989 Y275.111 F2300
G1 X160.005 Y275.163 F2300
G1 X160.021 Y275.229 F2300
G1 X160.037 Y275.296 F2300
G1 X160.052 Y275.352 F2300
G1 X160.066 Y275.396 F2300
G1 X160.079 Y275.429 F2300
G1 X160.098 Y275.466 F2300
G1 X160.120 Y275.498 F2300
G1 X160.145 Y275.525 F2300
G1 X160.171 Y275.546 F2300
G1 X160.200 Y275.562 F2300
G1 X160.231 Y275.574 F2300
G1 X160.265 Y275.581 F2300
G1 X160.300 Y275.584 F2300
G1 X160.336 Y275.581 F2300
G1 X160.370 Y275.573 F2300
G1 X160.404 Y275.560 F2300
G1 X160.436 Y275.542 F2300
G1 X160.466 Y275.519 F2300
G1 X160.493 Y275.492 F2300
G1 X160.516 Y275.460 F2300
G1 X160.535 Y275.423 F2300
G1 X160.551 Y275.384 F2300
G1 X160.562 Y275.341 F2300
G1 X160.569 Y275.296 F2300
G1 X160.571 Y275.249 F2300
G1 X160.569 Y275.190 F2300
G1 X160.562 Y275.136 F2300
G1 X160.551 Y275.087 F2300
G1 X160.535 Y275.043 F2300
G1 X160.515 Y275.004 F2300
G1 X160.490 Y274.969 F2300
G1 X160.461 Y274.939 F2300
G1 X160.427 Y274.913 F2300
G1 X160.390 Y274.892 F2300
G1 X160.351 Y274.877 F2300
G1 X160.309 Y274.867 F2300
G1 X160.265 Y274.863 F2300
M5
G4 P0.050
; PATH 18 layer=0 points=11 length=5.417
G0 X160.556 Y273.990 F6000
M3 S1000
G4 P0.085
G1 X159.651 Y273.990 F2300
G1 X159.651 Y274.113 F2300
G1 X160.361 Y274.588 F2300
G1 X159.651 Y274.588 F2300
G1 X159.651 Y274.703 F2300
G1 X160.556 Y274.703 F2300
G1 X160.556 Y274.580 F2300
G1 X159.844 Y274.105 F2300
G1 X160.556 Y274.105 F2300
G1 X160.556 Y273.990 F2300
M5
G4 P0.050
; PATH 19 layer=0 points=13 length=5.231
G0 X160.556 Y273.150 F6000
M3 S1000
G4 P0.085
G1 X159.651 Y273.150 F2300
G1 X159.651 Y273.805 F2300
G1 X159.757 Y273.805 F2300
G1 X159.757 Y273.270 F2300
G1 X160.035 Y273.270 F2300
G1 X160.035 Y273.771 F2300
G1 X160.141 Y273.771 F2300
G1 X160.141 Y273.270 F2300
G1 X160.449 Y273.270 F2300
G1 X160.449 Y273.826 F2300
G1 X160.556 Y273.826 F2300
G1 X160.556 Y273.150 F2300
M5
G4 P0.050
; PATH 20 layer=0 points=22 length=7.268
G0 X160.556 Y272.091 F6000
M3 S1000
G4 P0.085
G1 X159.651 Y272.091 F2300
G1 X159.651 Y272.271 F2300
G1 X160.291 Y272.485 F2300
G1 X160.333 Y272.499 F2300
G1 X160.370 Y272.511 F2300
G1 X160.400 Y272.521 F2300
G1 X160.425 Y272.529 F2300
G1 X160.398 Y272.537 F2300
G1 X160.364 Y272.548 F2300
G1 X160.325 Y272.562 F2300
G1 X160.280 Y272.577 F2300
G1 X159.651 Y272.793 F2300
G1 X159.651 Y272.955 F2300
G1 X160.556 Y272.955 F2300
G1 X160.556 Y272.839 F2300
G1 X159.798 Y272.839 F2300
G1 X160.556 Y272.576 F2300
G1 X160.556 Y272.468 F2300
G1 X159.785 Y272.206 F2300
G1 X160.556 Y272.206 F2300
G1 X160.556 Y272.091 F2300
M5
G4 P0.050
; PATH 21 layer=0 points=5 length=2.049
G0 X160.556 Y271.764 F6000
M3 S1000
G4 P0.085
G1 X159.651 Y271.764 F2300
G1 X159.651 Y271.884 F2300
G1 X160.556 Y271.884 F2300
G1 X160.556 Y271.764 F2300
M5
G4 P0.050
; PATH 22 layer=0 points=32 length=2.159
G0 X160.449 Y270.950 F6000
M3 S1000
G4 P0.085
G1 X160.449 Y271.143 F2300
G1 X160.448 Y271.186 F2300
G1 X160.445 Y271.223 F2300
G1 X160.439 Y271.256 F2300
G1 X160.432 Y271.284 F2300
G1 X160.423 Y271.308 F2300
G1 X160.412 Y271.330 F2300
G1 X160.399 Y271.349 F2300
G1 X160.385 Y271.365 F2300
G1 X160.362 Y271.385 F2300
G1 X160.335 Y271.403 F2300
G1 X160.305 Y271.418 F2300
G1 X160.271 Y271.431 F2300
G1 X160.233 Y271.442 F2300
G1 X160.191 Y271.449 F2300
G1 X160.146 Y271.454 F2300
G1 X160.096 Y271.455 F2300
G1 X160.029 Y271.452 F2300
G1 X159.971 Y271.444 F2300
G1 X159.920 Y271.429 F2300
G1 X159.878 Y271.409 F2300
G1 X159.843 Y271.384 F2300
G1 X159.814 Y271.357 F2300
G1 X159.792 Y271.327 F2300
G1 X159.776 Y271.295 F2300
G1 X159.768 Y271.268 F2300
G1 X159.762 Y271.233 F2300
G1 X159.759 Y271.190 F2300
G1 X159.757 Y271.140 F2300
G1 X159.757 Y270.950 F2300
G1 X160.449 Y270.950 F2300
M5
G4 P0.050
; PATH 23 layer=0 points=40 length=2.976
G0 X160.556 Y270.831 F6000
M3 S1000
G4 P0.085
G1 X159.651 Y270.831 F2300
G1 X159.651 Y271.142 F2300
G1 X159.651 Y271.192 F2300
G1 X159.654 Y271.235 F2300
G1 X159.658 Y271.272 F2300
G1 X159.664 Y271.303 F2300
G1 X159.674 Y271.341 F2300
G1 X159.689 Y271.375 F2300
G1 X159.707 Y271.407 F2300
G1 X159.728 Y271.436 F2300
G1 X159.761 Y271.470 F2300
G1 X159.797 Y271.499 F2300
G1 X159.838 Y271.523 F2300
G1 X159.883 Y271.543 F2300
G1 X159.932 Y271.559 F2300
G1 X159.984 Y271.570 F2300
G1 X160.039 Y271.576 F2300
G1 X160.098 Y271.579 F2300
G1 X160.148 Y271.577 F2300
G1 X160.195 Y271.573 F2300
G1 X160.240 Y271.565 F2300
G1 X160.281 Y271.555 F2300
G1 X160.319 Y271.542 F2300
G1 X160.354 Y271.527 F2300
G1 X160.385 Y271.511 F2300
G1 X160.413 Y271.493 F2300
G1 X160.437 Y271.474 F2300
G1 X160.459 Y271.453 F2300
G1 X160.478 Y271.432 F2300
G1 X160.495 Y271.410 F2300
G1 X160.509 Y271.387 F2300
G1 X160.521 Y271.361 F2300
G1 X160.532 Y271.333 F2300
G1 X160.540 Y271.302 F2300
G1 X160.547 Y271.270 F2300
G1 X160.552 Y271.234 F2300
G1 X160.555 Y271.197 F2300
G1 X160.556 Y271.157 F2300
G1 X160.556 Y270.831 F2300
M5
G4 P0.050
; PATH 24 layer=0 points=32 length=2.159
G0 X160.449 Y269.686 F6000
M3 S1000
G4 P0.085
G1 X160.449 Y269.879 F2300
G1 X160.448 Y269.922 F2300
G1 X160.445 Y269.959 F2300
G1 X160.439 Y269.992 F2300
G1 X160.432 Y270.020 F2300
G1 X160.423 Y270.044 F2300
G1 X160.412 Y270.065 F2300
G1 X160.399 Y270.084 F2300
G1 X160.385 Y270.101 F2300
G1 X160.362 Y270.121 F2300
G1 X160.335 Y270.139 F2300
G1 X160.305 Y270.154 F2300
G1 X160.271 Y270.167 F2300
G1 X160.233 Y270.178 F2300
G1 X160.191 Y270.185 F2300
G1 X160.146 Y270.190 F2300
G1 X160.096 Y270.191 F2300
G1 X160.029 Y270.188 F2300
G1 X159.971 Y270.179 F2300
G1 X159.920 Y270.165 F2300
G1 X159.878 Y270.144 F2300
G1 X159.843 Y270.120 F2300
G1 X159.814 Y270.093 F2300
G1 X159.792 Y270.063 F2300
G1 X159.776 Y270.031 F2300
G1 X159.768 Y270.003 F2300
G1 X159.762 Y269.968 F2300
G1 X159.759 Y269.926 F2300
G1 X159.757 Y269.876 F2300
G1 X159.757 Y269.686 F2300
G1 X160.449 Y269.686 F2300
M5
G4 P0.050
; PATH 25 layer=0 points=40 length=2.976
G0 X160.556 Y269.566 F6000
M3 S1000
G4 P0.085
G1 X159.651 Y269.566 F2300
G1 X159.651 Y269.878 F2300
G1 X159.651 Y269.928 F2300
G1 X159.654 Y269.971 F2300
G1 X159.658 Y270.008 F2300
G1 X159.664 Y270.039 F2300
G1 X159.674 Y270.077 F2300
G1 X159.689 Y270.111 F2300
G1 X159.707 Y270.143 F2300
G1 X159.728 Y270.172 F2300
G1 X159.761 Y270.205 F2300
G1 X159.797 Y270.234 F2300
G1 X159.838 Y270.259 F2300
G1 X159.883 Y270.279 F2300
G1 X159.932 Y270.294 F2300
G1 X159.984 Y270.306 F2300
G1 X160.039 Y270.312 F2300
G1 X160.098 Y270.314 F2300
G1 X160.148 Y270.313 F2300
G1 X160.195 Y270.308 F2300
G1 X160.240 Y270.301 F2300
G1 X160.281 Y270.290 F2300
G1 X160.319 Y270.277 F2300
G1 X160.354 Y270.263 F2300
G1 X160.385 Y270.247 F2300
G1 X160.413 Y270.229 F2300
G1 X160.437 Y270.209 F2300
G1 X160.459 Y270.189 F2300
G1 X160.478 Y270.168 F2300
G1 X160.495 Y270.146 F2300
G1 X160.509 Y270.123 F2300
G1 X160.521 Y270.097 F2300
G1 X160.532 Y270.069 F2300
G1 X160.540 Y270.038 F2300
G1 X160.547 Y270.005 F2300
G1 X160.552 Y269.970 F2300
G1 X160.555 Y269.933 F2300
G1 X160.556 Y269.893 F2300
G1 X160.556 Y269.566 F2300
M5
G4 P0.050
; PATH 26 layer=0 points=13 length=5.231
G0 X160.556 Y268.726 F6000
M3 S1000
G4 P0.085
G1 X159.651 Y268.726 F2300
G1 X159.651 Y269.380 F2300
G1 X159.757 Y269.380 F2300
G1 X159.757 Y268.845 F2300
G1 X160.035 Y268.845 F2300
G1 X160.035 Y269.346 F2300
G1 X160.141 Y269.346 F2300
G1 X160.141 Y268.845 F2300
G1 X160.449 Y268.845 F2300
G1 X160.449 Y269.401 F2300
G1 X160.556 Y269.401 F2300
G1 X160.556 Y268.726 F2300
M5
G4 P0.050
; PATH 27 layer=0 points=9 length=3.244
G0 X160.556 Y268.181 F6000
M3 S1000
G4 P0.085
G1 X159.757 Y268.181 F2300
G1 X159.757 Y267.883 F2300
G1 X159.651 Y267.883 F2300
G1 X159.651 Y268.600 F2300
G1 X159.757 Y268.600 F2300
G1 X159.757 Y268.301 F2300
G1 X160.556 Y268.301 F2300
G1 X160.556 Y268.181 F2300
M5
G4 P0.050
; PATH 28 layer=0 points=83 length=4.461
G0 X160.238 Y267.684 F6000
M3 S1000
G4 P0.085
G1 X160.269 Y267.803 F2300
G1 X160.338 Y267.781 F2300
G1 X160.399 Y267.751 F2300
G1 X160.450 Y267.713 F2300
G1 X160.494 Y267.668 F2300
G1 X160.527 Y267.616 F2300
G1 X160.552 Y267.559 F2300
G1 X160.566 Y267.497 F2300
G1 X160.571 Y267.429 F2300
G1 X160.567 Y267.359 F2300
G1 X160.556 Y267.296 F2300
G1 X160.537 Y267.240 F2300
G1 X160.511 Y267.191 F2300
G1 X160.478 Y267.148 F2300
G1 X160.439 Y267.110 F2300
G1 X160.392 Y267.078 F2300
G1 X160.339 Y267.051 F2300
G1 X160.281 Y267.030 F2300
G1 X160.222 Y267.015 F2300
G1 X160.160 Y267.006 F2300
G1 X160.096 Y267.003 F2300
G1 X160.028 Y267.007 F2300
G1 X159.964 Y267.017 F2300
G1 X159.905 Y267.034 F2300
G1 X159.850 Y267.057 F2300
G1 X159.800 Y267.087 F2300
G1 X159.757 Y267.123 F2300
G1 X159.720 Y267.164 F2300
G1 X159.690 Y267.211 F2300
G1 X159.666 Y267.262 F2300
G1 X159.649 Y267.316 F2300
G1 X159.639 Y267.372 F2300
G1 X159.635 Y267.430 F2300
G1 X159.639 Y267.496 F2300
G1 X159.652 Y267.555 F2300
G1 X159.674 Y267.610 F2300
G1 X159.704 Y267.659 F2300
G1 X159.742 Y267.702 F2300
G1 X159.787 Y267.737 F2300
G1 X159.840 Y267.766 F2300
G1 X159.899 Y267.788 F2300
G1 X159.927 Y267.670 F2300
G1 X159.881 Y267.652 F2300
G1 X159.841 Y267.631 F2300
G1 X159.809 Y267.607 F2300
G1 X159.783 Y267.579 F2300
G1 X159.763 Y267.547 F2300
G1 X159.749 Y267.511 F2300
G1 X159.740 Y267.471 F2300
G1 X159.738 Y267.428 F2300
G1 X159.741 Y267.378 F2300
G1 X159.750 Y267.332 F2300
G1 X159.766 Y267.291 F2300
G1 X159.788 Y267.254 F2300
G1 X159.815 Y267.221 F2300
G1 X159.846 Y267.194 F2300
G1 X159.882 Y267.172 F2300
G1 X159.922 Y267.155 F2300
G1 X159.964 Y267.143 F2300
G1 X160.007 Y267.134 F2300
G1 X160.051 Y267.129 F2300
G1 X160.096 Y267.127 F2300
G1 X160.152 Y267.129 F2300
G1 X160.204 Y267.135 F2300
G1 X160.252 Y267.146 F2300
G1 X160.297 Y267.160 F2300
G1 X160.338 Y267.180 F2300
G1 X160.372 Y267.203 F2300
G1 X160.402 Y267.232 F2300
G1 X160.426 Y267.265 F2300
G1 X160.445 Y267.301 F2300
G1 X160.458 Y267.339 F2300
G1 X160.466 Y267.378 F2300
G1 X160.469 Y267.419 F2300
G1 X160.465 Y267.467 F2300
G1 X160.454 Y267.512 F2300
G1 X160.436 Y267.552 F2300
G1 X160.410 Y267.589 F2300
G1 X160.378 Y267.621 F2300
G1 X160.338 Y267.648 F2300
G1 X160.292 Y267.668 F2300
G1 X160.238 Y267.684 F2300
M5
G4 P0.050
; PATH 29 layer=0 points=13 length=5.231
G0 X160.556 Y266.197 F6000
M3 S1000
G4 P0.085
G1 X159.651 Y266.197 F2300
G1 X159.651 Y266.851 F2300
G1 X159.757 Y266.851 F2300
G1 X159.757 Y266.317 F2300
G1 X160.035 Y266.317 F2300
G1 X160.035 Y266.817 F2300
G1 X160.141 Y266.817 F2300
G1 X160.141 Y266.317 F2300
G1 X160.449 Y266.317 F2300
G1 X160.449 Y266.872 F2300
G1 X160.556 Y266.872 F2300
G1 X160.556 Y266.197 F2300
M5
G4 P0.050
; PATH 30 layer=0 points=30 length=2.965
G0 X160.556 Y265.351 F6000
M3 S1000
G4 P0.085
G1 X159.651 Y265.351 F2300
G1 X159.651 Y265.693 F2300
G1 X159.651 Y265.735 F2300
G1 X159.653 Y265.772 F2300
G1 X159.655 Y265.804 F2300
G1 X159.659 Y265.830 F2300
G1 X159.666 Y265.862 F2300
G1 X159.675 Y265.892 F2300
G1 X159.687 Y265.918 F2300
G1 X159.702 Y265.942 F2300
G1 X159.719 Y265.964 F2300
G1 X159.739 Y265.983 F2300
G1 X159.762 Y266.000 F2300
G1 X159.789 Y266.015 F2300
G1 X159.818 Y266.027 F2300
G1 X159.848 Y266.035 F2300
G1 X159.879 Y266.040 F2300
G1 X159.912 Y266.042 F2300
G1 X159.968 Y266.038 F2300
G1 X160.019 Y266.024 F2300
G1 X160.066 Y266.001 F2300
G1 X160.108 Y265.969 F2300
G1 X160.143 Y265.925 F2300
G1 X160.168 Y265.866 F2300
G1 X160.183 Y265.792 F2300
G1 X160.188 Y265.703 F2300
G1 X160.188 Y265.471 F2300
G1 X160.556 Y265.471 F2300
G1 X160.556 Y265.351 F2300
M5
G4 P0.050
; PATH 31 layer=0 points=24 length=1.407
G0 X160.081 Y265.471 F6000
M3 S1000
G4 P0.085
G1 X160.081 Y265.705 F2300
G1 X160.078 Y265.759 F2300
G1 X160.070 Y265.804 F2300
G1 X160.057 Y265.841 F2300
G1 X160.038 Y265.870 F2300
G1 X160.014 Y265.891 F2300
G1 X159.986 Y265.907 F2300
G1 X159.953 Y265.916 F2300
G1 X159.916 Y265.919 F2300
G1 X159.889 Y265.917 F2300
G1 X159.863 Y265.912 F2300
G1 X159.840 Y265.903 F2300
G1 X159.819 Y265.890 F2300
G1 X159.800 Y265.875 F2300
G1 X159.785 Y265.857 F2300
G1 X159.774 Y265.837 F2300
G1 X159.765 Y265.814 F2300
G1 X159.762 Y265.796 F2300
G1 X159.759 Y265.771 F2300
G1 X159.758 Y265.740 F2300
G1 X159.757 Y265.703 F2300
G1 X159.757 Y265.471 F2300
G1 X160.081 Y265.471 F2300
M5
G4 P0.050
; PATH 32 layer=0 points=135 length=5.032
G0 X160.265 Y264.467 F6000
M3 S1000
G4 P0.085
G1 X160.255 Y264.580 F2300
G1 X160.287 Y264.586 F2300
G1 X160.317 Y264.594 F2300
G1 X160.343 Y264.604 F2300
G1 X160.366 Y264.618 F2300
G1 X160.387 Y264.634 F2300
G1 X160.406 Y264.655 F2300
G1 X160.422 Y264.680 F2300
G1 X160.437 Y264.709 F2300
G1 X160.448 Y264.741 F2300
G1 X160.457 Y264.774 F2300
G1 X160.462 Y264.810 F2300
G1 X160.464 Y264.848 F2300
G1 X160.462 Y264.881 F2300
G1 X160.458 Y264.912 F2300
G1 X160.452 Y264.941 F2300
G1 X160.443 Y264.969 F2300
G1 X160.432 Y264.993 F2300
G1 X160.419 Y265.014 F2300
G1 X160.404 Y265.032 F2300
G1 X160.387 Y265.047 F2300
G1 X160.369 Y265.058 F2300
G1 X160.350 Y265.066 F2300
G1 X160.330 Y265.071 F2300
G1 X160.310 Y265.072 F2300
G1 X160.289 Y265.071 F2300
G1 X160.270 Y265.066 F2300
G1 X160.252 Y265.059 F2300
G1 X160.235 Y265.048 F2300
G1 X160.220 Y265.033 F2300
G1 X160.206 Y265.015 F2300
G1 X160.194 Y264.993 F2300
G1 X160.182 Y264.966 F2300
G1 X160.174 Y264.943 F2300
G1 X160.164 Y264.908 F2300
G1 X160.152 Y264.862 F2300
G1 X160.138 Y264.805 F2300
G1 X160.123 Y264.747 F2300
G1 X160.109 Y264.699 F2300
G1 X160.095 Y264.660 F2300
G1 X160.081 Y264.630 F2300
G1 X160.063 Y264.600 F2300
G1 X160.043 Y264.574 F2300
G1 X160.021 Y264.552 F2300
G1 X159.997 Y264.534 F2300
G1 X159.971 Y264.520 F2300
G1 X159.944 Y264.510 F2300
G1 X159.915 Y264.504 F2300
G1 X159.885 Y264.502 F2300
G1 X159.851 Y264.504 F2300
G1 X159.818 Y264.512 F2300
G1 X159.787 Y264.524 F2300
G1 X159.756 Y264.541 F2300
G1 X159.728 Y264.563 F2300
G1 X159.704 Y264.589 F2300
G1 X159.683 Y264.619 F2300
G1 X159.666 Y264.654 F2300
G1 X159.653 Y264.693 F2300
G1 X159.643 Y264.733 F2300
G1 X159.637 Y264.776 F2300
G1 X159.635 Y264.821 F2300
G1 X159.637 Y264.869 F2300
G1 X159.643 Y264.915 F2300
G1 X159.653 Y264.958 F2300
G1 X159.668 Y264.998 F2300
G1 X159.686 Y265.034 F2300
G1 X159.708 Y265.066 F2300
G1 X159.733 Y265.093 F2300
G1 X159.763 Y265.116 F2300
G1 X159.795 Y265.135 F2300
G1 X159.830 Y265.148 F2300
G1 X159.867 Y265.157 F2300
G1 X159.906 Y265.161 F2300
G1 X159.914 Y265.046 F2300
G1 X159.874 Y265.038 F2300
G1 X159.839 Y265.026 F2300
G1 X159.809 Y265.007 F2300
G1 X159.785 Y264.983 F2300
G1 X159.765 Y264.953 F2300
G1 X159.752 Y264.917 F2300
G1 X159.743 Y264.874 F2300
G1 X159.741 Y264.825 F2300
G1 X159.743 Y264.775 F2300
G1 X159.751 Y264.732 F2300
G1 X159.763 Y264.696 F2300
G1 X159.781 Y264.667 F2300
G1 X159.801 Y264.645 F2300
G1 X159.824 Y264.630 F2300
G1 X159.849 Y264.621 F2300
G1 X159.877 Y264.617 F2300
G1 X159.900 Y264.620 F2300
G1 X159.921 Y264.626 F2300
G1 X159.940 Y264.637 F2300
G1 X159.957 Y264.653 F2300
G1 X159.973 Y264.677 F2300
G1 X159.989 Y264.715 F2300
G1 X160.005 Y264.767 F2300
G1 X160.021 Y264.833 F2300
G1 X160.037 Y264.900 F2300
G1 X160.052 Y264.956 F2300
G1 X160.066 Y265.001 F2300
G1 X160.079 Y265.034 F2300
G1 X160.098 Y265.070 F2300
G1 X160.120 Y265.102 F2300
G1 X160.145 Y265.129 F2300
G1 X160.171 Y265.150 F2300
G1 X160.200 Y265.167 F2300
G1 X160.231 Y265.178 F2300
G1 X160.265 Y265.185 F2300
G1 X160.300 Y265.188 F2300
G1 X160.336 Y265.185 F2300
G1 X160.370 Y265.177 F2300
G1 X160.404 Y265.165 F2300
G1 X160.436 Y265.146 F2300
G1 X160.466 Y265.124 F2300
G1 X160.493 Y265.096 F2300
G1 X160.516 Y265.064 F2300
G1 X160.535 Y265.028 F2300
G1 X160.551 Y264.988 F2300
G1 X160.562 Y264.945 F2300
G1 X160.569 Y264.901 F2300
G1 X160.571 Y264.853 F2300
G1 X160.569 Y264.794 F2300
G1 X160.562 Y264.740 F2300
G1 X160.551 Y264.691 F2300
G1 X160.535 Y264.647 F2300
G1 X160.515 Y264.608 F2300
G1 X160.490 Y264.573 F2300
G1 X160.461 Y264.543 F2300
G1 X160.427 Y264.517 F2300
G1 X160.390 Y264.496 F2300
G1 X160.351 Y264.481 F2300
G1 X160.309 Y264.471 F2300
G1 X160.265 Y264.467 F2300
M5
G4 P0.050
; PATH 33 layer=0 points=11 length=5.417
G0 X160.556 Y263.594 F6000
M3 S1000
G4 P0.085
G1 X159.651 Y263.594 F2300
G1 X159.651 Y263.717 F2300
G1 X160.361 Y264.192 F2300
G1 X159.651 Y264.192 F2300
G1 X159.651 Y264.307 F2300
G1 X160.556 Y264.307 F2300
G1 X160.556 Y264.184 F2300
G1 X159.844 Y263.709 F2300
G1 X160.556 Y263.709 F2300
G1 X160.556 Y263.594 F2300
M5
G4 P0.050
; PATH 34 layer=0 points=5 length=2.049
G0 X160.556 Y263.264 F6000
M3 S1000
G4 P0.085
G1 X159.651 Y263.264 F2300
G1 X159.651 Y263.384 F2300
G1 X160.556 Y263.384 F2300
G1 X160.556 Y263.264 F2300
M5
G4 P0.050
; PATH 35 layer=0 points=2 length=11.313
G0 X158.669 Y262.305 F6000
M3 S1000
G4 P0.085
G1 X169.982 Y262.305 F2300
M5
G4 P0.050
; PATH 36 layer=0 points=9 length=3.303
G0 X166.279 Y263.145 F6000
M3 S1000
G4 P0.085
G1 X165.375 Y263.492 F2300
G1 X165.375 Y263.621 F2300
G1 X166.279 Y263.992 F2300
G1 X166.279 Y263.855 F2300
G1 X166.005 Y263.750 F2300
G1 X166.005 Y263.371 F2300
G1 X166.279 Y263.272 F2300
G1 X166.279 Y263.145 F2300
M5
G4 P0.050
; PATH 37 layer=0 points=12 length=1.236
G0 X165.908 Y263.406 F6000
M3 S1000
G4 P0.085
G1 X165.908 Y263.713 F2300
G1 X165.657 Y263.618 F2300
G1 X165.603 Y263.598 F2300
G1 X165.553 Y263.580 F2300
G1 X165.509 Y263.566 F2300
G1 X165.470 Y263.554 F2300
G1 X165.513 Y263.544 F2300
G1 X165.556 Y263.533 F2300
G1 X165.599 Y263.520 F2300
G1 X165.642 Y263.505 F2300
G1 X165.908 Y263.406 F2300
M5
G4 P0.050
; PATH 38 layer=0 points=53 length=4.096
G0 X166.279 Y264.089 F6000
M3 S1000
G4 P0.085
G1 X165.375 Y264.089 F2300
G1 X165.375 Y264.490 F2300
G1 X165.376 Y264.547 F2300
G1 X165.381 Y264.597 F2300
G1 X165.388 Y264.639 F2300
G1 X165.399 Y264.674 F2300
G1 X165.413 Y264.704 F2300
G1 X165.433 Y264.731 F2300
G1 X165.456 Y264.754 F2300
G1 X165.485 Y264.775 F2300
G1 X165.517 Y264.791 F2300
G1 X165.550 Y264.803 F2300
G1 X165.585 Y264.810 F2300
G1 X165.621 Y264.813 F2300
G1 X165.668 Y264.809 F2300
G1 X165.710 Y264.797 F2300
G1 X165.749 Y264.777 F2300
G1 X165.784 Y264.750 F2300
G1 X165.814 Y264.715 F2300
G1 X165.838 Y264.671 F2300
G1 X165.856 Y264.618 F2300
G1 X165.868 Y264.558 F2300
G1 X165.879 Y264.580 F2300
G1 X165.890 Y264.599 F2300
G1 X165.902 Y264.616 F2300
G1 X165.913 Y264.630 F2300
G1 X165.938 Y264.656 F2300
G1 X165.967 Y264.681 F2300
G1 X165.999 Y264.705 F2300
G1 X166.033 Y264.729 F2300
G1 X166.279 Y264.887 F2300
G1 X166.279 Y264.736 F2300
G1 X166.091 Y264.616 F2300
G1 X166.053 Y264.591 F2300
G1 X166.019 Y264.568 F2300
G1 X165.990 Y264.548 F2300
G1 X165.966 Y264.530 F2300
G1 X165.947 Y264.513 F2300
G1 X165.930 Y264.498 F2300
G1 X165.916 Y264.483 F2300
G1 X165.906 Y264.469 F2300
G1 X165.898 Y264.456 F2300
G1 X165.891 Y264.442 F2300
G1 X165.886 Y264.428 F2300
G1 X165.882 Y264.414 F2300
G1 X165.880 Y264.403 F2300
G1 X165.879 Y264.388 F2300
G1 X165.878 Y264.369 F2300
G1 X165.878 Y264.348 F2300
G1 X165.878 Y264.209 F2300
G1 X166.279 Y264.209 F2300
G1 X166.279 Y264.089 F2300
M5
G4 P0.050
; PATH 39 layer=0 points=24 length=1.424
G0 X165.774 Y264.209 F6000
M3 S1000
G4 P0.085
G1 X165.774 Y264.466 F2300
G1 X165.773 Y264.505 F2300
G1 X165.770 Y264.539 F2300
G1 X165.764 Y264.569 F2300
G1 X165.757 Y264.595 F2300
G1 X165.747 Y264.616 F2300
G1 X165.735 Y264.635 F2300
G1 X165.720 Y264.652 F2300
G1 X165.703 Y264.665 F2300
G1 X165.684 Y264.676 F2300
G1 X165.664 Y264.683 F2300
G1 X165.643 Y264.688 F2300
G1 X165.621 Y264.689 F2300
G1 X165.591 Y264.686 F2300
G1 X165.563 Y264.677 F2300
G1 X165.538 Y264.663 F2300
G1 X165.516 Y264.642 F2300
G1 X165.498 Y264.616 F2300
G1 X165.485 Y264.582 F2300
G1 X165.477 Y264.542 F2300
G1 X165.475 Y264.495 F2300
G1 X165.475 Y264.209 F2300
G1 X165.774 Y264.209 F2300
M5
G4 P0.050
; PATH 40 layer=0 points=13 length=5.231
G0 X166.279 Y265.003 F6000
M3 S1000
G4 P0.085
G1 X165.375 Y265.003 F2300
G1 X165.375 Y265.657 F2300
G1 X165.481 Y265.657 F2300
G1 X165.481 Y265.122 F2300
G1 X165.758 Y265.122 F2300
G1 X165.758 Y265.623 F2300
G1 X165.865 Y265.623 F2300
G1 X165.865 Y265.122 F2300
G1 X166.173 Y265.122 F2300
G1 X166.173 Y265.678 F2300
G1 X166.279 Y265.678 F2300
G1 X166.279 Y265.003 F2300
M5
G4 P0.050
; PATH 41 layer=0 points=9 length=3.303
G0 X166.279 Y265.744 F6000
M3 S1000
G4 P0.085
G1 X165.375 Y266.092 F2300
G1 X165.375 Y266.221 F2300
G1 X166.279 Y266.591 F2300
G1 X166.279 Y266.455 F2300
G1 X166.005 Y266.349 F2300
G1 X166.005 Y265.971 F2300
G1 X166.279 Y265.871 F2300
G1 X166.279 Y265.744 F2300
M5
G4 P0.050
; PATH 42 layer=0 points=12 length=1.236
G0 X165.908 Y266.005 F6000
M3 S1000
G4 P0.085
G1 X165.908 Y266.312 F2300
G1 X165.657 Y266.217 F2300
G1 X165.603 Y266.197 F2300
G1 X165.553 Y266.180 F2300
G1 X165.509 Y266.165 F2300
G1 X165.470 Y266.153 F2300
G1 X165.513 Y266.144 F2300
G1 X165.556 Y266.132 F2300
G1 X165.599 Y266.119 F2300
G1 X165.642 Y266.105 F2300
G1 X165.908 Y266.005 F2300
M5
G4 P0.050
; PATH 43 layer=0 points=135 length=5.032
G0 X160.265 Y254.801 F6000
M3 S1000
G4 P0.085
G1 X160.255 Y254.914 F2300
G1 X160.287 Y254.919 F2300
G1 X160.317 Y254.927 F2300
G1 X160.343 Y254.938 F2300
G1 X160.366 Y254.951 F2300
G1 X160.387 Y254.968 F2300
G1 X160.406 Y254.988 F2300
G1 X160.422 Y255.013 F2300
G1 X160.437 Y255.042 F2300
G1 X160.448 Y255.074 F2300
G1 X160.457 Y255.108 F2300
G1 X160.462 Y255.143 F2300
G1 X160.464 Y255.181 F2300
G1 X160.462 Y255.214 F2300
G1 X160.458 Y255.246 F2300
G1 X160.452 Y255.275 F2300
G1 X160.443 Y255.302 F2300
G1 X160.432 Y255.327 F2300
G1 X160.419 Y255.348 F2300
G1 X160.404 Y255.366 F2300
G1 X160.387 Y255.380 F2300
G1 X160.369 Y255.391 F2300
G1 X160.350 Y255.399 F2300
G1 X160.330 Y255.404 F2300
G1 X160.310 Y255.406 F2300
G1 X160.289 Y255.404 F2300
G1 X160.270 Y255.400 F2300
G1 X160.252 Y255.392 F2300
G1 X160.235 Y255.381 F2300
G1 X160.220 Y255.367 F2300
G1 X160.206 Y255.348 F2300
G1 X160.194 Y255.326 F2300
G1 X160.182 Y255.300 F2300
G1 X160.174 Y255.276 F2300
G1 X160.164 Y255.241 F2300
G1 X160.152 Y255.195 F2300
G1 X160.138 Y255.138 F2300
G1 X160.123 Y255.081 F2300
G1 X160.109 Y255.032 F2300
G1 X160.095 Y254.993 F2300
G1 X160.081 Y254.964 F2300
G1 X160.063 Y254.933 F2300
G1 X160.043 Y254.907 F2300
G1 X160.021 Y254.885 F2300
G1 X159.997 Y254.867 F2300
G1 X159.971 Y254.853 F2300
G1 X159.944 Y254.843 F2300
G1 X159.915 Y254.837 F2300
G1 X159.885 Y254.835 F2300
G1 X159.851 Y254.838 F2300
G1 X159.818 Y254.845 F2300
G1 X159.787 Y254.857 F2300
G1 X159.756 Y254.874 F2300
G1 X159.728 Y254.896 F2300
G1 X159.704 Y254.922 F2300
G1 X159.683 Y254.953 F2300
G1 X159.666 Y254.988 F2300
G1 X159.653 Y255.026 F2300
G1 X159.643 Y255.067 F2300
G1 X159.637 Y255.109 F2300
G1 X159.635 Y255.154 F2300
G1 X159.637 Y255.203 F2300
G1 X159.643 Y255.249 F2300
G1 X159.653 Y255.291 F2300
G1 X159.668 Y255.331 F2300
G1 X159.686 Y255.368 F2300
G1 X159.708 Y255.399 F2300
G1 X159.733 Y255.427 F2300
G1 X159.763 Y255.450 F2300
G1 X159.795 Y255.468 F2300
G1 X159.830 Y255.481 F2300
G1 X159.867 Y255.490 F2300
G1 X159.906 Y255.494 F2300
G1 X159.914 Y255.379 F2300
G1 X159.874 Y255.372 F2300
G1 X159.839 Y255.359 F2300
G1 X159.809 Y255.340 F2300
G1 X159.785 Y255.317 F2300
G1 X159.765 Y255.287 F2300
G1 X159.752 Y255.250 F2300
G1 X159.743 Y255.208 F2300
G1 X159.741 Y255.159 F2300
G1 X159.743 Y255.108 F2300
G1 X159.751 Y255.065 F2300
G1 X159.763 Y255.029 F2300
G1 X159.781 Y255.000 F2300
G1 X159.801 Y254.979 F2300
G1 X159.824 Y254.963 F2300
G1 X159.849 Y254.954 F2300
G1 X159.877 Y254.951 F2300
G1 X159.900 Y254.953 F2300
G1 X159.921 Y254.960 F2300
G1 X159.940 Y254.971 F2300
G1 X159.957 Y254.986 F2300
G1 X159.973 Y255.010 F2300
G1 X159.989 Y255.048 F2300
G1 X160.005 Y255.100 F2300
G1 X160.021 Y255.166 F2300
G1 X160.037 Y255.234 F2300
G1 X160.052 Y255.290 F2300
G1 X160.066 Y255.334 F2300
G1 X160.079 Y255.367 F2300
G1 X160.098 Y255.404 F2300
G1 X160.120 Y255.435 F2300
G1 X160.145 Y255.462 F2300
G1 X160.171 Y255.483 F2300
G1 X160.200 Y255.500 F2300
G1 X160.231 Y255.512 F2300
G1 X160.265 Y255.519 F2300
G1 X160.300 Y255.521 F2300
G1 X160.336 Y255.519 F2300
G1 X160.370 Y255.511 F2300
G1 X160.404 Y255.498 F2300
G1 X160.436 Y255.480 F2300
G1 X160.466 Y255.457 F2300
G1 X160.493 Y255.429 F2300
G1 X160.516 Y255.397 F2300
G1 X160.535 Y255.361 F2300
G1 X160.551 Y255.321 F2300
G1 X160.562 Y255.279 F2300
G1 X160.569 Y255.234 F2300
G1 X160.571 Y255.187 F2300
G1 X160.569 Y255.128 F2300
G1 X160.562 Y255.074 F2300
G1 X160.551 Y255.025 F2300
G1 X160.535 Y254.981 F2300
G1 X160.515 Y254.941 F2300
G1 X160.490 Y254.907 F2300
G1 X160.461 Y254.876 F2300
G1 X160.427 Y254.850 F2300
G1 X160.390 Y254.830 F2300
G1 X160.351 Y254.814 F2300
G1 X160.309 Y254.805 F2300
G1 X160.265 Y254.801 F2300
M5
G4 P0.050
; PATH 44 layer=0 points=9 length=3.244
G0 X160.556 Y254.300 F6000
M3 S1000
G4 P0.085
G1 X159.757 Y254.300 F2300
G1 X159.757 Y254.001 F2300
G1 X159.651 Y254.001 F2300
G1 X159.651 Y254.719 F2300
G1 X159.757 Y254.719 F2300
G1 X159.757 Y254.419 F2300
G1 X160.556 Y254.419 F2300
G1 X160.556 Y254.300 F2300
M5
G4 P0.050
; PATH 45 layer=0 points=11 length=3.880
G0 X160.556 Y253.303 F6000
M3 S1000
G4 P0.085
G1 X159.651 Y253.303 F2300
G1 X159.651 Y253.914 F2300
G1 X159.757 Y253.914 F2300
G1 X159.757 Y253.423 F2300
G1 X160.038 Y253.423 F2300
G1 X160.038 Y253.848 F2300
G1 X160.144 Y253.848 F2300
G1 X160.144 Y253.423 F2300
G1 X160.556 Y253.423 F2300
G1 X160.556 Y253.303 F2300
M5
G4 P0.050
; PATH 46 layer=0 points=12 length=1.236
G0 X160.184 Y252.616 F6000
M3 S1000
G4 P0.085
G1 X160.184 Y252.922 F2300
G1 X159.933 Y252.828 F2300
G1 X159.879 Y252.808 F2300
G1 X159.829 Y252.790 F2300
G1 X159.785 Y252.776 F2300
G1 X159.746 Y252.764 F2300
G1 X159.789 Y252.754 F2300
G1 X159.832 Y252.743 F2300
G1 X159.876 Y252.730 F2300
G1 X159.919 Y252.715 F2300
G1 X160.184 Y252.616 F2300
M5
G4 P0.050
; PATH 47 layer=0 points=9 length=3.303
G0 X160.556 Y252.354 F6000
M3 S1000
G4 P0.085
G1 X159.651 Y252.702 F2300
G1 X159.651 Y252.831 F2300
G1 X160.556 Y253.201 F2300
G1 X160.556 Y253.065 F2300
G1 X160.281 Y252.959 F2300
G1 X160.281 Y252.581 F2300
G1 X160.556 Y252.482 F2300
G1 X160.556 Y252.354 F2300
M5
G4 P0.050
; PATH 48 layer=0 points=53 length=4.096
G0 X160.556 Y251.543 F6000
M3 S1000
G4 P0.085
G1 X159.651 Y251.543 F2300
G1 X159.651 Y251.944 F2300
G1 X159.652 Y252.001 F2300
G1 X159.657 Y252.050 F2300
G1 X159.664 Y252.093 F2300
G1 X159.675 Y252.128 F2300
G1 X159.690 Y252.158 F2300
G1 X159.709 Y252.185 F2300
G1 X159.733 Y252.208 F2300
G1 X159.761 Y252.228 F2300
G1 X159.793 Y252.245 F2300
G1 X159.826 Y252.257 F2300
G1 X159.861 Y252.264 F2300
G1 X159.898 Y252.266 F2300
G1 X159.944 Y252.262 F2300
G1 X159.986 Y252.251 F2300
G1 X160.025 Y252.231 F2300
G1 X160.060 Y252.204 F2300
G1 X160.090 Y252.168 F2300
G1 X160.114 Y252.124 F2300
G1 X160.132 Y252.072 F2300
G1 X160.144 Y252.011 F2300
G1 X160.155 Y252.034 F2300
G1 X160.167 Y252.053 F2300
G1 X160.178 Y252.070 F2300
G1 X160.189 Y252.083 F2300
G1 X160.214 Y252.109 F2300
G1 X160.243 Y252.135 F2300
G1 X160.275 Y252.159 F2300
G1 X160.309 Y252.183 F2300
G1 X160.556 Y252.340 F2300
G1 X160.556 Y252.190 F2300
G1 X160.367 Y252.070 F2300
G1 X160.329 Y252.045 F2300
G1 X160.295 Y252.022 F2300
G1 X160.267 Y252.002 F2300
G1 X160.243 Y251.983 F2300
G1 X160.223 Y251.967 F2300
G1 X160.206 Y251.951 F2300
G1 X160.192 Y251.937 F2300
G1 X160.182 Y251.923 F2300
G1 X160.174 Y251.909 F2300
G1 X160.167 Y251.896 F2300
G1 X160.162 Y251.882 F2300
G1 X160.158 Y251.868 F2300
G1 X160.156 Y251.856 F2300
G1 X160.155 Y251.841 F2300
G1 X160.154 Y251.823 F2300
G1 X160.154 Y251.801 F2300
G1 X160.154 Y251.662 F2300
G1 X160.556 Y251.662 F2300
G1 X160.556 Y251.543 F2300
M5
G4 P0.050
; PATH 49 layer=0 points=24 length=1.424
G0 X160.050 Y251.662 F6000
M3 S1000
G4 P0.085
G1 X160.050 Y251.920 F2300
G1 X160.049 Y251.959 F2300
G1 X160.046 Y251.993 F2300
G1 X160.040 Y252.023 F2300
G1 X160.033 Y252.048 F2300
G1 X160.023 Y252.070 F2300
G1 X160.011 Y252.089 F2300
G1 X159.996 Y252.105 F2300
G1 X159.979 Y252.119 F2300
G1 X159.960 Y252.129 F2300
G1 X159.940 Y252.137 F2300
G1 X159.919 Y252.141 F2300
G1 X159.898 Y252.143 F2300
G1 X159.867 Y252.140 F2300
G1 X159.839 Y252.131 F2300
G1 X159.814 Y252.116 F2300
G1 X159.792 Y252.096 F2300
G1 X159.774 Y252.069 F2300
G1 X159.761 Y252.036 F2300
G1 X159.753 Y251.996 F2300
G1 X159.751 Y251.949 F2300
G1 X159.751 Y251.662 F2300
G1 X160.050 Y251.662 F2300
M5
G4 P0.050
; PATH 50 layer=0 points=32 length=2.159
G0 X160.449 Y250.748 F6000
M3 S1000
G4 P0.085
G1 X160.449 Y250.941 F2300
G1 X160.448 Y250.983 F2300
G1 X160.445 Y251.021 F2300
G1 X160.439 Y251.053 F2300
G1 X160.432 Y251.081 F2300
G1 X160.423 Y251.105 F2300
G1 X160.412 Y251.127 F2300
G1 X160.399 Y251.146 F2300
G1 X160.385 Y251.162 F2300
G1 X160.362 Y251.183 F2300
G1 X160.335 Y251.200 F2300
G1 X160.305 Y251.216 F2300
G1 X160.271 Y251.229 F2300
G1 X160.233 Y251.239 F2300
G1 X160.191 Y251.247 F2300
G1 X160.146 Y251.251 F2300
G1 X160.096 Y251.253 F2300
G1 X160.029 Y251.250 F2300
G1 X159.971 Y251.241 F2300
G1 X159.920 Y251.226 F2300
G1 X159.878 Y251.206 F2300
G1 X159.843 Y251.181 F2300
G1 X159.814 Y251.154 F2300
G1 X159.792 Y251.125 F2300
G1 X159.776 Y251.093 F2300
G1 X159.768 Y251.065 F2300
G1 X159.762 Y251.030 F2300
G1 X159.759 Y250.987 F2300
G1 X159.757 Y250.938 F2300
G1 X159.757 Y250.748 F2300
G1 X160.449 Y250.748 F2300
M5
G4 P0.050
; PATH 51 layer=0 points=40 length=2.976
G0 X160.556 Y250.628 F6000
M3 S1000
G4 P0.085
G1 X159.651 Y250.628 F2300
G1 X159.651 Y250.940 F2300
G1 X159.651 Y250.989 F2300
G1 X159.654 Y251.033 F2300
G1 X159.658 Y251.070 F2300
G1 X159.664 Y251.101 F2300
G1 X159.674 Y251.138 F2300
G1 X159.689 Y251.173 F2300
G1 X159.707 Y251.205 F2300
G1 X159.728 Y251.233 F2300
G1 X159.761 Y251.267 F2300
G1 X159.797 Y251.296 F2300
G1 X159.838 Y251.321 F2300
G1 X159.883 Y251.341 F2300
G1 X159.932 Y251.356 F2300
G1 X159.984 Y251.367 F2300
G1 X160.039 Y251.374 F2300
G1 X160.098 Y251.376 F2300
G1 X160.148 Y251.375 F2300
G1 X160.195 Y251.370 F2300
G1 X160.240 Y251.362 F2300
G1 X160.281 Y251.352 F2300
G1 X160.319 Y251.339 F2300
G1 X160.354 Y251.324 F2300
G1 X160.385 Y251.308 F2300
G1 X160.413 Y251.290 F2300
G1 X160.437 Y251.271 F2300
G1 X160.459 Y251.251 F2300
G1 X160.478 Y251.230 F2300
G1 X160.495 Y251.208 F2300
G1 X160.509 Y251.184 F2300
G1 X160.521 Y251.158 F2300
G1 X160.532 Y251.130 F2300
G1 X160.540 Y251.100 F2300
G1 X160.547 Y251.067 F2300
G1 X160.552 Y251.032 F2300
G1 X160.555 Y250.994 F2300
G1 X160.556 Y250.954 F2300
G1 X160.556 Y250.628 F2300
M5
G4 P0.050
; PATH 52 layer=0 points=32 length=2.159
G0 X160.449 Y249.483 F6000
M3 S1000
G4 P0.085
G1 X160.449 Y249.677 F2300
G1 X160.448 Y249.719 F2300
G1 X160.445 Y249.756 F2300
G1 X160.439 Y249.789 F2300
G1 X160.432 Y249.817 F2300
G1 X160.423 Y249.841 F2300
G1 X160.412 Y249.863 F2300
G1 X160.399 Y249.882 F2300
G1 X160.385 Y249.898 F2300
G1 X160.362 Y249.918 F2300
G1 X160.335 Y249.936 F2300
G1 X160.305 Y249.952 F2300
G1 X160.271 Y249.965 F2300
G1 X160.233 Y249.975 F2300
G1 X160.191 Y249.982 F2300
G1 X160.146 Y249.987 F2300
G1 X160.096 Y249.988 F2300
G1 X160.029 Y249.985 F2300
G1 X159.971 Y249.977 F2300
G1 X159.920 Y249.962 F2300
G1 X159.878 Y249.942 F2300
G1 X159.843 Y249.917 F2300
G1 X159.814 Y249.890 F2300
G1 X159.792 Y249.861 F2300
G1 X159.776 Y249.828 F2300
G1 X159.768 Y249.801 F2300
G1 X159.762 Y249.766 F2300
G1 X159.759 Y249.723 F2300
G1 X159.757 Y249.674 F2300
G1 X159.757 Y249.483 F2300
G1 X160.449 Y249.483 F2300
M5
G4 P0.050
; PATH 53 layer=0 points=40 length=2.976
G0 X160.556 Y249.364 F6000
M3 S1000
G4 P0.085
G1 X159.651 Y249.364 F2300
G1 X159.651 Y249.675 F2300
G1 X159.651 Y249.725 F2300
G1 X159.654 Y249.768 F2300
G1 X159.658 Y249.806 F2300
G1 X159.664 Y249.836 F2300
G1 X159.674 Y249.874 F2300
G1 X159.689 Y249.909 F2300
G1 X159.707 Y249.940 F2300
G1 X159.728 Y249.969 F2300
G1 X159.761 Y250.003 F2300
G1 X159.797 Y250.032 F2300
G1 X159.838 Y250.056 F2300
G1 X159.883 Y250.076 F2300
G1 X159.932 Y250.092 F2300
G1 X159.984 Y250.103 F2300
G1 X160.039 Y250.110 F2300
G1 X160.098 Y250.112 F2300
G1 X160.148 Y250.110 F2300
G1 X160.195 Y250.106 F2300
G1 X160.240 Y250.098 F2300
G1 X160.281 Y250.088 F2300
G1 X160.319 Y250.075 F2300
G1 X160.354 Y250.060 F2300
G1 X160.385 Y250.044 F2300
G1 X160.413 Y250.026 F2300
G1 X160.437 Y250.007 F2300
G1 X160.459 Y249.987 F2300
G1 X160.478 Y249.966 F2300
G1 X160.495 Y249.944 F2300
G1 X160.509 Y249.920 F2300
G1 X160.521 Y249.894 F2300
G1 X160.532 Y249.866 F2300
G1 X160.540 Y249.836 F2300
G1 X160.547 Y249.803 F2300
G1 X160.552 Y249.768 F2300
G1 X160.555 Y249.730 F2300
G1 X160.556 Y249.690 F2300
G1 X160.556 Y249.364 F2300
M5
G4 P0.050
; PATH 54 layer=0 points=13 length=5.231
G0 X160.556 Y248.523 F6000
M3 S1000
G4 P0.085
G1 X159.651 Y248.523 F2300
G1 X159.651 Y249.177 F2300
G1 X159.757 Y249.177 F2300
G1 X159.757 Y248.643 F2300
G1 X160.035 Y248.643 F2300
G1 X160.035 Y249.143 F2300
G1 X160.141 Y249.143 F2300
G1 X160.141 Y248.643 F2300
G1 X160.449 Y248.643 F2300
G1 X160.449 Y249.198 F2300
G1 X160.556 Y249.198 F2300
G1 X160.556 Y248.523 F2300
M5
G4 P0.050
; PATH 55 layer=0 points=13 length=4.825
G0 X160.556 Y247.672 F6000
M3 S1000
G4 P0.085
G1 X159.651 Y247.672 F2300
G1 X159.651 Y247.792 F2300
G1 X160.099 Y247.792 F2300
G1 X159.651 Y248.241 F2300
G1 X159.651 Y248.404 F2300
G1 X160.017 Y248.024 F2300
G1 X160.556 Y248.420 F2300
G1 X160.556 Y248.262 F2300
G1 X160.098 Y247.940 F2300
G1 X160.242 Y247.792 F2300
G1 X160.556 Y247.792 F2300
G1 X160.556 Y247.672 F2300
M5
G4 P0.050
; PATH 56 layer=0 points=53 length=4.096
G0 X160.556 Y246.766 F6000
M3 S1000
G4 P0.085
G1 X159.651 Y246.766 F2300
G1 X159.651 Y247.167 F2300
G1 X159.652 Y247.224 F2300
G1 X159.657 Y247.274 F2300
G1 X159.664 Y247.316 F2300
G1 X159.675 Y247.351 F2300
G1 X159.690 Y247.381 F2300
G1 X159.709 Y247.408 F2300
G1 X159.733 Y247.431 F2300
G1 X159.761 Y247.452 F2300
G1 X159.793 Y247.468 F2300
G1 X159.826 Y247.480 F2300
G1 X159.861 Y247.487 F2300
G1 X159.898 Y247.490 F2300
G1 X159.944 Y247.486 F2300
G1 X159.986 Y247.474 F2300
G1 X160.025 Y247.454 F2300
G1 X160.060 Y247.427 F2300
G1 X160.090 Y247.392 F2300
G1 X160.114 Y247.348 F2300
G1 X160.132 Y247.295 F2300
G1 X160.144 Y247.235 F2300
G1 X160.155 Y247.257 F2300
G1 X160.167 Y247.276 F2300
G1 X160.178 Y247.293 F2300
G1 X160.189 Y247.307 F2300
G1 X160.214 Y247.333 F2300
G1 X160.243 Y247.358 F2300
G1 X160.275 Y247.382 F2300
G1 X160.309 Y247.406 F2300
G1 X160.556 Y247.564 F2300
G1 X160.556 Y247.413 F2300
G1 X160.367 Y247.293 F2300
G1 X160.329 Y247.268 F2300
G1 X160.295 Y247.245 F2300
G1 X160.267 Y247.225 F2300
G1 X160.243 Y247.207 F2300
G1 X160.223 Y247.190 F2300
G1 X160.206 Y247.175 F2300
G1 X160.192 Y247.160 F2300
G1 X160.182 Y247.146 F2300
G1 X160.174 Y247.133 F2300
G1 X160.167 Y247.119 F2300
G1 X160.162 Y247.105 F2300
G1 X160.158 Y247.091 F2300
G1 X160.156 Y247.080 F2300
G1 X160.155 Y247.065 F2300
G1 X160.154 Y247.046 F2300
G1 X160.154 Y247.025 F2300
G1 X160.154 Y246.886 F2300
G1 X160.556 Y246.886 F2300
G1 X160.556 Y246.766 F2300
M5
G4 P0.050
; PATH 57 layer=0 points=24 length=1.424
G0 X160.050 Y246.886 F6000
M3 S1000
G4 P0.085
G1 X160.050 Y247.143 F2300
G1 X160.049 Y247.182 F2300
G1 X160.046 Y247.216 F2300
G1 X160.040 Y247.246 F2300
G1 X160.033 Y247.272 F2300
G1 X160.023 Y247.293 F2300
G1 X160.011 Y247.312 F2300
G1 X159.996 Y247.329 F2300
G1 X159.979 Y247.342 F2300
G1 X159.960 Y247.353 F2300
G1 X159.940 Y247.360 F2300
G1 X159.919 Y247.365 F2300
G1 X159.898 Y247.366 F2300
G1 X159.867 Y247.363 F2300
G1 X159.839 Y247.354 F2300
G1 X159.814 Y247.340 F2300
G1 X159.792 Y247.319 F2300
G1 X159.774 Y247.293 F2300
G1 X159.761 Y247.259 F2300
G1 X159.753 Y247.219 F2300
G1 X159.751 Y247.172 F2300
G1 X159.751 Y246.886 F2300
G1 X160.050 Y246.886 F2300
M5
G4 P0.050
; PATH 58 layer=0 points=12 length=1.236
G0 X160.184 Y246.083 F6000
M3 S1000
G4 P0.085
G1 X160.184 Y246.390 F2300
G1 X159.933 Y246.295 F2300
G1 X159.879 Y246.275 F2300
G1 X159.829 Y246.257 F2300
G1 X159.785 Y246.243 F2300
G1 X159.746 Y246.231 F2300
G1 X159.789 Y246.221 F2300
G1 X159.832 Y246.210 F2300
G1 X159.876 Y246.197 F2300
G1 X159.919 Y246.182 F2300
G1 X160.184 Y246.083 F2300
M5
G4 P0.050
; PATH 59 layer=0 points=9 length=3.303
G0 X160.556 Y245.822 F6000
M3 S1000
G4 P0.085
G1 X159.651 Y246.169 F2300
G1 X159.651 Y246.298 F2300
G1 X160.556 Y246.669 F2300
G1 X160.556 Y246.532 F2300
G1 X160.281 Y246.427 F2300
G1 X160.281 Y246.048 F2300
G1 X160.556 Y245.949 F2300
G1 X160.556 Y245.822 F2300
M5
G4 P0.050
; PATH 60 layer=0 points=22 length=7.268
G0 X160.556 Y244.864 F6000
M3 S1000
G4 P0.085
G1 X159.651 Y244.864 F2300
G1 X159.651 Y245.044 F2300
G1 X160.291 Y245.259 F2300
G1 X160.333 Y245.272 F2300
G1 X160.370 Y245.284 F2300
G1 X160.400 Y245.294 F2300
G1 X160.425 Y245.302 F2300
G1 X160.398 Y245.311 F2300
G1 X160.364 Y245.322 F2300
G1 X160.325 Y245.335 F2300
G1 X160.280 Y245.350 F2300
G1 X159.651 Y245.567 F2300
G1 X159.651 Y245.728 F2300
G1 X160.556 Y245.728 F2300
G1 X160.556 Y245.612 F2300
G1 X159.798 Y245.612 F2300
G1 X160.556 Y245.349 F2300
G1 X160.556 Y245.241 F2300
G1 X159.785 Y244.980 F2300
G1 X160.556 Y244.980 F2300
G1 X160.556 Y244.864 F2300
M5
G4 P0.050
; PATH 61 layer=0 points=11 length=5.417
G0 X160.556 Y243.954 F6000
M3 S1000
G4 P0.085
G1 X159.651 Y243.954 F2300
G1 X159.651 Y244.077 F2300
G1 X160.361 Y244.552 F2300
G1 X159.651 Y244.552 F2300
G1 X159.651 Y244.667 F2300
G1 X160.556 Y244.667 F2300
G1 X160.556 Y244.544 F2300
G1 X159.844 Y244.069 F2300
G1 X160.556 Y244.069 F2300
G1 X160.556 Y243.954 F2300
M5
G4 P0.050
; PATH 62 layer=0 points=51 length=4.437
G0 X159.651 Y243.636 F6000
M3 S1000
G4 P0.085
G1 X159.651 Y243.756 F2300
G1 X160.173 Y243.756 F2300
G1 X160.238 Y243.754 F2300
G1 X160.296 Y243.748 F2300
G1 X160.346 Y243.738 F2300
G1 X160.390 Y243.725 F2300
G1 X160.428 Y243.706 F2300
G1 X160.463 Y243.681 F2300
G1 X160.494 Y243.650 F2300
G1 X160.521 Y243.613 F2300
G1 X160.543 Y243.570 F2300
G1 X160.558 Y243.520 F2300
G1 X160.568 Y243.464 F2300
G1 X160.571 Y243.402 F2300
G1 X160.568 Y243.341 F2300
G1 X160.560 Y243.286 F2300
G1 X160.546 Y243.237 F2300
G1 X160.527 Y243.194 F2300
G1 X160.503 Y243.156 F2300
G1 X160.474 Y243.125 F2300
G1 X160.439 Y243.099 F2300
G1 X160.400 Y243.078 F2300
G1 X160.355 Y243.063 F2300
G1 X160.302 Y243.052 F2300
G1 X160.242 Y243.046 F2300
G1 X160.173 Y243.044 F2300
G1 X159.651 Y243.044 F2300
G1 X159.651 Y243.164 F2300
G1 X160.173 Y243.164 F2300
G1 X160.228 Y243.165 F2300
G1 X160.275 Y243.169 F2300
G1 X160.315 Y243.176 F2300
G1 X160.347 Y243.185 F2300
G1 X160.373 Y243.198 F2300
G1 X160.396 Y243.215 F2300
G1 X160.416 Y243.236 F2300
G1 X160.433 Y243.261 F2300
G1 X160.446 Y243.289 F2300
G1 X160.455 Y243.320 F2300
G1 X160.461 Y243.354 F2300
G1 X160.463 Y243.391 F2300
G1 X160.459 Y243.453 F2300
G1 X160.448 Y243.504 F2300
G1 X160.429 Y243.547 F2300
G1 X160.403 Y243.580 F2300
G1 X160.366 Y243.604 F2300
G1 X160.316 Y243.622 F2300
G1 X160.251 Y243.632 F2300
G1 X160.173 Y243.636 F2300
G1 X159.651 Y243.636 F2300
M5
G4 P0.050
; PATH 63 layer=0 points=2 length=11.313
G0 X158.669 Y242.103 F6000
M3 S1000
G4 P0.085
G1 X169.982 Y242.103 F2300
M5
G4 P0.050
; PATH 64 layer=0 points=2 length=22.626
G0 X169.982 Y242.104 F6000
M3 S1000
G4 P0.085
G1 X192.609 Y242.104 F2300
M5
G4 P0.050
; PATH 65 layer=0 points=37 length=2.158
G0 X194.123 Y240.820 F6000
M3 S1000
G4 P0.085
G1 X194.201 Y240.825 F2300
G1 X194.270 Y240.842 F2300
G1 X194.330 Y240.869 F2300
G1 X194.381 Y240.908 F2300
G1 X194.422 Y240.954 F2300
G1 X194.452 Y241.007 F2300
G1 X194.469 Y241.065 F2300
G1 X194.475 Y241.128 F2300
G1 X194.469 Y241.193 F2300
G1 X194.451 Y241.252 F2300
G1 X194.422 Y241.304 F2300
G1 X194.380 Y241.351 F2300
G1 X194.328 Y241.389 F2300
G1 X194.265 Y241.416 F2300
G1 X194.193 Y241.433 F2300
G1 X194.110 Y241.438 F2300
G1 X194.057 Y241.436 F2300
G1 X194.007 Y241.429 F2300
G1 X193.960 Y241.417 F2300
G1 X193.918 Y241.401 F2300
G1 X193.879 Y241.380 F2300
G1 X193.844 Y241.355 F2300
G1 X193.815 Y241.325 F2300
G1 X193.790 Y241.292 F2300
G1 X193.770 Y241.255 F2300
G1 X193.756 Y241.215 F2300
G1 X193.747 Y241.174 F2300
G1 X193.744 Y241.130 F2300
G1 X193.750 Y241.069 F2300
G1 X193.766 Y241.012 F2300
G1 X193.794 Y240.959 F2300
G1 X193.832 Y240.911 F2300
G1 X193.883 Y240.871 F2300
G1 X193.948 Y240.843 F2300
G1 X194.029 Y240.825 F2300
G1 X194.123 Y240.820 F2300
M5
G4 P0.050
; PATH 66 layer=0 points=45 length=2.864
G0 X194.122 Y240.696 F6000
M3 S1000
G4 P0.085
G1 X194.015 Y240.704 F2300
G1 X193.921 Y240.727 F2300
G1 X193.839 Y240.764 F2300
G1 X193.769 Y240.817 F2300
G1 X193.713 Y240.882 F2300
G1 X193.673 Y240.956 F2300
G1 X193.649 Y241.038 F2300
G1 X193.641 Y241.130 F2300
G1 X193.645 Y241.191 F2300
G1 X193.656 Y241.249 F2300
G1 X193.675 Y241.304 F2300
G1 X193.701 Y241.356 F2300
G1 X193.734 Y241.403 F2300
G1 X193.773 Y241.444 F2300
G1 X193.818 Y241.480 F2300
G1 X193.868 Y241.509 F2300
G1 X193.923 Y241.532 F2300
G1 X193.982 Y241.549 F2300
G1 X194.045 Y241.558 F2300
G1 X194.111 Y241.562 F2300
G1 X194.178 Y241.558 F2300
G1 X194.241 Y241.548 F2300
G1 X194.301 Y241.530 F2300
G1 X194.357 Y241.506 F2300
G1 X194.408 Y241.476 F2300
G1 X194.453 Y241.439 F2300
G1 X194.491 Y241.397 F2300
G1 X194.522 Y241.349 F2300
G1 X194.546 Y241.297 F2300
G1 X194.564 Y241.243 F2300
G1 X194.574 Y241.187 F2300
G1 X194.578 Y241.129 F2300
G1 X194.574 Y241.067 F2300
G1 X194.562 Y241.008 F2300
G1 X194.543 Y240.953 F2300
G1 X194.516 Y240.901 F2300
G1 X194.482 Y240.853 F2300
G1 X194.443 Y240.812 F2300
G1 X194.398 Y240.777 F2300
G1 X194.347 Y240.748 F2300
G1 X194.293 Y240.725 F2300
G1 X194.238 Y240.709 F2300
G1 X194.180 Y240.700 F2300
G1 X194.122 Y240.696 F2300
M5
G4 P0.050
; PATH 67 layer=0 points=11 length=5.417
G0 X194.562 Y239.818 F6000
M3 S1000
G4 P0.085
G1 X193.657 Y239.818 F2300
G1 X193.657 Y239.941 F2300
G1 X194.368 Y240.417 F2300
G1 X193.657 Y240.417 F2300
G1 X193.657 Y240.531 F2300
G1 X194.562 Y240.531 F2300
G1 X194.562 Y240.409 F2300
G1 X193.851 Y239.933 F2300
G1 X194.562 Y239.933 F2300
G1 X194.562 Y239.818 F2300
M5
G4 P0.050
; PATH 68 layer=0 points=5 length=0.506
G0 X194.562 Y239.135 F6000
M3 S1000
G4 P0.085
G1 X194.436 Y239.135 F2300
G1 X194.436 Y239.261 F2300
G1 X194.562 Y239.261 F2300
G1 X194.562 Y239.135 F2300
M5
G4 P0.050
; PATH 69 layer=0 points=83 length=4.461
G0 X194.245 Y238.850 F6000
M3 S1000
G4 P0.085
G1 X194.275 Y238.970 F2300
G1 X194.345 Y238.947 F2300
G1 X194.405 Y238.917 F2300
G1 X194.457 Y238.879 F2300
G1 X194.500 Y238.834 F2300
G1 X194.534 Y238.783 F2300
G1 X194.558 Y238.726 F2300
G1 X194.573 Y238.663 F2300
G1 X194.578 Y238.595 F2300
G1 X194.574 Y238.525 F2300
G1 X194.563 Y238.462 F2300
G1 X194.544 Y238.406 F2300
G1 X194.518 Y238.357 F2300
G1 X194.485 Y238.314 F2300
G1 X194.445 Y238.276 F2300
G1 X194.399 Y238.244 F2300
G1 X194.346 Y238.218 F2300
G1 X194.288 Y238.197 F2300
G1 X194.228 Y238.182 F2300
G1 X194.167 Y238.173 F2300
G1 X194.103 Y238.170 F2300
G1 X194.035 Y238.173 F2300
G1 X193.971 Y238.183 F2300
G1 X193.911 Y238.200 F2300
G1 X193.856 Y238.224 F2300
G1 X193.807 Y238.254 F2300
G1 X193.764 Y238.289 F2300
G1 X193.727 Y238.330 F2300
G1 X193.697 Y238.377 F2300
G1 X193.673 Y238.429 F2300
G1 X193.656 Y238.482 F2300
G1 X193.645 Y238.538 F2300
G1 X193.642 Y238.597 F2300
G1 X193.646 Y238.662 F2300
G1 X193.659 Y238.722 F2300
G1 X193.681 Y238.776 F2300
G1 X193.711 Y238.825 F2300
G1 X193.749 Y238.868 F2300
G1 X193.794 Y238.904 F2300
G1 X193.846 Y238.933 F2300
G1 X193.905 Y238.954 F2300
G1 X193.933 Y238.836 F2300
G1 X193.887 Y238.819 F2300
G1 X193.848 Y238.798 F2300
G1 X193.815 Y238.773 F2300
G1 X193.789 Y238.745 F2300
G1 X193.770 Y238.713 F2300
G1 X193.756 Y238.677 F2300
G1 X193.747 Y238.638 F2300
G1 X193.744 Y238.594 F2300
G1 X193.748 Y238.544 F2300
G1 X193.757 Y238.499 F2300
G1 X193.773 Y238.457 F2300
G1 X193.794 Y238.420 F2300
G1 X193.822 Y238.388 F2300
G1 X193.853 Y238.360 F2300
G1 X193.889 Y238.338 F2300
G1 X193.929 Y238.322 F2300
G1 X193.971 Y238.309 F2300
G1 X194.014 Y238.300 F2300
G1 X194.058 Y238.295 F2300
G1 X194.102 Y238.293 F2300
G1 X194.158 Y238.295 F2300
G1 X194.211 Y238.302 F2300
G1 X194.259 Y238.312 F2300
G1 X194.304 Y238.327 F2300
G1 X194.344 Y238.346 F2300
G1 X194.379 Y238.370 F2300
G1 X194.409 Y238.398 F2300
G1 X194.433 Y238.431 F2300
G1 X194.451 Y238.468 F2300
G1 X194.465 Y238.505 F2300
G1 X194.473 Y238.545 F2300
G1 X194.475 Y238.585 F2300
G1 X194.472 Y238.634 F2300
G1 X194.461 Y238.678 F2300
G1 X194.443 Y238.719 F2300
G1 X194.417 Y238.756 F2300
G1 X194.385 Y238.788 F2300
G1 X194.345 Y238.814 F2300
G1 X194.299 Y238.835 F2300
G1 X194.245 Y238.850 F2300
M5
G4 P0.050
; PATH 70 layer=0 points=37 length=2.158
G0 X194.123 Y237.308 F6000
M3 S1000
G4 P0.085
G1 X194.201 Y237.313 F2300
G1 X194.270 Y237.330 F2300
G1 X194.330 Y237.357 F2300
G1 X194.381 Y237.396 F2300
G1 X194.422 Y237.443 F2300
G1 X194.452 Y237.495 F2300
G1 X194.469 Y237.553 F2300
G1 X194.475 Y237.617 F2300
G1 X194.469 Y237.681 F2300
G1 X194.451 Y237.740 F2300
G1 X194.422 Y237.792 F2300
G1 X194.380 Y237.839 F2300
G1 X194.328 Y237.877 F2300
G1 X194.265 Y237.905 F2300
G1 X194.193 Y237.921 F2300
G1 X194.110 Y237.926 F2300
G1 X194.057 Y237.924 F2300
G1 X194.007 Y237.917 F2300
G1 X193.960 Y237.905 F2300
G1 X193.918 Y237.889 F2300
G1 X193.879 Y237.868 F2300
G1 X193.844 Y237.843 F2300
G1 X193.815 Y237.814 F2300
G1 X193.790 Y237.780 F2300
G1 X193.770 Y237.743 F2300
G1 X193.756 Y237.704 F2300
G1 X193.747 Y237.662 F2300
G1 X193.744 Y237.618 F2300
G1 X193.750 Y237.557 F2300
G1 X193.766 Y237.500 F2300
G1 X193.794 Y237.448 F2300
G1 X193.832 Y237.400 F2300
G1 X193.883 Y237.360 F2300
G1 X193.948 Y237.331 F2300
G1 X194.029 Y237.314 F2300
G1 X194.123 Y237.308 F2300
M5
G4 P0.050
; PATH 71 layer=0 points=45 length=2.864
G0 X194.122 Y237.185 F6000
M3 S1000
G4 P0.085
G1 X194.015 Y237.192 F2300
G1 X193.921 Y237.215 F2300
G1 X193.839 Y237.253 F2300
G1 X193.769 Y237.306 F2300
G1 X193.713 Y237.370 F2300
G1 X193.673 Y237.444 F2300
G1 X193.649 Y237.527 F2300
G1 X193.641 Y237.618 F2300
G1 X193.645 Y237.679 F2300
G1 X193.656 Y237.737 F2300
G1 X193.675 Y237.792 F2300
G1 X193.701 Y237.844 F2300
G1 X193.734 Y237.891 F2300
G1 X193.773 Y237.932 F2300
G1 X193.818 Y237.968 F2300
G1 X193.868 Y237.997 F2300
G1 X193.923 Y238.020 F2300
G1 X193.982 Y238.037 F2300
G1 X194.045 Y238.047 F2300
G1 X194.111 Y238.050 F2300
G1 X194.178 Y238.046 F2300
G1 X194.241 Y238.036 F2300
G1 X194.301 Y238.019 F2300
G1 X194.357 Y237.994 F2300
G1 X194.408 Y237.964 F2300
G1 X194.453 Y237.927 F2300
G1 X194.491 Y237.885 F2300
G1 X194.522 Y237.837 F2300
G1 X194.546 Y237.785 F2300
G1 X194.564 Y237.731 F2300
G1 X194.574 Y237.675 F2300
G1 X194.578 Y237.617 F2300
G1 X194.574 Y237.555 F2300
G1 X194.562 Y237.496 F2300
G1 X194.543 Y237.441 F2300
G1 X194.516 Y237.389 F2300
G1 X194.482 Y237.342 F2300
G1 X194.443 Y237.300 F2300
G1 X194.398 Y237.265 F2300
G1 X194.347 Y237.236 F2300
G1 X194.293 Y237.214 F2300
G1 X194.238 Y237.197 F2300
G1 X194.180 Y237.188 F2300
G1 X194.122 Y237.185 F2300
M5
G4 P0.050
; PATH 72 layer=0 points=32 length=2.159
G0 X194.455 Y236.428 F6000
M3 S1000
G4 P0.085
G1 X194.455 Y236.621 F2300
G1 X194.454 Y236.663 F2300
G1 X194.451 Y236.701 F2300
G1 X194.446 Y236.733 F2300
G1 X194.439 Y236.761 F2300
G1 X194.430 Y236.786 F2300
G1 X194.419 Y236.807 F2300
G1 X194.406 Y236.826 F2300
G1 X194.392 Y236.843 F2300
G1 X194.369 Y236.863 F2300
G1 X194.342 Y236.880 F2300
G1 X194.312 Y236.896 F2300
G1 X194.277 Y236.909 F2300
G1 X194.240 Y236.919 F2300
G1 X194.198 Y236.927 F2300
G1 X194.152 Y236.931 F2300
G1 X194.103 Y236.933 F2300
G1 X194.036 Y236.930 F2300
G1 X193.977 Y236.921 F2300
G1 X193.927 Y236.906 F2300
G1 X193.885 Y236.886 F2300
G1 X193.850 Y236.861 F2300
G1 X193.821 Y236.834 F2300
G1 X193.799 Y236.805 F2300
G1 X193.783 Y236.773 F2300
G1 X193.775 Y236.745 F2300
G1 X193.769 Y236.710 F2300
G1 X193.765 Y236.668 F2300
G1 X193.764 Y236.618 F2300
G1 X193.764 Y236.428 F2300
G1 X194.455 Y236.428 F2300
M5
G4 P0.050
; PATH 73 layer=0 points=40 length=2.976
G0 X194.562 Y236.308 F6000
M3 S1000
G4 P0.085
G1 X193.657 Y236.308 F2300
G1 X193.657 Y236.620 F2300
G1 X193.658 Y236.669 F2300
G1 X193.661 Y236.713 F2300
G1 X193.665 Y236.750 F2300
G1 X193.670 Y236.781 F2300
G1 X193.681 Y236.818 F2300
G1 X193.695 Y236.853 F2300
G1 X193.713 Y236.885 F2300
G1 X193.735 Y236.914 F2300
G1 X193.767 Y236.947 F2300
G1 X193.804 Y236.976 F2300
G1 X193.845 Y237.001 F2300
G1 X193.890 Y237.021 F2300
G1 X193.938 Y237.036 F2300
G1 X193.991 Y237.047 F2300
G1 X194.046 Y237.054 F2300
G1 X194.105 Y237.056 F2300
G1 X194.155 Y237.055 F2300
G1 X194.202 Y237.050 F2300
G1 X194.246 Y237.043 F2300
G1 X194.288 Y237.032 F2300
G1 X194.326 Y237.019 F2300
G1 X194.360 Y237.005 F2300
G1 X194.392 Y236.988 F2300
G1 X194.419 Y236.970 F2300
G1 X194.444 Y236.951 F2300
G1 X194.466 Y236.931 F2300
G1 X194.485 Y236.910 F2300
G1 X194.501 Y236.888 F2300
G1 X194.516 Y236.864 F2300
G1 X194.528 Y236.839 F2300
G1 X194.538 Y236.810 F2300
G1 X194.547 Y236.780 F2300
G1 X194.554 Y236.747 F2300
G1 X194.558 Y236.712 F2300
G1 X194.561 Y236.674 F2300
G1 X194.562 Y236.635 F2300
G1 X194.562 Y236.308 F2300
M5
G4 P0.050
; PATH 74 layer=0 points=2 length=16.970
G0 X198.265 Y235.257 F6000
M3 S1000
G4 P0.085
G1 X181.295 Y235.257 F2300
M5
G4 P0.050
; PATH 75 layer=0 points=5 length=7.994
G0 X182.735 Y237.605 F6000
M3 S1000
G4 P0.085
G1 X183.408 Y235.746 F2300
G1 X184.755 Y235.746 F2300
G1 X185.429 Y237.605 F2300
G1 X182.735 Y237.605 F2300
M5
G4 P0.050
; PATH 76 layer=0 points=2 length=6.162
G0 X184.083 Y235.599 F6000
M3 S1000
G4 P0.085
G1 X184.082 Y241.762 F2300
M5
G4 P0.050
; PATH 77 layer=0 points=17 length=8.409
G0 X184.082 Y241.499 F6000
M3 S1000
G4 P0.085
G1 X184.606 Y241.393 F2300
G1 X185.034 Y241.104 F2300
G1 X185.323 Y240.676 F2300
G1 X185.429 Y240.152 F2300
G1 X185.323 Y239.628 F2300
G1 X185.034 Y239.200 F2300
G1 X184.606 Y238.911 F2300
G1 X184.082 Y238.805 F2300
G1 X183.558 Y238.911 F2300
G1 X183.130 Y239.200 F2300
G1 X182.841 Y239.628 F2300
G1 X182.735 Y240.152 F2300
G1 X182.841 Y240.676 F2300
G1 X183.130 Y241.104 F2300
G1 X183.558 Y241.393 F2300
G1 X184.082 Y241.499 F2300
M5
G4 P0.050
; PATH 78 layer=0 points=33 length=8.410
G0 X184.082 Y240.810 F6000
M3 S1000
G4 P0.085
G1 X183.820 Y240.757 F2300
G1 X183.606 Y240.613 F2300
G1 X183.461 Y240.399 F2300
G1 X183.409 Y240.137 F2300
G1 X183.461 Y239.875 F2300
G1 X183.606 Y239.661 F2300
G1 X183.820 Y239.516 F2300
G1 X184.082 Y239.463 F2300
G1 X184.344 Y239.516 F2300
G1 X184.558 Y239.661 F2300
G1 X184.702 Y239.875 F2300
G1 X184.755 Y240.137 F2300
G1 X184.702 Y240.399 F2300
G1 X184.558 Y240.613 F2300
G1 X184.344 Y240.757 F2300
G1 X184.082 Y240.810 F2300
G1 X183.820 Y240.757 F2300
G1 X183.606 Y240.613 F2300
G1 X183.461 Y240.399 F2300
G1 X183.408 Y240.137 F2300
G1 X183.461 Y239.874 F2300
G1 X183.606 Y239.660 F2300
G1 X183.820 Y239.516 F2300
G1 X184.082 Y239.463 F2300
G1 X184.344 Y239.516 F2300
G1 X184.558 Y239.660 F2300
G1 X184.703 Y239.874 F2300
G1 X184.755 Y240.137 F2300
G1 X184.703 Y240.399 F2300
G1 X184.558 Y240.613 F2300
G1 X184.344 Y240.757 F2300
G1 X184.082 Y240.810 F2300
M5
G4 P0.050
; PATH 79 layer=0 points=2 length=3.224
G0 X182.474 Y240.137 F6000
M3 S1000
G4 P0.085
G1 X185.698 Y240.137 F2300
M5
G4 P0.050
; PATH 80 layer=0 points=24 length=1.407
G0 X188.027 Y238.548 F6000
M3 S1000
G4 P0.085
G1 X188.027 Y238.782 F2300
G1 X188.024 Y238.836 F2300
G1 X188.016 Y238.881 F2300
G1 X188.003 Y238.918 F2300
G1 X187.984 Y238.947 F2300
G1 X187.960 Y238.968 F2300
G1 X187.932 Y238.984 F2300
G1 X187.899 Y238.993 F2300
G1 X187.862 Y238.996 F2300
G1 X187.835 Y238.994 F2300
G1 X187.809 Y238.989 F2300
G1 X187.786 Y238.980 F2300
G1 X187.765 Y238.967 F2300
G1 X187.746 Y238.952 F2300
G1 X187.731 Y238.934 F2300
G1 X187.720 Y238.914 F2300
G1 X187.712 Y238.891 F2300
G1 X187.708 Y238.873 F2300
G1 X187.706 Y238.848 F2300
G1 X187.704 Y238.817 F2300
G1 X187.704 Y238.780 F2300
G1 X187.704 Y238.548 F2300
G1 X188.027 Y238.548 F2300
M5
G4 P0.050
; PATH 81 layer=0 points=30 length=2.965
G0 X188.502 Y238.428 F6000
M3 S1000
G4 P0.085
G1 X187.597 Y238.428 F2300
G1 X187.597 Y238.770 F2300
G1 X187.597 Y238.812 F2300
G1 X187.599 Y238.849 F2300
G1 X187.602 Y238.881 F2300
G1 X187.605 Y238.907 F2300
G1 X187.612 Y238.939 F2300
G1 X187.622 Y238.969 F2300
G1 X187.633 Y238.995 F2300
G1 X187.648 Y239.019 F2300
G1 X187.665 Y239.041 F2300
G1 X187.685 Y239.060 F2300
G1 X187.708 Y239.077 F2300
G1 X187.735 Y239.092 F2300
G1 X187.764 Y239.104 F2300
G1 X187.794 Y239.112 F2300
G1 X187.826 Y239.117 F2300
G1 X187.858 Y239.119 F2300
G1 X187.914 Y239.115 F2300
G1 X187.965 Y239.101 F2300
G1 X188.012 Y239.078 F2300
G1 X188.054 Y239.046 F2300
G1 X188.089 Y239.002 F2300
G1 X188.114 Y238.943 F2300
G1 X188.129 Y238.869 F2300
G1 X188.134 Y238.780 F2300
G1 X188.134 Y238.548 F2300
G1 X188.502 Y238.548 F2300
G1 X188.502 Y238.428 F2300
M5
G4 P0.050
; PATH 82 layer=0 points=18 length=3.445
G0 X188.502 Y237.840 F6000
M3 S1000
G4 P0.085
G1 X188.118 Y237.840 F2300
G1 X187.597 Y237.491 F2300
G1 X187.597 Y237.637 F2300
G1 X187.870 Y237.815 F2300
G1 X187.908 Y237.840 F2300
G1 X187.946 Y237.863 F2300
G1 X187.984 Y237.886 F2300
G1 X188.023 Y237.907 F2300
G1 X187.986 Y237.929 F2300
G1 X187.947 Y237.953 F2300
G1 X187.906 Y237.978 F2300
G1 X187.863 Y238.006 F2300
G1 X187.597 Y238.182 F2300
G1 X187.597 Y238.321 F2300
G1 X188.118 Y237.960 F2300
G1 X188.502 Y237.960 F2300
G1 X188.502 Y237.840 F2300
M5
G4 P0.050
; PATH 83 layer=0 points=9 length=3.244
G0 X188.502 Y237.043 F6000
M3 S1000
G4 P0.085
G1 X187.704 Y237.043 F2300
G1 X187.704 Y236.745 F2300
G1 X187.597 Y236.745 F2300
G1 X187.597 Y237.462 F2300
G1 X187.704 Y237.462 F2300
G1 X187.704 Y237.163 F2300
G1 X188.502 Y237.163 F2300
G1 X188.502 Y237.043 F2300
M5
G4 P0.050
; PATH 84 layer=0 points=13 length=5.231
G0 X188.502 Y239.274 F6000
M3 S1000
G4 P0.085
G1 X187.597 Y239.274 F2300
G1 X187.597 Y239.928 F2300
G1 X187.704 Y239.928 F2300
G1 X187.704 Y239.394 F2300
G1 X187.981 Y239.394 F2300
G1 X187.981 Y239.895 F2300
G1 X188.087 Y239.895 F2300
G1 X188.087 Y239.394 F2300
G1 X188.395 Y239.394 F2300
G1 X188.395 Y239.949 F2300
G1 X188.502 Y239.949 F2300
G1 X188.502 Y239.274 F2300
M5
G4 P0.050
; PATH 85 layer=0 points=135 length=5.032
G0 X188.211 Y245.021 F6000
M3 S1000
G4 P0.085
G1 X188.201 Y245.134 F2300
G1 X188.233 Y245.140 F2300
G1 X188.263 Y245.148 F2300
G1 X188.289 Y245.158 F2300
G1 X188.312 Y245.172 F2300
G1 X188.333 Y245.188 F2300
G1 X188.352 Y245.209 F2300
G1 X188.368 Y245.234 F2300
G1 X188.383 Y245.263 F2300
G1 X188.395 Y245.295 F2300
G1 X188.403 Y245.328 F2300
G1 X188.408 Y245.364 F2300
G1 X188.410 Y245.402 F2300
G1 X188.408 Y245.435 F2300
G1 X188.405 Y245.466 F2300
G1 X188.398 Y245.495 F2300
G1 X188.389 Y245.523 F2300
G1 X188.378 Y245.547 F2300
G1 X188.365 Y245.568 F2300
G1 X188.350 Y245.586 F2300
G1 X188.333 Y245.601 F2300
G1 X188.315 Y245.612 F2300
G1 X188.296 Y245.620 F2300
G1 X188.277 Y245.625 F2300
G1 X188.256 Y245.626 F2300
G1 X188.235 Y245.625 F2300
G1 X188.216 Y245.620 F2300
G1 X188.198 Y245.612 F2300
G1 X188.182 Y245.602 F2300
G1 X188.166 Y245.587 F2300
G1 X188.152 Y245.569 F2300
G1 X188.140 Y245.547 F2300
G1 X188.128 Y245.520 F2300
G1 X188.120 Y245.496 F2300
G1 X188.110 Y245.462 F2300
G1 X188.098 Y245.416 F2300
G1 X188.084 Y245.359 F2300
G1 X188.069 Y245.301 F2300
G1 X188.055 Y245.253 F2300
G1 X188.041 Y245.214 F2300
G1 X188.028 Y245.184 F2300
G1 X188.010 Y245.154 F2300
G1 X187.990 Y245.128 F2300
G1 X187.967 Y245.106 F2300
G1 X187.943 Y245.088 F2300
G1 X187.917 Y245.074 F2300
G1 X187.890 Y245.064 F2300
G1 X187.861 Y245.058 F2300
G1 X187.831 Y245.056 F2300
G1 X187.797 Y245.058 F2300
G1 X187.764 Y245.066 F2300
G1 X187.733 Y245.078 F2300
G1 X187.703 Y245.095 F2300
G1 X187.675 Y245.117 F2300
G1 X187.650 Y245.143 F2300
G1 X187.629 Y245.173 F2300
G1 X187.612 Y245.208 F2300
G1 X187.599 Y245.247 F2300
G1 X187.589 Y245.287 F2300
G1 X187.583 Y245.330 F2300
G1 X187.581 Y245.375 F2300
G1 X187.583 Y245.423 F2300
G1 X187.589 Y245.469 F2300
G1 X187.600 Y245.512 F2300
G1 X187.614 Y245.552 F2300
G1 X187.632 Y245.588 F2300
G1 X187.654 Y245.620 F2300
G1 X187.680 Y245.647 F2300
G1 X187.709 Y245.670 F2300
G1 X187.742 Y245.688 F2300
G1 X187.776 Y245.702 F2300
G1 X187.813 Y245.711 F2300
G1 X187.852 Y245.715 F2300
G1 X187.860 Y245.600 F2300
G1 X187.820 Y245.592 F2300
G1 X187.785 Y245.580 F2300
G1 X187.755 Y245.561 F2300
G1 X187.731 Y245.537 F2300
G1 X187.712 Y245.507 F2300
G1 X187.698 Y245.471 F2300
G1 X187.690 Y245.428 F2300
G1 X187.687 Y245.379 F2300
G1 X187.689 Y245.329 F2300
G1 X187.697 Y245.286 F2300
G1 X187.709 Y245.250 F2300
G1 X187.727 Y245.221 F2300
G1 X187.748 Y245.199 F2300
G1 X187.771 Y245.184 F2300
G1 X187.796 Y245.175 F2300
G1 X187.823 Y245.171 F2300
G1 X187.846 Y245.174 F2300
G1 X187.867 Y245.180 F2300
G1 X187.886 Y245.191 F2300
G1 X187.903 Y245.207 F2300
G1 X187.919 Y245.231 F2300
G1 X187.935 Y245.269 F2300
G1 X187.951 Y245.321 F2300
G1 X187.967 Y245.387 F2300
G1 X187.983 Y245.454 F2300
G1 X187.998 Y245.510 F2300
G1 X188.012 Y245.555 F2300
G1 X188.025 Y245.587 F2300
G1 X188.045 Y245.624 F2300
G1 X188.066 Y245.656 F2300
G1 X188.091 Y245.683 F2300
G1 X188.117 Y245.704 F2300
G1 X188.146 Y245.721 F2300
G1 X188.178 Y245.732 F2300
G1 X188.211 Y245.739 F2300
G1 X188.246 Y245.742 F2300
G1 X188.282 Y245.739 F2300
G1 X188.316 Y245.731 F2300
G1 X188.350 Y245.719 F2300
G1 X188.382 Y245.700 F2300
G1 X188.412 Y245.678 F2300
G1 X188.439 Y245.650 F2300
G1 X188.462 Y245.618 F2300
G1 X188.482 Y245.582 F2300
G1 X188.497 Y245.542 F2300
G1 X188.508 Y245.499 F2300
G1 X188.515 Y245.454 F2300
G1 X188.517 Y245.407 F2300
G1 X188.515 Y245.348 F2300
G1 X188.508 Y245.294 F2300
G1 X188.497 Y245.245 F2300
G1 X188.481 Y245.201 F2300
G1 X188.461 Y245.162 F2300
G1 X188.436 Y245.127 F2300
G1 X188.407 Y245.097 F2300
G1 X188.374 Y245.071 F2300
G1 X188.336 Y245.050 F2300
G1 X188.297 Y245.035 F2300
G1 X188.255 Y245.025 F2300
G1 X188.211 Y245.021 F2300
M5
G4 P0.050
; PATH 86 layer=0 points=83 length=4.461
G0 X188.184 Y246.551 F6000
M3 S1000
G4 P0.085
G1 X188.215 Y246.671 F2300
G1 X188.284 Y246.648 F2300
G1 X188.345 Y246.618 F2300
G1 X188.397 Y246.580 F2300
G1 X188.440 Y246.535 F2300
G1 X188.474 Y246.484 F2300
G1 X188.498 Y246.427 F2300
G1 X188.512 Y246.364 F2300
G1 X188.517 Y246.296 F2300
G1 X188.513 Y246.226 F2300
G1 X188.502 Y246.163 F2300
G1 X188.484 Y246.107 F2300
G1 X188.458 Y246.058 F2300
G1 X188.424 Y246.015 F2300
G1 X188.385 Y245.977 F2300
G1 X188.338 Y245.945 F2300
G1 X188.285 Y245.919 F2300
G1 X188.227 Y245.898 F2300
G1 X188.168 Y245.883 F2300
G1 X188.106 Y245.874 F2300
G1 X188.042 Y245.871 F2300
G1 X187.974 Y245.874 F2300
G1 X187.910 Y245.884 F2300
G1 X187.851 Y245.901 F2300
G1 X187.796 Y245.925 F2300
G1 X187.746 Y245.955 F2300
G1 X187.703 Y245.990 F2300
G1 X187.666 Y246.032 F2300
G1 X187.636 Y246.079 F2300
G1 X187.612 Y246.130 F2300
G1 X187.595 Y246.183 F2300
G1 X187.585 Y246.239 F2300
G1 X187.581 Y246.298 F2300
G1 X187.586 Y246.363 F2300
G1 X187.599 Y246.423 F2300
G1 X187.620 Y246.477 F2300
G1 X187.650 Y246.526 F2300
G1 X187.689 Y246.569 F2300
G1 X187.734 Y246.605 F2300
G1 X187.786 Y246.634 F2300
G1 X187.845 Y246.655 F2300
G1 X187.873 Y246.537 F2300
G1 X187.827 Y246.520 F2300
G1 X187.787 Y246.499 F2300
G1 X187.755 Y246.474 F2300
G1 X187.729 Y246.446 F2300
G1 X187.709 Y246.414 F2300
G1 X187.695 Y246.379 F2300
G1 X187.687 Y246.339 F2300
G1 X187.684 Y246.296 F2300
G1 X187.687 Y246.245 F2300
G1 X187.696 Y246.200 F2300
G1 X187.712 Y246.158 F2300
G1 X187.734 Y246.121 F2300
G1 X187.761 Y246.089 F2300
G1 X187.792 Y246.061 F2300
G1 X187.828 Y246.039 F2300
G1 X187.868 Y246.023 F2300
G1 X187.910 Y246.010 F2300
G1 X187.954 Y246.001 F2300
G1 X187.997 Y245.996 F2300
G1 X188.042 Y245.994 F2300
G1 X188.098 Y245.996 F2300
G1 X188.150 Y246.003 F2300
G1 X188.198 Y246.013 F2300
G1 X188.243 Y246.028 F2300
G1 X188.284 Y246.047 F2300
G1 X188.319 Y246.071 F2300
G1 X188.348 Y246.099 F2300
G1 X188.372 Y246.133 F2300
G1 X188.391 Y246.169 F2300
G1 X188.404 Y246.206 F2300
G1 X188.412 Y246.246 F2300
G1 X188.415 Y246.286 F2300
G1 X188.411 Y246.335 F2300
G1 X188.400 Y246.379 F2300
G1 X188.382 Y246.420 F2300
G1 X188.357 Y246.457 F2300
G1 X188.324 Y246.489 F2300
G1 X188.285 Y246.515 F2300
G1 X188.238 Y246.536 F2300
G1 X188.184 Y246.551 F2300
M5
G4 P0.050
; PATH 87 layer=0 points=9 length=3.303
G0 X188.502 Y246.719 F6000
M3 S1000
G4 P0.085
G1 X187.597 Y247.067 F2300
G1 X187.597 Y247.196 F2300
G1 X188.502 Y247.566 F2300
G1 X188.502 Y247.429 F2300
G1 X188.228 Y247.324 F2300
G1 X188.228 Y246.946 F2300
G1 X188.502 Y246.846 F2300
G1 X188.502 Y246.719 F2300
M5
G4 P0.050
; PATH 88 layer=0 points=12 length=1.236
G0 X188.130 Y246.980 F6000
M3 S1000
G4 P0.085
G1 X188.130 Y247.287 F2300
G1 X187.879 Y247.192 F2300
G1 X187.825 Y247.172 F2300
G1 X187.775 Y247.155 F2300
G1 X187.731 Y247.140 F2300
G1 X187.692 Y247.128 F2300
G1 X187.735 Y247.119 F2300
G1 X187.779 Y247.107 F2300
G1 X187.822 Y247.094 F2300
G1 X187.865 Y247.079 F2300
G1 X188.130 Y246.980 F2300
M5
G4 P0.050
; PATH 89 layer=0 points=7 length=2.941
G0 X188.502 Y247.657 F6000
M3 S1000
G4 P0.085
G1 X187.597 Y247.657 F2300
G1 X187.597 Y247.776 F2300
G1 X188.395 Y247.776 F2300
G1 X188.395 Y248.222 F2300
G1 X188.502 Y248.222 F2300
G1 X188.502 Y247.657 F2300
M5
G4 P0.050
; PATH 90 layer=0 points=13 length=5.231
G0 X188.502 Y248.367 F6000
M3 S1000
G4 P0.085
G1 X187.597 Y248.367 F2300
G1 X187.597 Y249.021 F2300
G1 X187.704 Y249.021 F2300
G1 X187.704 Y248.487 F2300
G1 X187.981 Y248.487 F2300
G1 X187.981 Y248.988 F2300
G1 X188.087 Y248.988 F2300
G1 X188.087 Y248.487 F2300
G1 X188.395 Y248.487 F2300
G1 X188.395 Y249.042 F2300
G1 X188.502 Y249.042 F2300
G1 X188.502 Y248.367 F2300
M5
G4 P0.050
; PATH 91 layer=0 points=2 length=5.657
G0 X186.952 Y252.373 F6000
M3 S1000
G4 P0.085
G1 X192.609 Y252.373 F2300
M5
G4 P0.050
; PATH 92 layer=0 points=9 length=4.858
G0 X191.364 Y255.905 F6000
M3 S1000
G4 P0.085
G1 X190.033 Y256.416 F2300
G1 X190.033 Y256.605 F2300
G1 X191.364 Y257.150 F2300
G1 X191.364 Y256.950 F2300
G1 X190.961 Y256.794 F2300
G1 X190.961 Y256.238 F2300
G1 X191.364 Y256.092 F2300
G1 X191.364 Y255.905 F2300
M5
G4 P0.050
; PATH 93 layer=0 points=12 length=1.818
G0 X190.817 Y256.289 F6000
M3 S1000
G4 P0.085
G1 X190.817 Y256.740 F2300
G1 X190.449 Y256.601 F2300
G1 X190.368 Y256.571 F2300
G1 X190.296 Y256.546 F2300
G1 X190.230 Y256.524 F2300
G1 X190.173 Y256.507 F2300
G1 X190.237 Y256.493 F2300
G1 X190.300 Y256.476 F2300
G1 X190.364 Y256.457 F2300
G1 X190.427 Y256.435 F2300
G1 X190.817 Y256.289 F2300
M5
G4 P0.050
; PATH 94 layer=0 points=112 length=6.235
G0 X191.012 Y257.225 F6000
M3 S1000
G4 P0.085
G1 X190.991 Y257.389 F2300
G1 X191.055 Y257.405 F2300
G1 X191.110 Y257.427 F2300
G1 X191.155 Y257.453 F2300
G1 X191.191 Y257.485 F2300
G1 X191.218 Y257.520 F2300
G1 X191.237 Y257.560 F2300
G1 X191.248 Y257.603 F2300
G1 X191.252 Y257.649 F2300
G1 X191.247 Y257.705 F2300
G1 X191.232 Y257.756 F2300
G1 X191.207 Y257.802 F2300
G1 X191.172 Y257.844 F2300
G1 X191.130 Y257.879 F2300
G1 X191.083 Y257.904 F2300
G1 X191.031 Y257.919 F2300
G1 X190.974 Y257.924 F2300
G1 X190.920 Y257.919 F2300
G1 X190.872 Y257.905 F2300
G1 X190.828 Y257.882 F2300
G1 X190.789 Y257.850 F2300
G1 X190.757 Y257.811 F2300
G1 X190.734 Y257.767 F2300
G1 X190.720 Y257.717 F2300
G1 X190.715 Y257.663 F2300
G1 X190.717 Y257.638 F2300
G1 X190.720 Y257.611 F2300
G1 X190.726 Y257.581 F2300
G1 X190.734 Y257.548 F2300
G1 X190.590 Y257.566 F2300
G1 X190.591 Y257.574 F2300
G1 X190.592 Y257.581 F2300
G1 X190.592 Y257.587 F2300
G1 X190.592 Y257.592 F2300
G1 X190.589 Y257.643 F2300
G1 X190.578 Y257.691 F2300
G1 X190.561 Y257.737 F2300
G1 X190.538 Y257.780 F2300
G1 X190.507 Y257.817 F2300
G1 X190.468 Y257.843 F2300
G1 X190.423 Y257.858 F2300
G1 X190.370 Y257.864 F2300
G1 X190.327 Y257.860 F2300
G1 X190.287 Y257.848 F2300
G1 X190.252 Y257.829 F2300
G1 X190.221 Y257.803 F2300
G1 X190.195 Y257.770 F2300
G1 X190.176 Y257.733 F2300
G1 X190.165 Y257.692 F2300
G1 X190.162 Y257.646 F2300
G1 X190.165 Y257.600 F2300
G1 X190.177 Y257.558 F2300
G1 X190.195 Y257.521 F2300
G1 X190.222 Y257.487 F2300
G1 X190.255 Y257.458 F2300
G1 X190.297 Y257.435 F2300
G1 X190.345 Y257.417 F2300
G1 X190.401 Y257.405 F2300
G1 X190.372 Y257.242 F2300
G1 X190.295 Y257.262 F2300
G1 X190.227 Y257.291 F2300
G1 X190.167 Y257.330 F2300
G1 X190.118 Y257.378 F2300
G1 X190.078 Y257.434 F2300
G1 X190.050 Y257.497 F2300
G1 X190.033 Y257.566 F2300
G1 X190.027 Y257.642 F2300
G1 X190.030 Y257.696 F2300
G1 X190.039 Y257.747 F2300
G1 X190.054 Y257.796 F2300
G1 X190.074 Y257.843 F2300
G1 X190.100 Y257.886 F2300
G1 X190.129 Y257.924 F2300
G1 X190.163 Y257.956 F2300
G1 X190.202 Y257.983 F2300
G1 X190.243 Y258.004 F2300
G1 X190.285 Y258.019 F2300
G1 X190.328 Y258.029 F2300
G1 X190.373 Y258.032 F2300
G1 X190.415 Y258.029 F2300
G1 X190.456 Y258.020 F2300
G1 X190.494 Y258.006 F2300
G1 X190.530 Y257.985 F2300
G1 X190.564 Y257.959 F2300
G1 X190.594 Y257.928 F2300
G1 X190.620 Y257.891 F2300
G1 X190.643 Y257.848 F2300
G1 X190.660 Y257.904 F2300
G1 X190.685 Y257.953 F2300
G1 X190.717 Y257.996 F2300
G1 X190.756 Y258.032 F2300
G1 X190.801 Y258.060 F2300
G1 X190.852 Y258.081 F2300
G1 X190.909 Y258.093 F2300
G1 X190.971 Y258.097 F2300
G1 X191.054 Y258.089 F2300
G1 X191.132 Y258.065 F2300
G1 X191.202 Y258.025 F2300
G1 X191.266 Y257.970 F2300
G1 X191.319 Y257.902 F2300
G1 X191.357 Y257.826 F2300
G1 X191.380 Y257.741 F2300
G1 X191.387 Y257.649 F2300
G1 X191.381 Y257.565 F2300
G1 X191.361 Y257.488 F2300
G1 X191.329 Y257.419 F2300
G1 X191.283 Y257.358 F2300
G1 X191.227 Y257.306 F2300
G1 X191.163 Y257.267 F2300
G1 X191.092 Y257.240 F2300
G1 X191.012 Y257.225 F2300
M5
G4 P0.050
; PATH 95 layer=0 points=22 length=7.268
G0 X188.502 Y257.323 F6000
M3 S1000
G4 P0.085
G1 X187.597 Y257.323 F2300
G1 X187.597 Y257.503 F2300
G1 X188.237 Y257.717 F2300
G1 X188.279 Y257.731 F2300
G1 X188.316 Y257.743 F2300
G1 X188.346 Y257.753 F2300
G1 X188.371 Y257.761 F2300
G1 X188.344 Y257.769 F2300
G1 X188.310 Y257.780 F2300
G1 X188.271 Y257.794 F2300
G1 X188.226 Y257.809 F2300
G1 X187.597 Y258.025 F2300
G1 X187.597 Y258.187 F2300
G1 X188.502 Y258.187 F2300
G1 X188.502 Y258.071 F2300
G1 X187.744 Y258.071 F2300
G1 X188.502 Y257.808 F2300
G1 X188.502 Y257.700 F2300
G1 X187.731 Y257.438 F2300
G1 X188.502 Y257.438 F2300
G1 X188.502 Y257.323 F2300
M5
G4 P0.050
; PATH 96 layer=0 points=53 length=4.096
G0 X188.502 Y256.416 F6000
M3 S1000
G4 P0.085
G1 X187.597 Y256.416 F2300
G1 X187.597 Y256.817 F2300
G1 X187.598 Y256.874 F2300
G1 X187.603 Y256.923 F2300
G1 X187.610 Y256.966 F2300
G1 X187.621 Y257.001 F2300
G1 X187.636 Y257.031 F2300
G1 X187.655 Y257.057 F2300
G1 X187.679 Y257.081 F2300
G1 X187.707 Y257.101 F2300
G1 X187.739 Y257.118 F2300
G1 X187.772 Y257.130 F2300
G1 X187.807 Y257.137 F2300
G1 X187.844 Y257.139 F2300
G1 X187.890 Y257.135 F2300
G1 X187.932 Y257.123 F2300
G1 X187.971 Y257.104 F2300
G1 X188.006 Y257.077 F2300
G1 X188.036 Y257.041 F2300
G1 X188.060 Y256.997 F2300
G1 X188.078 Y256.945 F2300
G1 X188.090 Y256.884 F2300
G1 X188.101 Y256.906 F2300
G1 X188.113 Y256.926 F2300
G1 X188.124 Y256.943 F2300
G1 X188.135 Y256.956 F2300
G1 X188.161 Y256.982 F2300
G1 X188.189 Y257.007 F2300
G1 X188.221 Y257.032 F2300
G1 X188.255 Y257.056 F2300
G1 X188.502 Y257.213 F2300
G1 X188.502 Y257.062 F2300
G1 X188.313 Y256.943 F2300
G1 X188.275 Y256.918 F2300
G1 X188.241 Y256.895 F2300
G1 X188.213 Y256.874 F2300
G1 X188.189 Y256.856 F2300
G1 X188.169 Y256.840 F2300
G1 X188.152 Y256.824 F2300
G1 X188.138 Y256.809 F2300
G1 X188.128 Y256.796 F2300
G1 X188.120 Y256.782 F2300
G1 X188.114 Y256.768 F2300
G1 X188.108 Y256.755 F2300
G1 X188.104 Y256.741 F2300
G1 X188.102 Y256.729 F2300
G1 X188.101 Y256.714 F2300
G1 X188.100 Y256.696 F2300
G1 X188.100 Y256.674 F2300
G1 X188.100 Y256.535 F2300
G1 X188.502 Y256.535 F2300
G1 X188.502 Y256.416 F2300
M5
G4 P0.050
; PATH 97 layer=0 points=24 length=1.424
G0 X187.996 Y256.535 F6000
M3 S1000
G4 P0.085
G1 X187.996 Y256.793 F2300
G1 X187.995 Y256.832 F2300
G1 X187.992 Y256.866 F2300
G1 X187.987 Y256.896 F2300
G1 X187.979 Y256.921 F2300
G1 X187.969 Y256.943 F2300
G1 X187.957 Y256.962 F2300
G1 X187.942 Y256.978 F2300
G1 X187.925 Y256.991 F2300
G1 X187.906 Y257.002 F2300
G1 X187.886 Y257.010 F2300
G1 X187.865 Y257.014 F2300
G1 X187.844 Y257.016 F2300
G1 X187.813 Y257.013 F2300
G1 X187.785 Y257.004 F2300
G1 X187.760 Y256.989 F2300
G1 X187.738 Y256.969 F2300
G1 X187.720 Y256.942 F2300
G1 X187.707 Y256.909 F2300
G1 X187.699 Y256.869 F2300
G1 X187.697 Y256.822 F2300
G1 X187.697 Y256.535 F2300
G1 X187.996 Y256.535 F2300
M5
G4 P0.050
; PATH 98 layer=0 points=37 length=2.158
G0 X188.063 Y255.517 F6000
M3 S1000
G4 P0.085
G1 X188.140 Y255.523 F2300
G1 X188.209 Y255.539 F2300
G1 X188.269 Y255.567 F2300
G1 X188.321 Y255.605 F2300
G1 X188.362 Y255.652 F2300
G1 X188.391 Y255.705 F2300
G1 X188.409 Y255.762 F2300
G1 X188.415 Y255.826 F2300
G1 X188.409 Y255.891 F2300
G1 X188.391 Y255.949 F2300
G1 X188.361 Y256.002 F2300
G1 X188.320 Y256.049 F2300
G1 X188.267 Y256.087 F2300
G1 X188.205 Y256.114 F2300
G1 X188.132 Y256.130 F2300
G1 X188.050 Y256.136 F2300
G1 X187.996 Y256.134 F2300
G1 X187.946 Y256.127 F2300
G1 X187.900 Y256.115 F2300
G1 X187.857 Y256.099 F2300
G1 X187.818 Y256.078 F2300
G1 X187.784 Y256.053 F2300
G1 X187.754 Y256.023 F2300
G1 X187.729 Y255.989 F2300
G1 X187.709 Y255.952 F2300
G1 X187.695 Y255.913 F2300
G1 X187.687 Y255.872 F2300
G1 X187.684 Y255.828 F2300
G1 X187.689 Y255.767 F2300
G1 X187.706 Y255.710 F2300
G1 X187.733 Y255.657 F2300
G1 X187.771 Y255.609 F2300
G1 X187.822 Y255.569 F2300
G1 X187.888 Y255.540 F2300
G1 X187.968 Y255.523 F2300
G1 X188.063 Y255.517 F2300
M5
G4 P0.050
; PATH 99 layer=0 points=45 length=2.864
G0 X188.061 Y255.394 F6000
M3 S1000
G4 P0.085
G1 X187.954 Y255.402 F2300
G1 X187.860 Y255.424 F2300
G1 X187.778 Y255.462 F2300
G1 X187.708 Y255.515 F2300
G1 X187.652 Y255.580 F2300
G1 X187.613 Y255.654 F2300
G1 X187.589 Y255.736 F2300
G1 X187.581 Y255.827 F2300
G1 X187.584 Y255.888 F2300
G1 X187.596 Y255.946 F2300
G1 X187.614 Y256.001 F2300
G1 X187.641 Y256.053 F2300
G1 X187.673 Y256.101 F2300
G1 X187.712 Y256.142 F2300
G1 X187.757 Y256.177 F2300
G1 X187.808 Y256.207 F2300
G1 X187.863 Y256.230 F2300
G1 X187.922 Y256.246 F2300
G1 X187.984 Y256.256 F2300
G1 X188.050 Y256.259 F2300
G1 X188.117 Y256.256 F2300
G1 X188.181 Y256.245 F2300
G1 X188.241 Y256.228 F2300
G1 X188.297 Y256.204 F2300
G1 X188.348 Y256.173 F2300
G1 X188.392 Y256.137 F2300
G1 X188.430 Y256.094 F2300
G1 X188.461 Y256.046 F2300
G1 X188.486 Y255.994 F2300
G1 X188.503 Y255.941 F2300
G1 X188.514 Y255.885 F2300
G1 X188.517 Y255.827 F2300
G1 X188.513 Y255.764 F2300
G1 X188.502 Y255.706 F2300
G1 X188.482 Y255.650 F2300
G1 X188.455 Y255.598 F2300
G1 X188.422 Y255.551 F2300
G1 X188.382 Y255.510 F2300
G1 X188.337 Y255.475 F2300
G1 X188.287 Y255.446 F2300
G1 X188.233 Y255.423 F2300
G1 X188.177 Y255.407 F2300
G1 X188.120 Y255.397 F2300
G1 X188.061 Y255.394 F2300
M5
G4 P0.050
; PATH 100 layer=0 points=11 length=3.880
G0 X188.502 Y254.664 F6000
M3 S1000
G4 P0.085
G1 X187.597 Y254.664 F2300
G1 X187.597 Y255.275 F2300
G1 X187.704 Y255.275 F2300
G1 X187.704 Y254.784 F2300
G1 X187.984 Y254.784 F2300
G1 X187.984 Y255.209 F2300
G1 X188.091 Y255.209 F2300
G1 X188.091 Y254.784 F2300
G1 X188.502 Y254.784 F2300
G1 X188.502 Y254.664 F2300
M5
G4 P0.050
; PATH 101 layer=0 points=9 length=3.303
G0 X188.502 Y258.280 F6000
M3 S1000
G4 P0.085
G1 X187.597 Y258.628 F2300
G1 X187.597 Y258.757 F2300
G1 X188.502 Y259.127 F2300
G1 X188.502 Y258.991 F2300
G1 X188.228 Y258.885 F2300
G1 X188.228 Y258.507 F2300
G1 X188.502 Y258.408 F2300
G1 X188.502 Y258.280 F2300
M5
G4 P0.050
; PATH 102 layer=0 points=12 length=1.236
G0 X188.130 Y258.542 F6000
M3 S1000
G4 P0.085
G1 X188.130 Y258.848 F2300
G1 X187.879 Y258.754 F2300
G1 X187.825 Y258.734 F2300
G1 X187.775 Y258.716 F2300
G1 X187.731 Y258.702 F2300
G1 X187.692 Y258.690 F2300
G1 X187.735 Y258.680 F2300
G1 X187.779 Y258.669 F2300
G1 X187.822 Y258.656 F2300
G1 X187.865 Y258.641 F2300
G1 X188.130 Y258.542 F2300
M5
G4 P0.050
; PATH 103 layer=0 points=9 length=3.244
G0 X188.502 Y259.453 F6000
M3 S1000
G4 P0.085
G1 X187.704 Y259.453 F2300
G1 X187.704 Y259.155 F2300
G1 X187.597 Y259.155 F2300
G1 X187.597 Y259.872 F2300
G1 X187.704 Y259.872 F2300
G1 X187.704 Y259.573 F2300
G1 X188.502 Y259.573 F2300
G1 X188.502 Y259.453 F2300
M5
G4 P0.050
; PATH 104 layer=0 points=2 length=5.657
G0 X186.952 Y262.642 F6000
M3 S1000
G4 P0.085
G1 X192.609 Y262.642 F2300
M5
G4 P0.050
; PATH 105 layer=0 points=13 length=7.693
G0 X191.364 Y267.166 F6000
M3 S1000
G4 P0.085
G1 X190.033 Y267.166 F2300
G1 X190.033 Y268.128 F2300
G1 X190.190 Y268.128 F2300
G1 X190.190 Y267.342 F2300
G1 X190.597 Y267.342 F2300
G1 X190.597 Y268.078 F2300
G1 X190.754 Y268.078 F2300
G1 X190.754 Y267.342 F2300
G1 X191.207 Y267.342 F2300
G1 X191.207 Y268.159 F2300
G1 X191.364 Y268.159 F2300
G1 X191.364 Y267.166 F2300
M5
G4 P0.050
; PATH 106 layer=0 points=11 length=7.966
G0 X191.364 Y268.400 F6000
M3 S1000
G4 P0.085
G1 X190.033 Y268.400 F2300
G1 X190.033 Y268.581 F2300
G1 X191.078 Y269.280 F2300
G1 X190.033 Y269.280 F2300
G1 X190.033 Y269.449 F2300
G1 X191.364 Y269.449 F2300
G1 X191.364 Y269.268 F2300
G1 X190.318 Y268.569 F2300
G1 X191.364 Y268.569 F2300
G1 X191.364 Y268.400 F2300
M5
G4 P0.050
; PATH 107 layer=0 points=5 length=3.121
G0 X191.386 Y269.601 F6000
M3 S1000
G4 P0.085
G1 X190.010 Y269.987 F2300
G1 X190.010 Y270.118 F2300
G1 X191.386 Y269.733 F2300
G1 X191.386 Y269.601 F2300
M5
G4 P0.050
; PATH 108 layer=0 points=11 length=5.706
G0 X191.364 Y270.270 F6000
M3 S1000
G4 P0.085
G1 X190.033 Y270.270 F2300
G1 X190.033 Y271.168 F2300
G1 X190.190 Y271.168 F2300
G1 X190.190 Y270.446 F2300
G1 X190.602 Y270.446 F2300
G1 X190.602 Y271.071 F2300
G1 X190.759 Y271.071 F2300
G1 X190.759 Y270.446 F2300
G1 X191.364 Y270.446 F2300
G1 X191.364 Y270.270 F2300
M5
G4 P0.050
; PATH 109 layer=0 points=5 length=3.014
G0 X191.364 Y271.427 F6000
M3 S1000
G4 P0.085
G1 X190.033 Y271.427 F2300
G1 X190.033 Y271.603 F2300
G1 X191.364 Y271.603 F2300
G1 X191.364 Y271.427 F2300
M5
G4 P0.050
; PATH 110 layer=0 points=13 length=5.231
G0 X188.502 Y272.291 F6000
M3 S1000
G4 P0.085
G1 X187.597 Y272.291 F2300
G1 X187.597 Y272.945 F2300
G1 X187.704 Y272.945 F2300
G1 X187.704 Y272.410 F2300
G1 X187.981 Y272.410 F2300
G1 X187.981 Y272.911 F2300
G1 X188.087 Y272.911 F2300
G1 X188.087 Y272.410 F2300
G1 X188.395 Y272.410 F2300
G1 X188.395 Y272.966 F2300
G1 X188.502 Y272.966 F2300
G1 X188.502 Y272.291 F2300
M5
G4 P0.050
; PATH 111 layer=0 points=99 length=5.513
G0 X188.147 Y271.728 F6000
M3 S1000
G4 P0.085
G1 X188.041 Y271.728 F2300
G1 X188.040 Y272.112 F2300
G1 X188.376 Y272.112 F2300
G1 X188.409 Y272.067 F2300
G1 X188.437 Y272.022 F2300
G1 X188.462 Y271.976 F2300
G1 X188.482 Y271.929 F2300
G1 X188.497 Y271.882 F2300
G1 X188.508 Y271.834 F2300
G1 X188.515 Y271.786 F2300
G1 X188.517 Y271.737 F2300
G1 X188.514 Y271.672 F2300
G1 X188.503 Y271.610 F2300
G1 X188.485 Y271.551 F2300
G1 X188.460 Y271.495 F2300
G1 X188.428 Y271.443 F2300
G1 X188.390 Y271.399 F2300
G1 X188.346 Y271.361 F2300
G1 X188.295 Y271.330 F2300
G1 X188.239 Y271.306 F2300
G1 X188.181 Y271.288 F2300
G1 X188.119 Y271.278 F2300
G1 X188.054 Y271.275 F2300
G1 X187.989 Y271.278 F2300
G1 X187.926 Y271.288 F2300
G1 X187.865 Y271.306 F2300
G1 X187.807 Y271.330 F2300
G1 X187.753 Y271.360 F2300
G1 X187.707 Y271.397 F2300
G1 X187.668 Y271.440 F2300
G1 X187.637 Y271.489 F2300
G1 X187.613 Y271.543 F2300
G1 X187.595 Y271.600 F2300
G1 X187.585 Y271.662 F2300
G1 X187.581 Y271.728 F2300
G1 X187.583 Y271.776 F2300
G1 X187.589 Y271.821 F2300
G1 X187.599 Y271.864 F2300
G1 X187.613 Y271.905 F2300
G1 X187.631 Y271.943 F2300
G1 X187.651 Y271.976 F2300
G1 X187.675 Y272.005 F2300
G1 X187.702 Y272.029 F2300
G1 X187.732 Y272.051 F2300
G1 X187.767 Y272.069 F2300
G1 X187.806 Y272.085 F2300
G1 X187.850 Y272.098 F2300
G1 X187.879 Y271.990 F2300
G1 X187.847 Y271.979 F2300
G1 X187.818 Y271.967 F2300
G1 X187.792 Y271.954 F2300
G1 X187.771 Y271.939 F2300
G1 X187.752 Y271.923 F2300
G1 X187.735 Y271.903 F2300
G1 X187.720 Y271.879 F2300
G1 X187.708 Y271.853 F2300
G1 X187.697 Y271.824 F2300
G1 X187.690 Y271.794 F2300
G1 X187.685 Y271.762 F2300
G1 X187.684 Y271.728 F2300
G1 X187.685 Y271.689 F2300
G1 X187.690 Y271.652 F2300
G1 X187.698 Y271.618 F2300
G1 X187.709 Y271.586 F2300
G1 X187.722 Y271.558 F2300
G1 X187.738 Y271.532 F2300
G1 X187.755 Y271.509 F2300
G1 X187.775 Y271.490 F2300
G1 X187.795 Y271.472 F2300
G1 X187.817 Y271.457 F2300
G1 X187.840 Y271.444 F2300
G1 X187.864 Y271.433 F2300
G1 X187.907 Y271.417 F2300
G1 X187.952 Y271.407 F2300
G1 X187.998 Y271.400 F2300
G1 X188.046 Y271.398 F2300
G1 X188.104 Y271.401 F2300
G1 X188.157 Y271.408 F2300
G1 X188.205 Y271.421 F2300
G1 X188.249 Y271.440 F2300
G1 X188.287 Y271.463 F2300
G1 X188.320 Y271.491 F2300
G1 X188.347 Y271.524 F2300
G1 X188.370 Y271.561 F2300
G1 X188.387 Y271.601 F2300
G1 X188.399 Y271.643 F2300
G1 X188.407 Y271.686 F2300
G1 X188.409 Y271.730 F2300
G1 X188.407 Y271.769 F2300
G1 X188.402 Y271.807 F2300
G1 X188.392 Y271.845 F2300
G1 X188.379 Y271.882 F2300
G1 X188.364 Y271.917 F2300
G1 X188.348 Y271.947 F2300
G1 X188.332 Y271.973 F2300
G1 X188.315 Y271.994 F2300
G1 X188.147 Y271.994 F2300
G1 X188.147 Y271.728 F2300
M5
G4 P0.050
; PATH 112 layer=0 points=12 length=1.236
G0 X188.130 Y270.623 F6000
M3 S1000
G4 P0.085
G1 X188.130 Y270.930 F2300
G1 X187.879 Y270.836 F2300
G1 X187.825 Y270.815 F2300
G1 X187.775 Y270.798 F2300
G1 X187.731 Y270.783 F2300
G1 X187.692 Y270.771 F2300
G1 X187.735 Y270.762 F2300
G1 X187.779 Y270.751 F2300
G1 X187.822 Y270.738 F2300
G1 X187.865 Y270.723 F2300
G1 X188.130 Y270.623 F2300
M5
G4 P0.050
; PATH 113 layer=0 points=9 length=3.303
G0 X188.502 Y270.362 F6000
M3 S1000
G4 P0.085
G1 X187.597 Y270.710 F2300
G1 X187.597 Y270.839 F2300
G1 X188.502 Y271.209 F2300
G1 X188.502 Y271.073 F2300
G1 X188.228 Y270.967 F2300
G1 X188.228 Y270.589 F2300
G1 X188.502 Y270.489 F2300
G1 X188.502 Y270.362 F2300
M5
G4 P0.050
; PATH 114 layer=0 points=51 length=4.437
G0 X187.597 Y270.142 F6000
M3 S1000
G4 P0.085
G1 X187.597 Y270.262 F2300
G1 X188.120 Y270.262 F2300
G1 X188.184 Y270.260 F2300
G1 X188.242 Y270.254 F2300
G1 X188.293 Y270.245 F2300
G1 X188.336 Y270.231 F2300
G1 X188.375 Y270.213 F2300
G1 X188.409 Y270.188 F2300
G1 X188.440 Y270.157 F2300
G1 X188.467 Y270.120 F2300
G1 X188.489 Y270.076 F2300
G1 X188.505 Y270.027 F2300
G1 X188.514 Y269.971 F2300
G1 X188.517 Y269.908 F2300
G1 X188.514 Y269.848 F2300
G1 X188.506 Y269.793 F2300
G1 X188.492 Y269.744 F2300
G1 X188.473 Y269.700 F2300
G1 X188.449 Y269.663 F2300
G1 X188.420 Y269.631 F2300
G1 X188.385 Y269.605 F2300
G1 X188.346 Y269.585 F2300
G1 X188.301 Y269.570 F2300
G1 X188.248 Y269.559 F2300
G1 X188.188 Y269.553 F2300
G1 X188.120 Y269.550 F2300
G1 X187.597 Y269.550 F2300
G1 X187.597 Y269.670 F2300
G1 X188.119 Y269.670 F2300
G1 X188.174 Y269.672 F2300
G1 X188.221 Y269.676 F2300
G1 X188.261 Y269.683 F2300
G1 X188.293 Y269.692 F2300
G1 X188.319 Y269.705 F2300
G1 X188.342 Y269.722 F2300
G1 X188.362 Y269.743 F2300
G1 X188.379 Y269.767 F2300
G1 X188.392 Y269.796 F2300
G1 X188.402 Y269.827 F2300
G1 X188.407 Y269.861 F2300
G1 X188.409 Y269.898 F2300
G1 X188.405 Y269.959 F2300
G1 X188.394 Y270.011 F2300
G1 X188.375 Y270.053 F2300
G1 X188.349 Y270.086 F2300
G1 X188.312 Y270.111 F2300
G1 X188.262 Y270.128 F2300
G1 X188.197 Y270.139 F2300
G1 X188.119 Y270.142 F2300
G1 X187.597 Y270.142 F2300
M5
G4 P0.050
; PATH 115 layer=0 points=99 length=5.513
G0 X188.147 Y268.989 F6000
M3 S1000
G4 P0.085
G1 X188.041 Y268.989 F2300
G1 X188.040 Y269.372 F2300
G1 X188.376 Y269.372 F2300
G1 X188.409 Y269.328 F2300
G1 X188.437 Y269.282 F2300
G1 X188.462 Y269.236 F2300
G1 X188.482 Y269.190 F2300
G1 X188.497 Y269.143 F2300
G1 X188.508 Y269.095 F2300
G1 X188.515 Y269.046 F2300
G1 X188.517 Y268.997 F2300
G1 X188.514 Y268.932 F2300
G1 X188.503 Y268.870 F2300
G1 X188.485 Y268.811 F2300
G1 X188.460 Y268.755 F2300
G1 X188.428 Y268.704 F2300
G1 X188.390 Y268.659 F2300
G1 X188.346 Y268.622 F2300
G1 X188.295 Y268.591 F2300
G1 X188.239 Y268.566 F2300
G1 X188.181 Y268.549 F2300
G1 X188.119 Y268.538 F2300
G1 X188.054 Y268.535 F2300
G1 X187.989 Y268.538 F2300
G1 X187.926 Y268.549 F2300
G1 X187.865 Y268.566 F2300
G1 X187.807 Y268.590 F2300
G1 X187.753 Y268.621 F2300
G1 X187.707 Y268.658 F2300
G1 X187.668 Y268.700 F2300
G1 X187.637 Y268.749 F2300
G1 X187.613 Y268.803 F2300
G1 X187.595 Y268.861 F2300
G1 X187.585 Y268.922 F2300
G1 X187.581 Y268.988 F2300
G1 X187.583 Y269.036 F2300
G1 X187.589 Y269.082 F2300
G1 X187.599 Y269.125 F2300
G1 X187.613 Y269.166 F2300
G1 X187.631 Y269.203 F2300
G1 X187.651 Y269.236 F2300
G1 X187.675 Y269.265 F2300
G1 X187.702 Y269.290 F2300
G1 X187.732 Y269.311 F2300
G1 X187.767 Y269.330 F2300
G1 X187.806 Y269.345 F2300
G1 X187.850 Y269.358 F2300
G1 X187.879 Y269.250 F2300
G1 X187.847 Y269.240 F2300
G1 X187.818 Y269.228 F2300
G1 X187.792 Y269.214 F2300
G1 X187.771 Y269.200 F2300
G1 X187.752 Y269.183 F2300
G1 X187.735 Y269.163 F2300
G1 X187.720 Y269.140 F2300
G1 X187.708 Y269.113 F2300
G1 X187.697 Y269.085 F2300
G1 X187.690 Y269.054 F2300
G1 X187.685 Y269.022 F2300
G1 X187.684 Y268.989 F2300
G1 X187.685 Y268.949 F2300
G1 X187.690 Y268.912 F2300
G1 X187.698 Y268.878 F2300
G1 X187.709 Y268.847 F2300
G1 X187.722 Y268.818 F2300
G1 X187.738 Y268.793 F2300
G1 X187.755 Y268.770 F2300
G1 X187.775 Y268.750 F2300
G1 X187.795 Y268.733 F2300
G1 X187.817 Y268.717 F2300
G1 X187.840 Y268.704 F2300
G1 X187.864 Y268.693 F2300
G1 X187.907 Y268.678 F2300
G1 X187.952 Y268.667 F2300
G1 X187.998 Y268.661 F2300
G1 X188.046 Y268.658 F2300
G1 X188.104 Y268.661 F2300
G1 X188.157 Y268.669 F2300
G1 X188.205 Y268.682 F2300
G1 X188.249 Y268.700 F2300
G1 X188.287 Y268.723 F2300
G1 X188.320 Y268.751 F2300
G1 X188.347 Y268.784 F2300
G1 X188.370 Y268.821 F2300
G1 X188.387 Y268.862 F2300
G1 X188.399 Y268.904 F2300
G1 X188.407 Y268.946 F2300
G1 X188.409 Y268.991 F2300
G1 X188.407 Y269.029 F2300
G1 X188.402 Y269.067 F2300
G1 X188.392 Y269.105 F2300
G1 X188.379 Y269.142 F2300
G1 X188.364 Y269.177 F2300
G1 X188.348 Y269.208 F2300
G1 X188.332 Y269.233 F2300
G1 X188.315 Y269.255 F2300
G1 X188.147 Y269.255 F2300
G1 X188.147 Y268.989 F2300
M5
G4 P0.050
; PATH 116 layer=0 points=11 length=5.417
G0 X188.502 Y267.651 F6000
M3 S1000
G4 P0.085
G1 X187.597 Y267.651 F2300
G1 X187.597 Y267.774 F2300
G1 X188.307 Y268.249 F2300
G1 X187.597 Y268.249 F2300
G1 X187.597 Y268.364 F2300
G1 X188.502 Y268.364 F2300
G1 X188.502 Y268.241 F2300
G1 X187.791 Y267.766 F2300
G1 X188.502 Y267.766 F2300
G1 X188.502 Y267.651 F2300
M5
G4 P0.050
; PATH 117 layer=0 points=12 length=1.236
G0 X188.130 Y266.971 F6000
M3 S1000
G4 P0.085
G1 X188.130 Y267.278 F2300
G1 X187.879 Y267.183 F2300
G1 X187.825 Y267.163 F2300
G1 X187.775 Y267.145 F2300
G1 X187.731 Y267.131 F2300
G1 X187.692 Y267.119 F2300
G1 X187.735 Y267.109 F2300
G1 X187.779 Y267.098 F2300
G1 X187.822 Y267.085 F2300
G1 X187.865 Y267.070 F2300
G1 X188.130 Y266.971 F2300
M5
G4 P0.050
; PATH 118 layer=0 points=9 length=3.303
G0 X188.502 Y266.710 F6000
M3 S1000
G4 P0.085
G1 X187.597 Y267.057 F2300
G1 X187.597 Y267.186 F2300
G1 X188.502 Y267.557 F2300
G1 X188.502 Y267.420 F2300
G1 X188.228 Y267.315 F2300
G1 X188.228 Y266.936 F2300
G1 X188.502 Y266.837 F2300
G1 X188.502 Y266.710 F2300
M5
G4 P0.050
; PATH 119 layer=0 points=7 length=2.941
G0 X188.502 Y266.101 F6000
M3 S1000
G4 P0.085
G1 X187.597 Y266.101 F2300
G1 X187.597 Y266.221 F2300
G1 X188.395 Y266.221 F2300
G1 X188.395 Y266.666 F2300
G1 X188.502 Y266.666 F2300
G1 X188.502 Y266.101 F2300
M5
G4 P0.050
; PATH 120 layer=0 points=2 length=11.313
G0 X186.952 Y276.335 F6000
M3 S1000
G4 P0.085
G1 X198.265 Y276.335 F2300
M5
G4 P0.050
; PATH 121 layer=0 points=53 length=4.096
G0 X194.226 Y277.724 F6000
M3 S1000
G4 P0.085
G1 X193.321 Y277.724 F2300
G1 X193.321 Y278.125 F2300
G1 X193.322 Y278.182 F2300
G1 X193.327 Y278.232 F2300
G1 X193.334 Y278.274 F2300
G1 X193.345 Y278.309 F2300
G1 X193.360 Y278.339 F2300
G1 X193.379 Y278.366 F2300
G1 X193.403 Y278.389 F2300
G1 X193.431 Y278.410 F2300
G1 X193.463 Y278.426 F2300
G1 X193.496 Y278.438 F2300
G1 X193.531 Y278.445 F2300
G1 X193.568 Y278.447 F2300
G1 X193.614 Y278.444 F2300
G1 X193.656 Y278.432 F2300
G1 X193.695 Y278.412 F2300
G1 X193.730 Y278.385 F2300
G1 X193.760 Y278.350 F2300
G1 X193.784 Y278.306 F2300
G1 X193.802 Y278.253 F2300
G1 X193.814 Y278.192 F2300
G1 X193.825 Y278.215 F2300
G1 X193.837 Y278.234 F2300
G1 X193.848 Y278.251 F2300
G1 X193.859 Y278.265 F2300
G1 X193.884 Y278.291 F2300
G1 X193.913 Y278.316 F2300
G1 X193.945 Y278.340 F2300
G1 X193.979 Y278.364 F2300
G1 X194.226 Y278.521 F2300
G1 X194.226 Y278.371 F2300
G1 X194.037 Y278.251 F2300
G1 X193.999 Y278.226 F2300
G1 X193.965 Y278.203 F2300
G1 X193.937 Y278.183 F2300
G1 X193.913 Y278.165 F2300
G1 X193.893 Y278.148 F2300
G1 X193.876 Y278.133 F2300
G1 X193.862 Y278.118 F2300
G1 X193.852 Y278.104 F2300
G1 X193.844 Y278.090 F2300
G1 X193.837 Y278.077 F2300
G1 X193.832 Y278.063 F2300
G1 X193.828 Y278.049 F2300
G1 X193.826 Y278.037 F2300
G1 X193.825 Y278.022 F2300
G1 X193.824 Y278.004 F2300
G1 X193.824 Y277.983 F2300
G1 X193.824 Y277.844 F2300
G1 X194.226 Y277.844 F2300
G1 X194.226 Y277.724 F2300
M5
G4 P0.050
; PATH 122 layer=0 points=24 length=1.424
G0 X193.720 Y277.844 F6000
M3 S1000
G4 P0.085
G1 X193.720 Y278.101 F2300
G1 X193.719 Y278.140 F2300
G1 X193.716 Y278.174 F2300
G1 X193.710 Y278.204 F2300
G1 X193.703 Y278.230 F2300
G1 X193.693 Y278.251 F2300
G1 X193.681 Y278.270 F2300
G1 X193.666 Y278.286 F2300
G1 X193.649 Y278.300 F2300
G1 X193.630 Y278.310 F2300
G1 X193.610 Y278.318 F2300
G1 X193.589 Y278.322 F2300
G1 X193.568 Y278.324 F2300
G1 X193.537 Y278.321 F2300
G1 X193.509 Y278.312 F2300
G1 X193.484 Y278.298 F2300
G1 X193.462 Y278.277 F2300
G1 X193.444 Y278.251 F2300
G1 X193.431 Y278.217 F2300
G1 X193.423 Y278.177 F2300
G1 X193.421 Y278.130 F2300
G1 X193.421 Y277.844 F2300
G1 X193.720 Y277.844 F2300
M5
G4 P0.050
; PATH 123 layer=0 points=13 length=5.231
G0 X194.226 Y278.638 F6000
M3 S1000
G4 P0.085
G1 X193.321 Y278.638 F2300
G1 X193.321 Y279.292 F2300
G1 X193.427 Y279.292 F2300
G1 X193.427 Y278.757 F2300
G1 X193.705 Y278.757 F2300
G1 X193.705 Y279.258 F2300
G1 X193.811 Y279.258 F2300
G1 X193.811 Y278.757 F2300
G1 X194.119 Y278.757 F2300
G1 X194.119 Y279.313 F2300
G1 X194.226 Y279.313 F2300
G1 X194.226 Y278.638 F2300
M5
G4 P0.050
; PATH 124 layer=0 points=16 length=4.028
G0 X194.226 Y279.737 F6000
M3 S1000
G4 P0.085
G1 X193.321 Y279.386 F2300
G1 X193.321 Y279.516 F2300
G1 X193.978 Y279.751 F2300
G1 X194.017 Y279.765 F2300
G1 X194.055 Y279.777 F2300
G1 X194.091 Y279.789 F2300
G1 X194.126 Y279.799 F2300
G1 X194.089 Y279.810 F2300
G1 X194.052 Y279.821 F2300
G1 X194.015 Y279.834 F2300
G1 X193.978 Y279.847 F2300
G1 X193.321 Y280.092 F2300
G1 X193.321 Y280.214 F2300
G1 X194.226 Y279.860 F2300
G1 X194.226 Y279.737 F2300
M5
G4 P0.050
; PATH 125 layer=0 points=5 length=0.506
G0 X194.226 Y280.339 F6000
M3 S1000
G4 P0.085
G1 X194.099 Y280.339 F2300
G1 X194.099 Y280.465 F2300
G1 X194.226 Y280.465 F2300
G1 X194.226 Y280.339 F2300
M5
G4 P0.050
; PATH 126 layer=0 points=2 length=102.694
G0 X192.609 Y283.181 F6000
M3 S1000
G4 P0.085
G1 X192.609 Y180.487 F2300
M5
G4 P0.050
; PATH 127 layer=0 points=63 length=20.825
G0 X192.235 Y178.245 F6000
M3 S1000
G4 P0.085
G1 X192.306 Y178.325 F2300
G1 X192.306 Y176.413 F2300
G1 X189.073 Y176.413 F2300
G1 X189.073 Y176.952 F2300
G1 X189.085 Y177.141 F2300
G1 X189.120 Y177.327 F2300
G1 X189.179 Y177.508 F2300
G1 X189.259 Y177.679 F2300
G1 X189.360 Y177.840 F2300
G1 X189.481 Y177.986 F2300
G1 X189.619 Y178.116 F2300
G1 X189.772 Y178.228 F2300
G1 X189.937 Y178.320 F2300
G1 X190.113 Y178.391 F2300
G1 X190.297 Y178.439 F2300
G1 X190.484 Y178.464 F2300
G1 X190.674 Y178.465 F2300
G1 X190.862 Y178.442 F2300
G1 X191.046 Y178.396 F2300
G1 X191.223 Y178.328 F2300
G1 X191.390 Y178.238 F2300
G1 X191.544 Y178.128 F2300
G1 X191.683 Y177.999 F2300
G1 X191.805 Y177.854 F2300
G1 X191.909 Y177.695 F2300
G1 X191.951 Y177.794 F2300
G1 X191.998 Y177.890 F2300
G1 X192.050 Y177.983 F2300
G1 X192.107 Y178.074 F2300
G1 X192.169 Y178.161 F2300
G1 X192.235 Y178.245 F2300
G1 X192.306 Y178.325 F2300
G1 X192.306 Y176.413 F2300
G1 X189.073 Y176.413 F2300
G1 X189.073 Y176.952 F2300
G1 X189.085 Y177.141 F2300
G1 X189.120 Y177.327 F2300
G1 X189.179 Y177.508 F2300
G1 X189.259 Y177.679 F2300
G1 X189.360 Y177.840 F2300
G1 X189.481 Y177.986 F2300
G1 X189.619 Y178.116 F2300
G1 X189.772 Y178.228 F2300
G1 X189.937 Y178.320 F2300
G1 X190.113 Y178.391 F2300
G1 X190.297 Y178.439 F2300
G1 X190.484 Y178.464 F2300
G1 X190.674 Y178.465 F2300
G1 X190.862 Y178.442 F2300
G1 X191.046 Y178.396 F2300
G1 X191.223 Y178.328 F2300
G1 X191.390 Y178.238 F2300
G1 X191.544 Y178.128 F2300
G1 X191.683 Y177.999 F2300
G1 X191.805 Y177.854 F2300
G1 X191.909 Y177.695 F2300
G1 X191.951 Y177.794 F2300
G1 X191.998 Y177.890 F2300
G1 X192.050 Y177.983 F2300
G1 X192.107 Y178.074 F2300
G1 X192.169 Y178.161 F2300
G1 X192.235 Y178.245 F2300
M5
G4 P0.050
; PATH 128 layer=0 points=9 length=3.965
G0 X192.077 Y177.527 F6000
M3 S1000
G4 P0.085
G1 X191.762 Y177.918 F2300
G1 X191.348 Y178.179 F2300
G1 X190.872 Y178.295 F2300
G1 X190.372 Y178.249 F2300
G1 X189.915 Y178.043 F2300
G1 X189.557 Y177.709 F2300
G1 X189.325 Y177.279 F2300
G1 X189.242 Y176.784 F2300
M5
G4 P0.050
; PATH 129 layer=0 points=22 length=7.513
G0 X185.808 Y176.484 F6000
M3 S1000
G4 P0.085
G1 X184.844 Y176.189 F2300
G1 X184.844 Y176.358 F2300
G1 X185.400 Y176.511 F2300
G1 X185.607 Y176.569 F2300
G1 X185.589 Y176.573 F2300
G1 X185.550 Y176.583 F2300
G1 X185.490 Y176.598 F2300
G1 X185.409 Y176.619 F2300
G1 X184.844 Y176.772 F2300
G1 X184.844 Y176.940 F2300
G1 X185.403 Y177.084 F2300
G1 X185.587 Y177.132 F2300
G1 X185.401 Y177.188 F2300
G1 X184.844 Y177.353 F2300
G1 X184.844 Y177.512 F2300
G1 X185.808 Y177.210 F2300
G1 X185.808 Y177.041 F2300
G1 X185.231 Y176.887 F2300
G1 X185.066 Y176.850 F2300
G1 X185.808 Y176.655 F2300
G1 X185.808 Y176.484 F2300
M5
G4 P0.050
; PATH 130 layer=0 points=33 length=2.096
